;FLAVOR:UltiGCode
;TIME:901
;MATERIAL:1193
;MATERIAL2:0
;NOZZLE_DIAMETER:0.4
;Generated with Cura_SteamEngine 3.4.1
M82 ;absolute extrusion mode

G92 E0
G10
;LAYER_COUNT:233
;LAYER:0
M107
G0 F4500 X106.617 Y102.337 Z0.27
;TYPE:SKIRT
G11
G1 F1800 X107.816 Y101.191 E0.15674
G1 X108.182 Y100.881 E0.20206
G1 X109.294 Y100.055 E0.33297
G1 X109.689 Y99.798 E0.3775
G1 X111.065 Y99.015 E0.52711
G1 X111.49 Y98.806 E0.57187
G1 X112.841 Y98.243 E0.71018
G1 X113.303 Y98.084 E0.75635
G1 X114.882 Y97.649 E0.91112
G1 X115.355 Y97.55 E0.95679
G1 X116.783 Y97.343 E1.09315
G1 X117.252 Y97.304 E1.13762
G1 X118.77 Y97.27 E1.28111
G1 X119.254 Y97.289 E1.32688
G1 X120.857 Y97.454 E1.47916
G1 X121.263 Y97.518 E1.51801
G1 X122.198 Y97.716 E1.60832
G1 X122.557 Y97.81 E1.64339
G1 X123.928 Y98.241 E1.7792
G1 X124.372 Y98.412 E1.82416
G1 X125.797 Y99.061 E1.97214
G1 X126.219 Y99.285 E2.01728
G1 X127.481 Y100.06 E2.15724
G1 X127.857 Y100.323 E2.2006
G1 X129.019 Y101.242 E2.3406
G1 X129.374 Y101.56 E2.38564
G1 X130.424 Y102.625 E2.52697
G1 X130.666 Y102.895 E2.56123
G1 X131.201 Y103.55 E2.64115
G1 X131.448 Y103.887 E2.68064
G1 X132.423 Y105.385 E2.84954
G1 X132.67 Y105.826 E2.89731
G1 X133.299 Y107.14 E3.03497
G1 X133.468 Y107.553 E3.07714
G1 X133.916 Y108.856 E3.20735
G1 X133.967 Y109.015 E3.22313
G1 X136.056 Y116.063 E3.91781
G1 X137.926 Y121.146 E4.42963
G1 X140.095 Y126.152 E4.94519
G1 X142.78 Y131.559 E5.51568
G1 X142.991 Y132.074 E5.56828
G1 X143.126 Y132.614 E5.62088
G1 X143.182 Y133.168 E5.6735
G1 X143.177 Y133.51 E5.70582
G1 X143.15 Y133.971 E5.74946
G1 X143.078 Y134.522 E5.80197
G1 X142.927 Y135.058 E5.85459
G1 X142.802 Y135.364 E5.88583
G1 X142.698 Y135.59 E5.90934
G1 X142.43 Y136.077 E5.96187
G1 X142.095 Y136.521 E6.01443
G1 X141.816 Y136.808 E6.05226
G1 X141.476 Y137.124 E6.09612
G1 X141.042 Y137.473 E6.14875
G1 X140.563 Y137.756 E6.20132
G1 X140.048 Y137.967 E6.25392
G1 X139.746 Y138.053 E6.28359
G1 X139.269 Y138.168 E6.32996
G1 X138.72 Y138.259 E6.38255
G1 X138.164 Y138.271 E6.4351
G1 X137.35 Y138.142 E6.51299
G1 X136.921 Y138.026 E6.55498
G1 X136.221 Y137.762 E6.62568
G1 X129.538 Y134.473 E7.32956
G1 X124.519 Y132.398 E7.84279
G1 X119.378 Y130.609 E8.35719
G1 X112.913 Y128.704 E8.99411
G1 X112.406 Y128.515 E9.04524
G1 X110.994 Y127.874 E9.19178
G1 X110.579 Y127.654 E9.23617
G1 X109.331 Y126.893 E9.3743
G1 X108.949 Y126.628 E9.41823
G1 X107.792 Y125.716 E9.55745
G1 X107.41 Y125.372 E9.60603
G1 X106.165 Y124.089 E9.77498
G1 X105.838 Y123.704 E9.82271
G1 X104.976 Y122.546 E9.95913
G1 X104.726 Y122.165 E10.0022
G1 X103.996 Y120.897 E10.14046
G1 X103.823 Y120.56 E10.17626
G1 X103.438 Y119.708 E10.26461
G1 X103.305 Y119.372 E10.29876
G1 X102.857 Y118.069 E10.42897
G1 X102.756 Y117.725 E10.46285
G1 X102.544 Y116.854 E10.54756
G1 X102.474 Y116.494 E10.58222
G1 X102.269 Y115.081 E10.71714
G1 X102.23 Y114.608 E10.76199
G1 X102.196 Y113.013 E10.91276
G1 X102.216 Y112.522 E10.95919
G1 X102.379 Y110.981 E11.10563
G1 X102.441 Y110.59 E11.14304
G1 X102.639 Y109.65 E11.23382
G1 X102.742 Y109.262 E11.27176
G1 X103.229 Y107.748 E11.42205
G1 X103.405 Y107.3 E11.46754
G1 X104.015 Y105.989 E11.60418
G1 X104.229 Y105.592 E11.6468
G1 X104.983 Y104.368 E11.78265
G1 X105.259 Y103.976 E11.82796
G1 X106.271 Y102.714 E11.98083
G1 X106.617 Y102.337 E12.02918
G0 F4500 X106.858 Y102.59
G1 F1800 X108.057 Y101.444 E12.18592
G1 X108.391 Y101.162 E12.22723
G1 X109.503 Y100.336 E12.35813
G1 X109.862 Y100.102 E12.39863
G1 X111.238 Y99.319 E12.54824
G1 X111.625 Y99.129 E12.58898
G1 X112.976 Y98.566 E12.72729
G1 X113.396 Y98.422 E12.76925
G1 X114.975 Y97.987 E12.92402
G1 X115.405 Y97.896 E12.96556
G1 X116.833 Y97.689 E13.10191
G1 X117.26 Y97.654 E13.1424
G1 X118.778 Y97.62 E13.28589
G1 X119.218 Y97.638 E13.3275
G1 X120.821 Y97.803 E13.47979
G1 X121.19 Y97.86 E13.51507
G1 X122.125 Y98.058 E13.60539
G1 X122.452 Y98.144 E13.63734
G1 X123.823 Y98.575 E13.77315
G1 X124.227 Y98.73 E13.81404
G1 X125.652 Y99.379 E13.96201
G1 X126.036 Y99.583 E14.0031
G1 X127.298 Y100.358 E14.14305
G1 X127.64 Y100.597 E14.18248
G1 X128.802 Y101.516 E14.32248
G1 X129.125 Y101.806 E14.3635
G1 X130.175 Y102.871 E14.50484
G1 X130.395 Y103.116 E14.53595
G1 X130.93 Y103.771 E14.61587
G1 X131.154 Y104.078 E14.65179
G1 X132.129 Y105.576 E14.82069
G1 X132.354 Y105.977 E14.86414
G1 X132.983 Y107.291 E15.00181
G1 X133.137 Y107.667 E15.04021
G1 X133.585 Y108.97 E15.17042
G1 X133.632 Y109.114 E15.18473
G1 X135.73 Y116.191 E15.88228
G1 X137.601 Y121.279 E16.39457
G1 X139.776 Y126.298 E16.91149
G1 X142.466 Y131.715 E17.48303
G1 X142.666 Y132.207 E17.53322
G1 X142.789 Y132.723 E17.58335
G1 X142.828 Y133.489 E17.65583
G1 X142.801 Y133.95 E17.69947
G1 X142.73 Y134.476 E17.74963
G1 X142.484 Y135.218 E17.8235
G1 X142.38 Y135.444 E17.84701
G1 X142.123 Y135.908 E17.89714
G1 X141.798 Y136.328 E17.94732
G1 X141.578 Y136.552 E17.97699
G1 X141.238 Y136.868 E18.02086
G1 X140.823 Y137.199 E18.07102
G1 X140.363 Y137.464 E18.12119
G1 X139.664 Y137.713 E18.19131
G1 X139.187 Y137.828 E18.23768
G1 X138.663 Y137.913 E18.28784
G1 X138.133 Y137.919 E18.33793
G1 X137.441 Y137.804 E18.40422
G1 X137.012 Y137.688 E18.44622
G1 X136.376 Y137.448 E18.51046
G1 X129.694 Y134.16 E19.21421
G1 X124.625 Y132.064 E19.73257
G1 X119.487 Y130.276 E20.24667
G1 X113.012 Y128.368 E20.88457
G1 X112.551 Y128.197 E20.93103
G1 X111.139 Y127.556 E21.07757
G1 X110.761 Y127.356 E21.11799
G1 X109.513 Y126.595 E21.25612
G1 X109.166 Y126.353 E21.2961
G1 X108.009 Y125.441 E21.43532
G1 X107.661 Y125.128 E21.47955
G1 X106.416 Y123.845 E21.64849
G1 X106.118 Y123.495 E21.69193
G1 X105.256 Y122.337 E21.82835
G1 X105.029 Y121.991 E21.86746
G1 X104.299 Y120.723 E22.00572
G1 X104.142 Y120.416 E22.03831
G1 X103.757 Y119.564 E22.12666
G1 X103.636 Y119.258 E22.15776
G1 X103.188 Y117.955 E22.28797
G1 X103.096 Y117.643 E22.3187
G1 X102.884 Y116.772 E22.40342
G1 X102.821 Y116.444 E22.43498
G1 X102.616 Y115.031 E22.56991
G1 X102.58 Y114.6 E22.61078
G1 X102.546 Y113.005 E22.76154
G1 X102.565 Y112.559 E22.80372
G1 X102.728 Y111.018 E22.95016
G1 X102.784 Y110.662 E22.98422
G1 X102.982 Y109.722 E23.075
G1 X103.075 Y109.37 E23.1094
G1 X103.562 Y107.856 E23.25969
G1 X103.722 Y107.448 E23.30111
G1 X104.332 Y106.137 E23.43775
G1 X104.527 Y105.775 E23.47661
G1 X105.281 Y104.551 E23.61246
G1 X105.532 Y104.195 E23.65363
G1 X106.544 Y102.933 E23.80649
G1 X106.858 Y102.59 E23.85044
G0 F4500 X107.1 Y102.843
G1 F1800 X108.299 Y101.697 E24.00717
G1 X108.6 Y101.443 E24.04439
G1 X109.712 Y100.617 E24.1753
G1 X110.035 Y100.406 E24.21176
G1 X111.411 Y99.623 E24.36137
G1 X111.76 Y99.452 E24.39809
G1 X113.111 Y98.889 E24.5364
G1 X113.489 Y98.759 E24.57418
G1 X115.068 Y98.324 E24.72895
G1 X115.456 Y98.243 E24.76641
G1 X116.884 Y98.036 E24.90277
G1 X117.268 Y98.004 E24.93918
G1 X118.786 Y97.97 E25.08267
G1 X119.182 Y97.986 E25.12012
G1 X120.785 Y98.151 E25.2724
G1 X121.118 Y98.203 E25.30425
G1 X122.053 Y98.401 E25.39457
G1 X122.347 Y98.478 E25.42329
G1 X123.718 Y98.909 E25.5591
G1 X124.082 Y99.049 E25.59596
G1 X125.507 Y99.698 E25.74393
G1 X125.852 Y99.881 E25.78083
G1 X127.114 Y100.656 E25.92078
G1 X127.423 Y100.872 E25.95641
G1 X128.585 Y101.791 E26.09641
G1 X128.876 Y102.052 E26.13335
G1 X129.926 Y103.117 E26.27468
G1 X130.124 Y103.338 E26.30272
G1 X130.659 Y103.993 E26.38264
G1 X130.861 Y104.269 E26.41496
G1 X131.836 Y105.767 E26.58387
G1 X132.039 Y106.128 E26.62301
G1 X132.668 Y107.442 E26.76067
G1 X132.806 Y107.781 E26.79526
G1 X133.254 Y109.084 E26.92547
G1 X133.296 Y109.214 E26.93838
G1 X135.391 Y116.282 E27.63503
G1 X137.282 Y121.425 E28.15286
G1 X139.454 Y126.437 E28.66905
G1 X142.153 Y131.871 E29.24242
G1 X142.34 Y132.338 E29.28996
G1 X142.451 Y132.829 E29.33753
G1 X142.479 Y133.469 E29.39806
G1 X142.452 Y133.93 E29.4417
G1 X142.382 Y134.428 E29.48923
G1 X142.166 Y135.071 E29.55333
G1 X142.062 Y135.297 E29.57684
G1 X141.816 Y135.737 E29.62447
G1 X141.339 Y136.296 E29.69392
G1 X140.999 Y136.612 E29.73778
G1 X140.605 Y136.924 E29.78528
G1 X140.165 Y137.17 E29.83291
G1 X139.582 Y137.373 E29.89125
G1 X139.105 Y137.488 E29.93762
G1 X138.608 Y137.566 E29.98516
G1 X138.104 Y137.566 E30.03279
G1 X137.532 Y137.466 E30.08766
G1 X137.103 Y137.35 E30.12966
G1 X136.53 Y137.134 E30.18753
G1 X129.826 Y133.835 E30.89361
G1 X124.769 Y131.744 E31.41073
G1 X119.597 Y129.944 E31.92824
G1 X113.111 Y128.033 E32.56722
G1 X112.696 Y127.878 E32.60908
G1 X111.284 Y127.237 E32.75562
G1 X110.943 Y127.057 E32.79206
G1 X109.695 Y126.296 E32.93019
G1 X109.383 Y126.078 E32.96616
G1 X108.226 Y125.166 E33.10538
G1 X107.912 Y124.884 E33.14526
G1 X106.667 Y123.601 E33.31421
G1 X106.399 Y123.286 E33.35329
G1 X105.537 Y122.128 E33.48971
G1 X105.332 Y121.816 E33.52499
G1 X104.602 Y120.548 E33.66326
G1 X104.461 Y120.271 E33.69263
G1 X104.076 Y119.419 E33.78098
G1 X103.967 Y119.144 E33.80894
G1 X103.519 Y117.841 E33.93915
G1 X103.436 Y117.56 E33.96683
G1 X103.224 Y116.689 E34.05155
G1 X103.167 Y116.394 E34.07994
G1 X102.962 Y114.981 E34.21487
G1 X102.93 Y114.593 E34.25166
G1 X102.896 Y112.998 E34.40242
G1 X102.913 Y112.596 E34.44044
G1 X103.076 Y111.055 E34.58688
G1 X103.126 Y110.735 E34.61748
G1 X103.324 Y109.795 E34.70826
G1 X103.409 Y109.477 E34.73937
G1 X103.896 Y107.963 E34.88966
G1 X104.039 Y107.596 E34.92688
G1 X104.649 Y106.285 E35.06353
G1 X104.825 Y105.959 E35.09854
G1 X105.579 Y104.735 E35.23439
G1 X105.805 Y104.414 E35.27149
G1 X106.817 Y103.152 E35.42436
G1 X107.1 Y102.843 E35.46395
G10
G0 F4500 X112.08 Y102.056
G0 X112.709 Y103.124
G0 X119.121 Y101.771
G0 X119.127 Y101.672
;TYPE:WALL-INNER
G11
G1 F1800 X119.867 Y101.741 E35.53419
G1 X120.61 Y101.858 E35.60527
G1 X121.328 Y102.019 E35.6748
G1 X122.024 Y102.22 E35.74326
G1 X122.727 Y102.475 E35.81393
G1 X123.43 Y102.778 E35.88627
G1 X124.078 Y103.111 E35.95512
G1 X124.711 Y103.484 E36.02455
G1 X125.329 Y103.904 E36.09516
G1 X125.93 Y104.37 E36.16703
G1 X126.47 Y104.844 E36.23493
G1 X126.995 Y105.372 E36.30529
G1 X127.492 Y105.936 E36.37633
G1 X127.946 Y106.519 E36.44616
G1 X128.363 Y107.134 E36.51638
G1 X128.732 Y107.759 E36.58497
G1 X129.07 Y108.416 E36.65479
G1 X129.377 Y109.129 E36.72815
G1 X129.624 Y109.816 E36.79714
G1 X129.83 Y110.522 E36.86664
G1 X129.989 Y111.233 E36.93548
G1 X130.107 Y111.979 E37.00686
G1 X130.178 Y112.726 E37.07777
G1 X130.201 Y113.457 E37.14688
G1 X130.179 Y114.196 E37.21675
G1 X130.109 Y114.94 E37.28737
G1 X129.991 Y115.685 E37.35865
G1 X129.83 Y116.405 E37.42837
G1 X129.63 Y117.097 E37.49644
G1 X129.37 Y117.815 E37.5686
G1 X129.083 Y118.479 E37.63696
G1 X128.748 Y119.139 E37.7069
G1 X128.359 Y119.796 E37.77906
G1 X127.946 Y120.406 E37.84867
G1 X127.492 Y120.989 E37.9185
G1 X127.002 Y121.545 E37.98853
G1 X126.47 Y122.078 E38.0597
G1 X125.919 Y122.563 E38.12907
G1 X125.33 Y123.022 E38.19963
G1 X124.721 Y123.434 E38.26911
G1 X124.07 Y123.82 E38.34064
G1 X123.424 Y124.151 E38.40923
G1 X122.74 Y124.446 E38.47962
G1 X122.035 Y124.699 E38.55041
G1 X121.32 Y124.908 E38.6208
G1 X120.609 Y125.066 E38.68963
G1 X119.867 Y125.183 E38.76061
G1 X119.125 Y125.253 E38.83104
G1 X118.385 Y125.278 E38.90101
G1 X117.647 Y125.254 E38.97079
G1 X116.905 Y125.184 E39.04122
G1 X116.163 Y125.067 E39.11221
G1 X115.445 Y124.906 E39.18174
G1 X114.747 Y124.704 E39.25041
G1 X114.046 Y124.45 E39.32087
G1 X113.34 Y124.146 E39.39351
G1 X112.7 Y123.818 E39.46147
G1 X112.057 Y123.438 E39.53205
G1 X111.442 Y123.022 E39.60222
G1 X110.867 Y122.573 E39.67116
G1 X110.284 Y122.063 E39.74436
G1 X109.777 Y121.553 E39.81231
G1 X109.281 Y120.989 E39.88329
G1 X108.827 Y120.406 E39.95312
G1 X108.414 Y119.796 E40.02273
G1 X108.025 Y119.139 E40.09489
G1 X107.697 Y118.497 E40.16301
G1 X107.399 Y117.805 E40.23421
G1 X107.148 Y117.104 E40.30458
G1 X106.941 Y116.396 E40.37428
G1 X106.783 Y115.685 E40.44311
G1 X106.665 Y114.94 E40.51439
G1 X106.595 Y114.195 E40.58511
G1 X106.571 Y113.467 E40.65394
G1 X106.595 Y112.725 E40.72409
G1 X106.665 Y111.977 E40.79509
G1 X106.783 Y111.233 E40.86628
G1 X106.946 Y110.51 E40.93631
G1 X107.143 Y109.828 E41.0034
G1 X107.396 Y109.129 E41.07365
G1 X107.703 Y108.416 E41.14701
G1 X108.025 Y107.785 E41.21395
G1 X108.409 Y107.134 E41.28538
G1 X108.827 Y106.518 E41.35572
G1 X109.281 Y105.935 E41.42555
G1 X109.77 Y105.38 E41.49545
G1 X110.311 Y104.838 E41.56782
G1 X110.845 Y104.369 E41.63498
G1 X111.439 Y103.906 E41.70615
G1 X112.056 Y103.487 E41.77664
G1 X112.7 Y103.107 E41.8473
G1 X113.35 Y102.775 E41.91627
G1 X114.037 Y102.478 E41.987
G1 X114.738 Y102.226 E42.05739
G1 X115.453 Y102.017 E42.12779
G1 X116.164 Y101.859 E42.19662
G1 X116.906 Y101.742 E42.2676
G1 X117.648 Y101.672 E42.33803
G1 X118.386 Y101.648 E42.40781
G1 X119.127 Y101.672 E42.47787
G0 F4500 X119.121 Y101.771
G0 X119.984 Y113.156
G0 X119.886 Y113.175
G1 F1800 X119.836 Y112.991 E42.49589
G1 X119.768 Y112.814 E42.51381
G1 X119.675 Y112.645 E42.53204
G1 X119.562 Y112.489 E42.55024
G1 X119.431 Y112.35 E42.56829
G1 X119.284 Y112.229 E42.58628
G1 X119.122 Y112.124 E42.60453
G1 X118.947 Y112.044 E42.62271
G1 X118.767 Y111.985 E42.64061
G1 X118.577 Y111.948 E42.6589
G1 X118.386 Y111.938 E42.67698
G1 X118.196 Y111.948 E42.69496
G1 X118.006 Y111.985 E42.71325
G1 X117.824 Y112.044 E42.73133
G1 X117.651 Y112.126 E42.74942
G1 X117.489 Y112.229 E42.76756
G1 X117.342 Y112.35 E42.78556
G1 X117.211 Y112.489 E42.80361
G1 X117.098 Y112.646 E42.82189
G1 X117.006 Y112.813 E42.8399
G1 X116.936 Y112.99 E42.85789
G1 X116.887 Y113.175 E42.87598
G1 X116.863 Y113.366 E42.89417
G1 X116.863 Y113.559 E42.91241
G1 X116.887 Y113.748 E42.93041
G1 X116.936 Y113.935 E42.94868
G1 X117.007 Y114.113 E42.96679
G1 X117.098 Y114.279 E42.98468
G1 X117.211 Y114.436 E43.00296
G1 X117.342 Y114.574 E43.02094
G1 X117.489 Y114.697 E43.03905
G1 X117.653 Y114.801 E43.0574
G1 X117.824 Y114.881 E43.07524
G1 X118.006 Y114.94 E43.09332
G1 X118.194 Y114.977 E43.11143
G1 X118.386 Y114.989 E43.12961
G1 X118.579 Y114.977 E43.14788
G1 X118.768 Y114.94 E43.16608
G1 X118.947 Y114.881 E43.18389
G1 X119.12 Y114.801 E43.2019
G1 X119.284 Y114.697 E43.22026
G1 X119.431 Y114.574 E43.23837
G1 X119.562 Y114.436 E43.25635
G1 X119.675 Y114.279 E43.27463
G1 X119.767 Y114.111 E43.29273
G1 X119.836 Y113.936 E43.31051
G1 X119.886 Y113.748 E43.32889
G1 X119.909 Y113.556 E43.34716
G1 X119.909 Y113.369 E43.36484
G1 X119.886 Y113.175 E43.3833
G0 F4500 X119.566 Y113.237
;TYPE:WALL-OUTER
G1 F1800 X119.527 Y113.092 E43.39749
G1 X119.473 Y112.952 E43.41167
G1 X119.4 Y112.82 E43.42592
G1 X119.311 Y112.697 E43.44027
G1 X119.208 Y112.588 E43.45444
G1 X119.092 Y112.492 E43.46867
G1 X118.965 Y112.41 E43.48296
G1 X118.828 Y112.347 E43.49721
G1 X118.685 Y112.3 E43.51143
G1 X118.537 Y112.271 E43.52568
G1 X118.386 Y112.263 E43.53997
G1 X118.236 Y112.271 E43.55417
G1 X118.088 Y112.3 E43.56842
G1 X117.944 Y112.347 E43.58273
G1 X117.808 Y112.411 E43.59694
G1 X117.681 Y112.492 E43.61117
G1 X117.565 Y112.588 E43.6254
G1 X117.462 Y112.697 E43.63957
G1 X117.373 Y112.82 E43.65392
G1 X117.301 Y112.952 E43.66813
G1 X117.245 Y113.092 E43.68238
G1 X117.207 Y113.237 E43.69654
G1 X117.188 Y113.387 E43.71083
G1 X117.188 Y113.538 E43.7251
G1 X117.207 Y113.687 E43.7393
G1 X117.245 Y113.834 E43.75364
G1 X117.301 Y113.974 E43.76789
G1 X117.373 Y114.105 E43.78202
G1 X117.462 Y114.228 E43.79637
G1 X117.565 Y114.337 E43.81054
G1 X117.681 Y114.434 E43.82483
G1 X117.809 Y114.515 E43.83914
G1 X117.944 Y114.578 E43.85322
G1 X118.088 Y114.625 E43.86753
G1 X118.235 Y114.654 E43.88169
G1 X118.386 Y114.663 E43.89599
G1 X118.538 Y114.654 E43.91038
G1 X118.685 Y114.625 E43.92454
G1 X118.828 Y114.578 E43.93876
G1 X118.964 Y114.515 E43.95293
G1 X119.092 Y114.434 E43.96724
G1 X119.208 Y114.337 E43.98153
G1 X119.311 Y114.228 E43.9957
G1 X119.4 Y114.105 E44.01005
G1 X119.472 Y113.973 E44.02426
G1 X119.527 Y113.834 E44.03838
G1 X119.566 Y113.687 E44.05276
G1 X119.584 Y113.537 E44.06703
G1 X119.584 Y113.388 E44.08111
G1 X119.566 Y113.237 E44.09548
G0 F4500 X119.527 Y113.092
G0 X119.509 Y113.046
G0 X119.906 Y112.895
G0 X119.121 Y101.771
G0 X119.151 Y101.347
G1 F1800 X119.902 Y101.417 E44.16676
G1 X120.668 Y101.538 E44.24005
G1 X121.407 Y101.704 E44.31162
G1 X122.135 Y101.914 E44.38322
