;FLAVOR:UltiGCode
;TIME:19064
;MATERIAL:34620
;MATERIAL2:0
;NOZZLE_DIAMETER:0.4
;Generated with Cura_SteamEngine 3.4.1
M82 ;absolute extrusion mode

G92 E0
G10
;LAYER_COUNT:226
;LAYER:0
M107
G0 F4500 X64.648 Y85.424 Z0.27
;TYPE:SKIRT
G11
G1 F1800 X65.287 Y84.954 E0.07496
G1 X65.971 Y84.551 E0.14998
G1 X66.691 Y84.218 E0.22495
G1 X67.441 Y83.96 E0.2999
G1 X68.214 Y83.778 E0.37495
G1 X69 Y83.675 E0.44986
G1 X69.628 Y83.65 E0.50925
G1 X153.372 Y83.65 E8.42306
G1 X154.164 Y83.69 E8.498
G1 X154.949 Y83.809 E8.57303
G1 X155.717 Y84.007 E8.64798
G1 X156.462 Y84.282 E8.72302
G1 X157.175 Y84.629 E8.79796
G1 X157.85 Y85.047 E8.87298
G1 X158.479 Y85.53 E8.94793
G1 X158.94 Y85.957 E9.00731
G1 X159.043 Y86.06 E9.02107
G1 X159.576 Y86.648 E9.09607
G1 X160.046 Y87.287 E9.17103
G1 X160.449 Y87.971 E9.24606
G1 X160.782 Y88.691 E9.32102
G1 X161.04 Y89.441 E9.39597
G1 X161.222 Y90.214 E9.47102
G1 X161.325 Y91 E9.54593
G1 X161.35 Y91.628 E9.60532
G1 X161.35 Y131.372 E13.36113
G1 X161.31 Y132.164 E13.43607
G1 X161.191 Y132.949 E13.5111
G1 X160.993 Y133.717 E13.58605
G1 X160.718 Y134.462 E13.66109
G1 X160.371 Y135.175 E13.73603
G1 X159.953 Y135.85 E13.81106
G1 X159.47 Y136.479 E13.886
G1 X159.043 Y136.94 E13.94538
G1 X158.94 Y137.043 E13.95915
G1 X158.352 Y137.576 E14.03414
G1 X157.713 Y138.046 E14.1091
G1 X157.029 Y138.449 E14.18413
G1 X156.309 Y138.782 E14.25909
G1 X155.559 Y139.04 E14.33404
G1 X154.786 Y139.222 E14.40909
G1 X154 Y139.325 E14.484
G1 X153.372 Y139.35 E14.54339
G1 X69.628 Y139.35 E22.4572
G1 X68.836 Y139.31 E22.53214
G1 X68.051 Y139.191 E22.60717
G1 X67.283 Y138.993 E22.68212
G1 X66.538 Y138.718 E22.75717
G1 X65.825 Y138.371 E22.8321
G1 X65.15 Y137.953 E22.90713
G1 X64.521 Y137.47 E22.98207
G1 X64.06 Y137.043 E23.04145
G1 X63.957 Y136.94 E23.05522
G1 X63.424 Y136.352 E23.13021
G1 X62.954 Y135.713 E23.20518
G1 X62.551 Y135.029 E23.2802
G1 X62.218 Y134.309 E23.35516
G1 X61.96 Y133.559 E23.43011
G1 X61.778 Y132.786 E23.50516
G1 X61.675 Y132 E23.58007
G1 X61.65 Y131.372 E23.63947
G1 X61.65 Y91.628 E27.39527
G1 X61.69 Y90.836 E27.47021
G1 X61.809 Y90.051 E27.54524
G1 X62.007 Y89.283 E27.62019
G1 X62.282 Y88.538 E27.69524
G1 X62.629 Y87.825 E27.77017
G1 X63.047 Y87.15 E27.8452
G1 X63.53 Y86.521 E27.92014
G1 X63.957 Y86.06 E27.97952
G1 X64.06 Y85.957 E27.99329
G1 X64.648 Y85.424 E28.06829
G0 F4500 X64.883 Y85.685
G1 F1800 X65.509 Y85.227 E28.14159
G1 X66.18 Y84.837 E28.21493
G1 X66.886 Y84.517 E28.28818
G1 X67.622 Y84.272 E28.36148
G1 X68.38 Y84.104 E28.43485
G1 X69.15 Y84.015 E28.5081
G1 X69.628 Y84 E28.55329
G1 X153.372 Y84 E36.4671
G1 X154.147 Y84.04 E36.54044
G1 X154.913 Y84.159 E36.61369
G1 X155.663 Y84.357 E36.687
G1 X156.389 Y84.631 E36.76033
G1 X157.082 Y84.978 E36.83357
G1 X157.736 Y85.395 E36.90686
G1 X158.344 Y85.877 E36.98018
G1 X158.693 Y86.204 E37.02538
G1 X158.796 Y86.307 E37.03914
G1 X159.315 Y86.883 E37.11241
G1 X159.773 Y87.509 E37.18571
G1 X160.163 Y88.18 E37.25905
G1 X160.483 Y88.886 E37.3323
G1 X160.728 Y89.622 E37.40561
G1 X160.896 Y90.38 E37.47898
G1 X160.985 Y91.15 E37.55223
G1 X161 Y91.628 E37.59742
G1 X161 Y131.372 E41.35323
G1 X160.96 Y132.147 E41.42656
G1 X160.841 Y132.913 E41.49982
G1 X160.643 Y133.663 E41.57312
G1 X160.369 Y134.389 E41.64645
G1 X160.022 Y135.082 E41.71969
G1 X159.605 Y135.736 E41.79299
G1 X159.123 Y136.344 E41.86631
G1 X158.796 Y136.693 E41.91151
G1 X158.693 Y136.796 E41.92527
G1 X158.117 Y137.315 E41.99854
G1 X157.491 Y137.773 E42.07184
G1 X156.82 Y138.163 E42.14518
G1 X156.114 Y138.483 E42.21843
G1 X155.378 Y138.728 E42.29174
G1 X154.62 Y138.896 E42.3651
G1 X153.85 Y138.985 E42.43835
G1 X153.372 Y139 E42.48355
G1 X69.628 Y139 E50.39736
G1 X68.853 Y138.96 E50.47069
G1 X68.087 Y138.841 E50.54395
G1 X67.337 Y138.643 E50.61725
G1 X66.611 Y138.369 E50.69058
G1 X65.918 Y138.022 E50.76382
G1 X65.264 Y137.605 E50.83712
G1 X64.656 Y137.123 E50.91044
G1 X64.307 Y136.796 E50.95563
G1 X64.204 Y136.693 E50.9694
G1 X63.685 Y136.117 E51.04267
G1 X63.227 Y135.491 E51.11597
G1 X62.837 Y134.82 E51.18931
G1 X62.517 Y134.114 E51.26256
G1 X62.272 Y133.378 E51.33586
G1 X62.104 Y132.62 E51.40923
G1 X62.015 Y131.85 E51.48248
G1 X62 Y131.372 E51.52767
G1 X62 Y91.628 E55.28348
G1 X62.04 Y90.853 E55.35682
G1 X62.159 Y90.087 E55.43007
G1 X62.357 Y89.337 E55.50338
G1 X62.631 Y88.611 E55.57671
G1 X62.978 Y87.918 E55.64995
G1 X63.395 Y87.264 E55.72324
G1 X63.877 Y86.656 E55.79656
G1 X64.204 Y86.307 E55.84176
G1 X64.307 Y86.204 E55.85552
G1 X64.883 Y85.685 E55.92879
G0 F4500 X65.118 Y85.945
G1 F1800 X65.731 Y85.501 E56.00032
G1 X66.388 Y85.123 E56.07195
G1 X67.08 Y84.817 E56.14345
G1 X67.802 Y84.586 E56.21509
G1 X68.543 Y84.432 E56.28661
G1 X69.628 Y84.35 E56.38943
G1 X153.372 Y84.35 E64.30324
G1 X154.128 Y84.39 E64.37478
G1 X154.876 Y84.509 E64.44636
G1 X155.607 Y84.707 E64.51793
G1 X156.314 Y84.981 E64.58958
G1 X156.987 Y85.327 E64.66109
G1 X157.62 Y85.743 E64.73267
G1 X158.445 Y86.452 E64.83547
G1 X158.548 Y86.555 E64.84923
G1 X159.055 Y87.118 E64.92083
G1 X159.499 Y87.731 E64.99236
G1 X159.877 Y88.388 E65.06399
G1 X160.183 Y89.08 E65.13549
G1 X160.414 Y89.802 E65.20713
G1 X160.568 Y90.543 E65.27865
G1 X160.65 Y91.628 E65.38147
G1 X160.65 Y131.372 E69.13728
G1 X160.61 Y132.128 E69.20882
G1 X160.491 Y132.876 E69.2804
G1 X160.293 Y133.607 E69.35197
G1 X160.019 Y134.314 E69.42362
G1 X159.673 Y134.987 E69.49513
G1 X159.257 Y135.62 E69.56671
G1 X158.548 Y136.445 E69.66951
G1 X158.445 Y136.548 E69.68327
G1 X157.882 Y137.055 E69.75487
G1 X157.269 Y137.499 E69.8264
G1 X156.612 Y137.877 E69.89803
G1 X155.92 Y138.183 E69.96953
G1 X155.198 Y138.414 E70.04116
G1 X154.457 Y138.568 E70.11268
G1 X153.372 Y138.65 E70.21551
G1 X69.628 Y138.65 E78.12932
G1 X68.872 Y138.61 E78.20086
G1 X68.124 Y138.491 E78.27243
G1 X67.393 Y138.293 E78.344
G1 X66.686 Y138.019 E78.41566
G1 X66.013 Y137.673 E78.48717
G1 X65.38 Y137.257 E78.55875
G1 X64.555 Y136.548 E78.66154
G1 X64.452 Y136.445 E78.67531
G1 X63.945 Y135.882 E78.74691
G1 X63.501 Y135.269 E78.81843
G1 X63.123 Y134.612 E78.89006
G1 X62.817 Y133.92 E78.96157
G1 X62.586 Y133.198 E79.0332
G1 X62.432 Y132.457 E79.10472
G1 X62.35 Y131.372 E79.20755
G1 X62.35 Y91.628 E82.96336
G1 X62.39 Y90.872 E83.0349
G1 X62.509 Y90.124 E83.10647
G1 X62.707 Y89.393 E83.17804
G1 X62.981 Y88.686 E83.24969
G1 X63.327 Y88.013 E83.32121
G1 X63.743 Y87.38 E83.39279
G1 X64.452 Y86.555 E83.49558
G1 X64.555 Y86.452 E83.50935
G1 X65.118 Y85.945 E83.58094
G0 F4500 X65.352 Y86.206
G1 F1800 X65.952 Y85.775 E83.65076
G1 X66.595 Y85.411 E83.72058
G1 X67.273 Y85.119 E83.79034
G1 X67.979 Y84.902 E83.86014
G1 X68.705 Y84.763 E83.92999
G1 X69.628 Y84.7 E84.01742
G1 X153.372 Y84.7 E91.93123
G1 X154.11 Y84.74 E92.00107
G1 X154.838 Y84.859 E92.07078
G1 X155.55 Y85.057 E92.14062
G1 X156.236 Y85.33 E92.21039
G1 X156.889 Y85.676 E92.28022
G1 X157.501 Y86.09 E92.35005
G1 X158.198 Y86.699 E92.43752
G1 X158.301 Y86.802 E92.45128
G1 X158.794 Y87.352 E92.52108
G1 X159.225 Y87.952 E92.59089
G1 X159.589 Y88.595 E92.66072
G1 X159.881 Y89.273 E92.73048
G1 X160.098 Y89.979 E92.80027
G1 X160.237 Y90.705 E92.87013
G1 X160.3 Y91.628 E92.95755
G1 X160.3 Y131.372 E96.71336
G1 X160.26 Y132.11 E96.7832
G1 X160.141 Y132.838 E96.85291
G1 X159.943 Y133.55 E96.92275
G1 X159.67 Y134.236 E96.99252
G1 X159.324 Y134.889 E97.06236
G1 X158.91 Y135.501 E97.13218
G1 X158.301 Y136.198 E97.21965
G1 X158.198 Y136.301 E97.23341
G1 X157.648 Y136.794 E97.30321
G1 X157.048 Y137.225 E97.37303
G1 X156.405 Y137.589 E97.44285
G1 X155.727 Y137.881 E97.51261
G1 X155.021 Y138.098 E97.58241
G1 X154.295 Y138.237 E97.65226
G1 X153.372 Y138.3 E97.73969
G1 X69.628 Y138.3 E105.6535
G1 X68.89 Y138.26 E105.72334
G1 X68.162 Y138.141 E105.79305
G1 X67.45 Y137.943 E105.86289
G1 X66.764 Y137.67 E105.93266
G1 X66.111 Y137.324 E106.00249
G1 X65.499 Y136.91 E106.07232
G1 X64.802 Y136.301 E106.15978
G1 X64.699 Y136.198 E106.17355
G1 X64.206 Y135.648 E106.24335
G1 X63.775 Y135.048 E106.31316
G1 X63.411 Y134.405 E106.38298
G1 X63.119 Y133.727 E106.45274
G1 X62.902 Y133.021 E106.52254
G1 X62.763 Y132.295 E106.5924
G1 X62.7 Y131.372 E106.67982
G1 X62.7 Y91.628 E110.43563
G1 X62.74 Y90.89 E110.50547
G1 X62.859 Y90.162 E110.57518
G1 X63.057 Y89.45 E110.64502
G1 X63.33 Y88.764 E110.71479
G1 X63.676 Y88.111 E110.78463
G1 X64.09 Y87.499 E110.85445
G1 X64.699 Y86.802 E110.94192
G1 X64.802 Y86.699 E110.95568
G1 X65.352 Y86.206 E111.02548
G0 F4500 X65.586 Y86.467
G1 F1800 X66.172 Y86.05 E111.09345
G1 X66.801 Y85.7 E111.16147
G1 X67.464 Y85.422 E111.22941
G1 X68.155 Y85.22 E111.29744
G1 X68.863 Y85.095 E111.36538
G1 X69.628 Y85.05 E111.4378
G1 X153.372 Y85.05 E119.35161
G1 X154.09 Y85.09 E119.41957
G1 X154.8 Y85.209 E119.4876
G1 X155.492 Y85.407 E119.55561
G1 X156.157 Y85.68 E119.62355
G1 X156.789 Y86.025 E119.69159
G1 X157.378 Y86.438 E119.75957
G1 X157.951 Y86.946 E119.83193
G1 X158.054 Y87.049 E119.8457
G1 X158.533 Y87.586 E119.9137
G1 X158.95 Y88.172 E119.98167
G1 X159.3 Y88.801 E120.04969
G1 X159.578 Y89.464 E120.11763
G1 X159.78 Y90.155 E120.18566
G1 X159.905 Y90.863 E120.2536
G1 X159.95 Y91.628 E120.32602
G1 X159.95 Y131.372 E124.08183
G1 X159.91 Y132.09 E124.14978
G1 X159.791 Y132.8 E124.21781
G1 X159.593 Y133.492 E124.28583
G1 X159.32 Y134.157 E124.35376
G1 X158.975 Y134.789 E124.42181
G1 X158.562 Y135.378 E124.48979
G1 X158.054 Y135.951 E124.56215
G1 X157.951 Y136.054 E124.57592
G1 X157.414 Y136.533 E124.64392
G1 X156.828 Y136.95 E124.71189
G1 X156.199 Y137.3 E124.77991
G1 X155.536 Y137.578 E124.84785
G1 X154.845 Y137.78 E124.91588
G1 X154.137 Y137.905 E124.98382
G1 X153.372 Y137.95 E125.05624
G1 X69.628 Y137.95 E132.97005
G1 X68.91 Y137.91 E133.038
G1 X68.2 Y137.791 E133.10603
G1 X67.508 Y137.593 E133.17405
G1 X66.843 Y137.32 E133.24198
G1 X66.211 Y136.975 E133.31003
G1 X65.622 Y136.562 E133.37801
G1 X65.049 Y136.054 E133.45037
G1 X64.946 Y135.951 E133.46414
G1 X64.467 Y135.414 E133.53214
G1 X64.05 Y134.828 E133.6001
G1 X63.7 Y134.199 E133.66813
G1 X63.422 Y133.536 E133.73607
G1 X63.22 Y132.845 E133.8041
G1 X63.095 Y132.137 E133.87204
G1 X63.05 Y131.372 E133.94446
G1 X63.05 Y91.628 E137.70026
G1 X63.09 Y90.91 E137.76822
G1 X63.209 Y90.2 E137.83625
G1 X63.407 Y89.508 E137.90427
G1 X63.68 Y88.843 E137.9722
G1 X64.025 Y88.211 E138.04025
G1 X64.438 Y87.622 E138.10823
G1 X64.946 Y87.049 E138.18059
G1 X65.049 Y86.946 E138.19436
G1 X65.586 Y86.467 E138.26236
G0 F4500 X65.819 Y86.728
G1 F1800 X66.391 Y86.325 E138.32848
G1 X67.005 Y85.99 E138.39458
G1 X67.654 Y85.727 E138.46075
G1 X68.328 Y85.54 E138.52685
G1 X69.019 Y85.43 E138.59297
G1 X69.628 Y85.4 E138.65059
G1 X153.372 Y85.4 E146.5644
G1 X154.071 Y85.44 E146.63056
G1 X154.76 Y85.559 E146.69664
G1 X155.431 Y85.757 E146.76275
G1 X156.076 Y86.029 E146.8289
G1 X156.685 Y86.373 E146.895
G1 X157.251 Y86.785 E146.96116
G1 X157.703 Y87.194 E147.01876
G1 X157.806 Y87.297 E147.03253
G1 X158.272 Y87.819 E147.09865
G1 X158.675 Y88.391 E147.16477
G1 X159.01 Y89.005 E147.23087
G1 X159.273 Y89.654 E147.29705
G1 X159.46 Y90.328 E147.36315
G1 X159.57 Y91.019 E147.42927
G1 X159.6 Y91.628 E147.48689
G1 X159.6 Y131.372 E151.2427
G1 X159.56 Y132.071 E151.30886
G1 X159.441 Y132.76 E151.37493
G1 X159.243 Y133.431 E151.44105
G1 X158.971 Y134.076 E151.5072
G1 X158.627 Y134.685 E151.57329
G1 X158.215 Y135.251 E151.63945
G1 X157.806 Y135.703 E151.69706
G1 X157.703 Y135.806 E151.71082
G1 X157.181 Y136.272 E151.77695
G1 X156.609 Y136.675 E151.84307
G1 X155.995 Y137.01 E151.90917
G1 X155.346 Y137.273 E151.97534
G1 X154.672 Y137.46 E152.04144
G1 X153.981 Y137.57 E152.10756
G1 X153.372 Y137.6 E152.16518
G1 X69.628 Y137.6 E160.07899
G1 X68.929 Y137.56 E160.14515
G1 X68.24 Y137.441 E160.21123
G1 X67.569 Y137.243 E160.27734
G1 X66.924 Y136.971 E160.34349
G1 X66.315 Y136.627 E160.40959
G1 X65.749 Y136.215 E160.47575
G1 X65.297 Y135.806 E160.53335
G1 X65.194 Y135.703 E160.54712
G1 X64.728 Y135.181 E160.61324
G1 X64.325 Y134.609 E160.67936
G1 X63.99 Y133.995 E160.74546
G1 X63.727 Y133.346 E160.81164
G1 X63.54 Y132.672 E160.87774
G1 X63.43 Y131.981 E160.94386
G1 X63.4 Y131.372 E161.00148
G1 X63.4 Y91.628 E164.75729
G1 X63.44 Y90.929 E164.82345
G1 X63.559 Y90.24 E164.88952
G1 X63.757 Y89.569 E164.95564
G1 X64.029 Y88.924 E165.02179
G1 X64.373 Y88.315 E165.08788
G1 X64.785 Y87.749 E165.15404
G1 X65.194 Y87.297 E165.21165
G1 X65.297 Y87.194 E165.22541
G1 X65.819 Y86.728 E165.29154
G0 F4500 X66.052 Y86.99
G1 F1800 X66.61 Y86.602 E165.35576
G1 X67.209 Y86.281 E165.41998
G1 X67.841 Y86.033 E165.48414
G1 X68.499 Y85.861 E165.54841
G1 X69.172 Y85.768 E165.61261
G1 X69.628 Y85.75 E165.65574
G1 X153.372 Y85.75 E173.56955
G1 X154.05 Y85.79 E173.63373
G1 X154.719 Y85.909 E173.69794
G1 X155.369 Y86.106 E173.76213
G1 X155.992 Y86.378 E173.82637
G1 X156.578 Y86.722 E173.89058
G1 X157.12 Y87.132 E173.9548
G1 X157.456 Y87.441 E173.99794
G1 X157.559 Y87.544 E174.01171
G1 X158.01 Y88.052 E174.0759
G1 X158.398 Y88.61 E174.14013
G1 X158.719 Y89.209 E174.20435
G1 X158.967 Y89.841 E174.26851
G1 X159.139 Y90.499 E174.33278
G1 X159.232 Y91.172 E174.39698
G1 X159.25 Y91.628 E174.44011
G1 X159.25 Y131.372 E178.19591
G1 X159.21 Y132.05 E178.2601
G1 X159.091 Y132.719 E178.32431
G1 X158.894 Y133.369 E178.38849
G1 X158.622 Y133.992 E178.45273
G1 X158.278 Y134.578 E178.51695
G1 X157.868 Y135.12 E178.58117
G1 X157.559 Y135.456 E178.62431
G1 X157.456 Y135.559 E178.63807
G1 X156.948 Y136.01 E178.70227
G1 X156.39 Y136.398 E178.76649
G1 X155.791 Y136.719 E178.83071
G1 X155.159 Y136.967 E178.89487
G1 X154.501 Y137.139 E178.95914
G1 X153.828 Y137.232 E179.02334
G1 X153.372 Y137.25 E179.06647
G1 X69.628 Y137.25 E186.98028
G1 X68.95 Y137.21 E187.04446
G1 X68.281 Y137.091 E187.10867
G1 X67.631 Y136.894 E187.17286
G1 X67.008 Y136.622 E187.2371
G1 X66.422 Y136.278 E187.30131
G1 X65.88 Y135.868 E187.36553
G1 X65.544 Y135.559 E187.40867
G1 X65.441 Y135.456 E187.42244
G1 X64.99 Y134.948 E187.48663
G1 X64.602 Y134.39 E187.55086
G1 X64.281 Y133.791 E187.61508
G1 X64.033 Y133.159 E187.67924
G1 X63.861 Y132.501 E187.74351
G1 X63.768 Y131.828 E187.80771
G1 X63.75 Y131.372 E187.85084
G1 X63.75 Y91.628 E191.60664
G1 X63.79 Y90.95 E191.67083
G1 X63.909 Y90.281 E191.73504
G1 X64.106 Y89.631 E191.79922
G1 X64.378 Y89.008 E191.86346
G1 X64.722 Y88.422 E191.92768
G1 X65.132 Y87.88 E191.9919
G1 X65.441 Y87.544 E192.03504
G1 X65.544 Y87.441 E192.0488
G1 X66.052 Y86.99 E192.113
G0 F4500 X66.285 Y87.252
G1 F1800 X66.827 Y86.879 E192.17517
G1 X67.411 Y86.574 E192.23743
G1 X68.027 Y86.342 E192.29964
G1 X68.667 Y86.186 E192.36189
G1 X69.628 Y86.1 E192.45307
G1 X153.372 Y86.1 E200.36687
G1 X154.029 Y86.14 E200.42908
G1 X154.677 Y86.259 E200.49134
G1 X155.305 Y86.456 E200.55353
G1 X155.905 Y86.728 E200.61579
G1 X156.468 Y87.07 E200.67804
G1 X157.208 Y87.689 E200.76921
G1 X157.311 Y87.792 E200.78297
G1 X157.748 Y88.285 E200.84523
G1 X158.121 Y88.827 E200.90741
G1 X158.426 Y89.411 E200.96967
G1 X158.658 Y90.027 E201.03187
G1 X158.814 Y90.667 E201.09412
G1 X158.9 Y91.628 E201.1853
G1 X158.9 Y131.372 E204.94111
G1 X158.86 Y132.029 E205.00331
G1 X158.741 Y132.677 E205.06557
G1 X158.544 Y133.305 E205.12777
G1 X158.272 Y133.905 E205.19002
G1 X157.93 Y134.468 E205.25227
G1 X157.311 Y135.208 E205.34344
G1 X157.208 Y135.311 E205.3572
G1 X156.715 Y135.748 E205.41946
G1 X156.173 Y136.121 E205.48164
G1 X155.589 Y136.426 E205.5439
G1 X154.973 Y136.658 E205.6061
G1 X154.333 Y136.814 E205.66835
G1 X153.372 Y136.9 E205.75953
G1 X69.628 Y136.9 E213.67334
G1 X68.971 Y136.86 E213.73554
G1 X68.323 Y136.741 E213.7978
G1 X67.695 Y136.544 E213.86
G1 X67.095 Y136.272 E213.92225
G1 X66.532 Y135.93 E213.9845
G1 X65.792 Y135.311 E214.07567
G1 X65.689 Y135.208 E214.08944
G1 X65.252 Y134.715 E214.15169
G1 X64.879 Y134.173 E214.21387
G1 X64.574 Y133.589 E214.27613
G1 X64.342 Y132.973 E214.33833
G1 X64.186 Y132.333 E214.40059
G1 X64.1 Y131.372 E214.49176
G1 X64.1 Y91.628 E218.24757
G1 X64.14 Y90.971 E218.30977
G1 X64.259 Y90.323 E218.37203
G1 X64.456 Y89.695 E218.43423
G1 X64.728 Y89.095 E218.49648
G1 X65.07 Y88.532 E218.55873
G1 X65.689 Y87.792 E218.6499
G1 X65.792 Y87.689 E218.66367
G1 X66.285 Y87.252 E218.72593
G0 F4500 X66.517 Y87.515
