;FLAVOR:UltiGCode
;TIME:622
;MATERIAL:965
;MATERIAL2:0
;NOZZLE_DIAMETER:0.4
;Generated with Cura_SteamEngine 3.1.0
M82 ; absolute extrusion mode

;LAYER_COUNT:61
;LAYER:0
M107
G0 F4500 X99.505 Y93.893 Z0.27
;TYPE:SKIRT
G1 F1800 X100.05 Y93.316 E0.075
G1 X100.649 Y92.796 E0.14996
G1 X101.298 Y92.34 E0.22492
G1 X101.99 Y91.951 E0.29994
G1 X102.717 Y91.633 E0.37492
G1 X103.473 Y91.39 E0.44997
G1 X104.249 Y91.225 E0.52494
G1 X105.037 Y91.139 E0.59985
G1 X105.5 Y91.125 E0.64362
G1 X117.5 Y91.125 E1.77762
G1 X118.292 Y91.165 E1.85256
G1 X119.077 Y91.284 E1.92759
G1 X119.845 Y91.482 E2.00254
G1 X120.59 Y91.757 E2.07758
G1 X121.303 Y92.104 E2.15252
G1 X121.978 Y92.522 E2.22755
G1 X122.607 Y93.005 E2.30249
G1 X123.184 Y93.55 E2.37749
G1 X123.704 Y94.149 E2.45245
G1 X124.16 Y94.798 E2.52741
G1 X124.549 Y95.49 E2.60243
G1 X124.867 Y96.217 E2.67741
G1 X125.11 Y96.973 E2.75245
G1 X125.275 Y97.749 E2.82743
G1 X125.361 Y98.537 E2.90233
G1 X125.375 Y99 E2.94611
G1 X125.375 Y124 E5.30861
G1 X125.335 Y124.792 E5.38355
G1 X125.216 Y125.577 E5.45858
G1 X125.018 Y126.345 E5.53353
G1 X124.743 Y127.09 E5.60857
G1 X124.396 Y127.803 E5.68351
G1 X123.978 Y128.478 E5.75853
G1 X123.495 Y129.107 E5.83348
G1 X122.95 Y129.684 E5.90848
G1 X122.351 Y130.204 E5.98344
G1 X121.702 Y130.66 E6.0584
G1 X121.01 Y131.049 E6.13341
G1 X120.283 Y131.367 E6.2084
G1 X119.527 Y131.61 E6.28344
G1 X118.751 Y131.775 E6.35841
G1 X117.963 Y131.861 E6.43332
G1 X117.5 Y131.875 E6.4771
G1 X105.5 Y131.875 E7.6111
G1 X104.708 Y131.835 E7.68604
G1 X103.923 Y131.716 E7.76107
G1 X103.155 Y131.518 E7.83601
G1 X102.41 Y131.243 E7.91106
G1 X101.697 Y130.896 E7.98599
G1 X101.022 Y130.478 E8.06102
G1 X100.393 Y129.995 E8.13597
G1 X99.816 Y129.45 E8.21097
G1 X99.296 Y128.851 E8.28593
G1 X98.84 Y128.202 E8.36089
G1 X98.451 Y127.51 E8.4359
G1 X98.133 Y126.783 E8.51089
G1 X97.89 Y126.027 E8.58593
G1 X97.725 Y125.251 E8.6609
G1 X97.639 Y124.463 E8.73581
G1 X97.625 Y124 E8.77958
G1 X97.625 Y99 E11.14208
G1 X97.665 Y98.208 E11.21702
G1 X97.784 Y97.423 E11.29205
G1 X97.982 Y96.655 E11.367
G1 X98.257 Y95.91 E11.44205
G1 X98.604 Y95.197 E11.51698
G1 X99.022 Y94.522 E11.59201
G1 X99.505 Y93.893 E11.66695
G0 F4500 X99.852 Y94.028
G1 F1800 X100.394 Y93.473 E11.74026
G1 X100.99 Y92.976 E11.8136
G1 X101.634 Y92.544 E11.88688
G1 X102.319 Y92.181 E11.96014
G1 X103.038 Y91.889 E12.03347
G1 X103.783 Y91.674 E12.10675
G1 X104.546 Y91.536 E12.18002
G1 X105.5 Y91.475 E12.27036
G1 X117.5 Y91.475 E13.40436
G1 X118.275 Y91.515 E13.4777
G1 X119.041 Y91.634 E13.55095
G1 X119.791 Y91.832 E13.62425
G1 X120.517 Y92.106 E13.69758
G1 X121.21 Y92.453 E13.77082
G1 X121.864 Y92.87 E13.84412
G1 X122.472 Y93.352 E13.91744
G1 X123.027 Y93.894 E13.99075
G1 X123.524 Y94.49 E14.06409
G1 X123.956 Y95.134 E14.13737
G1 X124.319 Y95.819 E14.21063
G1 X124.611 Y96.538 E14.28396
G1 X124.826 Y97.283 E14.35724
G1 X124.964 Y98.046 E14.43051
G1 X125.025 Y99 E14.52085
G1 X125.025 Y124 E16.88335
G1 X124.985 Y124.775 E16.95668
G1 X124.866 Y125.541 E17.02994
G1 X124.668 Y126.291 E17.10324
G1 X124.394 Y127.017 E17.17657
G1 X124.047 Y127.71 E17.24981
G1 X123.63 Y128.364 E17.32311
G1 X123.148 Y128.972 E17.39643
G1 X122.606 Y129.527 E17.46974
G1 X122.01 Y130.024 E17.54307
G1 X121.366 Y130.456 E17.61636
G1 X120.681 Y130.819 E17.68962
G1 X119.962 Y131.111 E17.76295
G1 X119.217 Y131.326 E17.83623
G1 X118.454 Y131.464 E17.9095
G1 X117.5 Y131.525 E17.99984
G1 X105.5 Y131.525 E19.13384
G1 X104.725 Y131.485 E19.20717
G1 X103.959 Y131.366 E19.28043
G1 X103.209 Y131.168 E19.35373
G1 X102.483 Y130.894 E19.42706
G1 X101.79 Y130.547 E19.5003
G1 X101.136 Y130.13 E19.5736
G1 X100.528 Y129.648 E19.64692
G1 X99.973 Y129.106 E19.72023
G1 X99.476 Y128.51 E19.79356
G1 X99.044 Y127.866 E19.86684
G1 X98.681 Y127.181 E19.9401
G1 X98.389 Y126.462 E20.01344
G1 X98.174 Y125.717 E20.08671
G1 X98.036 Y124.954 E20.15999
G1 X97.975 Y124 E20.25033
G1 X97.975 Y99 E22.61283
G1 X98.015 Y98.225 E22.68616
G1 X98.134 Y97.459 E22.75942
G1 X98.332 Y96.709 E22.83272
G1 X98.606 Y95.983 E22.90605
G1 X98.953 Y95.29 E22.97929
G1 X99.37 Y94.636 E23.05259
G1 X99.852 Y94.028 E23.12591
G0 F4500 X100.198 Y94.166
G1 F1800 X100.737 Y93.634 E23.19747
G1 X101.329 Y93.162 E23.26902
G1 X101.968 Y92.755 E23.34062
G1 X102.646 Y92.417 E23.41221
G1 X103.355 Y92.153 E23.4837
G1 X104.089 Y91.965 E23.5553
G1 X104.838 Y91.856 E23.62683
G1 X105.5 Y91.825 E23.68946
G1 X117.5 Y91.825 E24.82346
G1 X118.256 Y91.865 E24.895
G1 X119.004 Y91.984 E24.96658
G1 X119.735 Y92.182 E25.03814
G1 X120.442 Y92.456 E25.1098
G1 X121.115 Y92.802 E25.18131
G1 X121.748 Y93.218 E25.25289
G1 X122.334 Y93.698 E25.32447
G1 X122.866 Y94.237 E25.39604
G1 X123.338 Y94.829 E25.46759
G1 X123.745 Y95.468 E25.53918
G1 X124.083 Y96.146 E25.61077
G1 X124.347 Y96.855 E25.68227
G1 X124.535 Y97.589 E25.75387
G1 X124.644 Y98.338 E25.8254
G1 X124.675 Y99 E25.88802
G1 X124.675 Y124 E28.25052
G1 X124.635 Y124.756 E28.32207
G1 X124.516 Y125.504 E28.39364
G1 X124.318 Y126.235 E28.46521
G1 X124.044 Y126.942 E28.53686
G1 X123.698 Y127.615 E28.60837
G1 X123.282 Y128.248 E28.67995
G1 X122.802 Y128.834 E28.75154
G1 X122.263 Y129.366 E28.8231
G1 X121.671 Y129.838 E28.89465
G1 X121.032 Y130.245 E28.96625
G1 X120.354 Y130.583 E29.03784
G1 X119.645 Y130.847 E29.10933
G1 X118.911 Y131.035 E29.18094
G1 X118.162 Y131.144 E29.25246
G1 X117.5 Y131.175 E29.31509
G1 X105.5 Y131.175 E30.44909
G1 X104.744 Y131.135 E30.52063
G1 X103.996 Y131.016 E30.59221
G1 X103.265 Y130.818 E30.66377
G1 X102.558 Y130.544 E30.73543
G1 X101.885 Y130.198 E30.80694
G1 X101.252 Y129.782 E30.87852
G1 X100.666 Y129.302 E30.9501
G1 X100.134 Y128.763 E31.02167
G1 X99.662 Y128.171 E31.09322
G1 X99.255 Y127.532 E31.16481
G1 X98.917 Y126.854 E31.2364
G1 X98.653 Y126.145 E31.3079
G1 X98.465 Y125.411 E31.3795
G1 X98.356 Y124.662 E31.45103
G1 X98.325 Y124 E31.51365
G1 X98.325 Y99 E33.87615
G1 X98.365 Y98.244 E33.9477
G1 X98.484 Y97.496 E34.01927
G1 X98.682 Y96.765 E34.09084
G1 X98.956 Y96.058 E34.16249
G1 X99.302 Y95.385 E34.234
G1 X99.718 Y94.752 E34.30558
G1 X100.198 Y94.166 E34.37717
G0 F4500 X100.543 Y94.308
G1 F1800 X101.079 Y93.8 E34.44695
G1 X101.667 Y93.353 E34.51675
G1 X102.3 Y92.972 E34.58657
G1 X102.97 Y92.661 E34.65638
G1 X103.67 Y92.425 E34.72618
G1 X104.391 Y92.266 E34.79596
G1 X105.126 Y92.185 E34.86583
G1 X105.5 Y92.175 E34.90119
G1 X117.5 Y92.175 E36.03519
G1 X118.238 Y92.215 E36.10503
G1 X118.966 Y92.334 E36.17474
G1 X119.678 Y92.532 E36.24458
G1 X120.364 Y92.805 E36.31435
G1 X121.017 Y93.151 E36.38419
G1 X121.629 Y93.565 E36.45401
G1 X122.192 Y94.043 E36.5238
G1 X122.7 Y94.579 E36.59359
G1 X123.147 Y95.167 E36.66339
G1 X123.528 Y95.8 E36.73321
G1 X123.839 Y96.47 E36.80301
G1 X124.075 Y97.17 E36.87282
G1 X124.234 Y97.891 E36.94259
G1 X124.315 Y98.626 E37.01247
G1 X124.325 Y99 E37.04782
G1 X124.325 Y124 E39.41032
G1 X124.285 Y124.738 E39.48017
G1 X124.166 Y125.466 E39.54988
G1 X123.968 Y126.178 E39.61971
G1 X123.695 Y126.864 E39.68949
G1 X123.349 Y127.517 E39.75932
G1 X122.935 Y128.129 E39.82915
G1 X122.457 Y128.692 E39.89894
G1 X121.921 Y129.2 E39.96872
G1 X121.333 Y129.647 E40.03852
G1 X120.7 Y130.028 E40.10834
G1 X120.03 Y130.339 E40.17815
G1 X119.33 Y130.575 E40.24795
G1 X118.609 Y130.734 E40.31773
G1 X117.874 Y130.815 E40.3876
G1 X117.5 Y130.825 E40.42296
G1 X105.5 Y130.825 E41.55696
G1 X104.762 Y130.785 E41.6268
G1 X104.034 Y130.666 E41.69651
G1 X103.322 Y130.468 E41.76635
G1 X102.636 Y130.195 E41.83612
G1 X101.983 Y129.849 E41.90596
G1 X101.371 Y129.435 E41.97578
G1 X100.808 Y128.957 E42.04557
G1 X100.3 Y128.421 E42.11536
G1 X99.853 Y127.833 E42.18516
G1 X99.472 Y127.2 E42.25498
G1 X99.161 Y126.53 E42.32478
G1 X98.925 Y125.83 E42.39459
G1 X98.766 Y125.109 E42.46436
G1 X98.685 Y124.374 E42.53424
G1 X98.675 Y124 E42.56959
G1 X98.675 Y99 E44.93209
G1 X98.715 Y98.262 E45.00194
G1 X98.834 Y97.534 E45.07165
G1 X99.032 Y96.822 E45.14148
G1 X99.305 Y96.136 E45.21126
G1 X99.651 Y95.483 E45.28109
G1 X100.065 Y94.871 E45.35092
G1 X100.543 Y94.308 E45.42071
G0 F4500 X100.413 Y94.994
G1 F1800 X100.889 Y94.455 E45.48866
G1 X101.421 Y93.971 E45.55663
G1 X102.004 Y93.55 E45.62459
G1 X102.631 Y93.196 E45.69263
G1 X103.292 Y92.913 E45.76058
G1 X103.981 Y92.706 E45.82856
G1 X104.689 Y92.576 E45.89659
G1 X105.5 Y92.525 E45.97338
G1 X117.5 Y92.525 E47.10738
G1 X118.218 Y92.565 E47.17533
G1 X118.928 Y92.684 E47.24337
G1 X119.62 Y92.882 E47.31138
G1 X120.285 Y93.155 E47.37932
G1 X120.917 Y93.5 E47.44736
G1 X121.506 Y93.913 E47.51534
G1 X122.045 Y94.389 E47.58329
G1 X122.529 Y94.921 E47.65126
G1 X122.95 Y95.504 E47.71922
G1 X123.304 Y96.131 E47.78726
G1 X123.587 Y96.792 E47.85521
G1 X123.794 Y97.481 E47.92319
G1 X123.924 Y98.189 E47.99122
G1 X123.975 Y99 E48.06801
G1 X123.975 Y124 E50.43051
G1 X123.935 Y124.718 E50.49847
G1 X123.816 Y125.428 E50.5665
G1 X123.618 Y126.12 E50.63451
G1 X123.345 Y126.785 E50.70245
G1 X123 Y127.417 E50.77049
G1 X122.587 Y128.006 E50.83847
G1 X122.111 Y128.545 E50.90642
G1 X121.579 Y129.029 E50.97439
G1 X120.996 Y129.45 E51.04235
G1 X120.369 Y129.804 E51.11039
G1 X119.708 Y130.087 E51.17834
G1 X119.019 Y130.294 E51.24632
G1 X118.311 Y130.424 E51.31435
G1 X117.5 Y130.475 E51.39114
G1 X105.5 Y130.475 E52.52514
G1 X104.782 Y130.435 E52.5931
G1 X104.072 Y130.316 E52.66113
G1 X103.38 Y130.118 E52.72915
G1 X102.715 Y129.845 E52.79708
G1 X102.083 Y129.5 E52.86512
G1 X101.494 Y129.087 E52.9331
G1 X100.955 Y128.611 E53.00105
G1 X100.471 Y128.079 E53.06902
G1 X100.05 Y127.496 E53.13698
G1 X99.696 Y126.869 E53.20502
G1 X99.413 Y126.208 E53.27297
G1 X99.206 Y125.519 E53.34096
G1 X99.076 Y124.811 E53.40898
G1 X99.025 Y124 E53.48577
G1 X99.025 Y99 E55.84827
G1 X99.065 Y98.282 E55.91623
G1 X99.184 Y97.572 E55.98426
G1 X99.382 Y96.88 E56.05228
G1 X99.655 Y96.215 E56.12021
G1 X100 Y95.583 E56.18825
G1 X100.413 Y94.994 E56.25623
G0 F4500 X100.76 Y95.121
G1 F1800 X101.233 Y94.606 E56.32231
G1 X101.762 Y94.148 E56.38843
G1 X102.34 Y93.753 E56.45459
G1 X102.959 Y93.427 E56.5207
G1 X103.611 Y93.173 E56.58683
G1 X104.288 Y92.996 E56.65295
G1 X104.981 Y92.897 E56.71911
G1 X105.5 Y92.875 E56.7682
G1 X117.5 Y92.875 E57.9022
G1 X118.199 Y92.915 E57.96836
G1 X118.888 Y93.034 E58.03444
G1 X119.559 Y93.232 E58.10055
G1 X120.204 Y93.504 E58.1667
G1 X120.813 Y93.848 E58.2328
G1 X121.379 Y94.26 E58.29895
G1 X121.894 Y94.733 E58.36503
G1 X122.352 Y95.262 E58.43116
G1 X122.747 Y95.84 E58.49731
G1 X123.073 Y96.459 E58.56342
G1 X123.327 Y97.111 E58.62955
G1 X123.504 Y97.788 E58.69568
G1 X123.603 Y98.481 E58.76183
G1 X123.625 Y99 E58.81092
G1 X123.625 Y124 E61.17342
G1 X123.585 Y124.699 E61.23958
G1 X123.466 Y125.388 E61.30566
G1 X123.268 Y126.059 E61.37177
G1 X122.996 Y126.704 E61.43792
G1 X122.652 Y127.313 E61.50402
G1 X122.24 Y127.879 E61.57017
G1 X121.767 Y128.394 E61.63625
G1 X121.238 Y128.852 E61.70238
G1 X120.66 Y129.247 E61.76853
G1 X120.041 Y129.573 E61.83465
G1 X119.389 Y129.827 E61.90077
G1 X118.712 Y130.004 E61.9669
G1 X118.019 Y130.103 E62.03305
G1 X117.5 Y130.125 E62.08214
G1 X105.5 Y130.125 E63.21614
G1 X104.801 Y130.085 E63.2823
G1 X104.112 Y129.966 E63.34838
G1 X103.441 Y129.768 E63.41449
G1 X102.796 Y129.496 E63.48064
G1 X102.187 Y129.152 E63.54674
G1 X101.621 Y128.74 E63.6129
G1 X101.106 Y128.267 E63.67897
G1 X100.648 Y127.738 E63.7451
G1 X100.253 Y127.16 E63.81126
G1 X99.927 Y126.541 E63.87737
G1 X99.673 Y125.889 E63.94349
G1 X99.496 Y125.212 E64.00962
G1 X99.397 Y124.519 E64.07577
G1 X99.375 Y124 E64.12486
G1 X99.375 Y99 E66.48736
G1 X99.415 Y98.301 E66.55352
G1 X99.534 Y97.612 E66.6196
G1 X99.732 Y96.941 E66.68571
G1 X100.004 Y96.296 E66.75186
G1 X100.348 Y95.687 E66.81796
G1 X100.76 Y95.121 E66.88412
G0 F4500 X101.107 Y95.252
G1 F1800 X101.577 Y94.762 E66.94828
G1 X102.102 Y94.331 E67.01247
G1 X102.674 Y93.964 E67.07669
G1 X103.285 Y93.667 E67.14089
G1 X103.927 Y93.443 E67.20515
G1 X104.59 Y93.297 E67.2693
G1 X105.5 Y93.225 E67.35557
G1 X117.5 Y93.225 E68.48957
G1 X118.178 Y93.265 E68.55375
G1 X118.847 Y93.384 E68.61796
G1 X119.497 Y93.581 E68.68215
G1 X120.12 Y93.853 E68.74639
G1 X120.706 Y94.197 E68.8106
G1 X121.248 Y94.607 E68.87482
G1 X121.738 Y95.077 E68.93898
G1 X122.169 Y95.602 E69.00317
G1 X122.536 Y96.174 E69.0674
G1 X122.833 Y96.785 E69.1316
G1 X123.057 Y97.427 E69.19585
G1 X123.203 Y98.09 E69.26001
G1 X123.275 Y99 E69.34627
G1 X123.275 Y124 E71.70877
G1 X123.235 Y124.678 E71.77295
G1 X123.116 Y125.347 E71.83717
G1 X122.919 Y125.997 E71.90135
G1 X122.647 Y126.62 E71.96559
G1 X122.303 Y127.206 E72.0298
G1 X121.893 Y127.748 E72.09403
G1 X121.423 Y128.238 E72.15819
G1 X120.898 Y128.669 E72.22238
G1 X120.326 Y129.036 E72.2866
G1 X119.715 Y129.333 E72.3508
G1 X119.073 Y129.557 E72.41506
G1 X118.41 Y129.703 E72.47921
G1 X117.5 Y129.775 E72.56548
G1 X105.5 Y129.775 E73.69948
G1 X104.822 Y129.735 E73.76366
G1 X104.153 Y129.616 E73.82787
G1 X103.503 Y129.419 E73.89206
G1 X102.88 Y129.147 E73.9563
G1 X102.294 Y128.803 E74.02051
G1 X101.752 Y128.393 E74.08473
G1 X101.262 Y127.923 E74.14889
G1 X100.831 Y127.398 E74.21308
G1 X100.464 Y126.826 E74.27731
G1 X100.167 Y126.215 E74.34151
G1 X99.943 Y125.573 E74.40576
G1 X99.797 Y124.91 E74.46992
G1 X99.725 Y124 E74.55618
G1 X99.725 Y99 E76.91868
G1 X99.765 Y98.322 E76.98286
G1 X99.884 Y97.653 E77.04708
G1 X100.081 Y97.003 E77.11126
G1 X100.353 Y96.38 E77.1755
G1 X100.697 Y95.794 E77.23971
G1 X101.107 Y95.252 E77.30394
G0 F4500 X101.453 Y95.387
G1 F1800 X101.92 Y94.924 E77.36608
G1 X102.441 Y94.52 E77.42838
G1 X103.006 Y94.182 E77.4906
G1 X103.608 Y93.916 E77.5528
G1 X104.238 Y93.724 E77.61503
G1 X104.886 Y93.61 E77.67721
G1 X105.5 Y93.575 E77.73533
G1 X117.5 Y93.575 E78.86933
G1 X118.157 Y93.615 E78.93153
G1 X118.805 Y93.734 E78.99379
G1 X119.433 Y93.931 E79.05599
G1 X120.033 Y94.203 E79.11824
G1 X120.596 Y94.545 E79.18049
G1 X121.113 Y94.953 E79.24273
G1 X121.576 Y95.42 E79.30487
G1 X121.98 Y95.941 E79.36718
G1 X122.318 Y96.506 E79.42939
G1 X122.584 Y97.108 E79.49159
G1 X122.776 Y97.738 E79.55383
G1 X122.89 Y98.386 E79.616
G1 X122.925 Y99 E79.67412
G1 X122.925 Y124 E82.03662
G1 X122.885 Y124.657 E82.09882
G1 X122.766 Y125.305 E82.16108
G1 X122.569 Y125.933 E82.22328
G1 X122.297 Y126.533 E82.28553
G1 X121.955 Y127.096 E82.34778
G1 X121.547 Y127.613 E82.41002
G1 X121.08 Y128.076 E82.47217
G1 X120.559 Y128.48 E82.53447
G1 X119.994 Y128.818 E82.59669
G1 X119.392 Y129.084 E82.65888
G1 X118.762 Y129.276 E82.72112
G1 X118.114 Y129.39 E82.7833
G1 X117.5 Y129.425 E82.84141
G1 X105.5 Y129.425 E83.97541
G1 X104.843 Y129.385 E84.03762
G1 X104.195 Y129.266 E84.09988
G1 X103.567 Y129.069 E84.16207
G1 X102.967 Y128.797 E84.22433
G1 X102.404 Y128.455 E84.28658
G1 X101.887 Y128.047 E84.34881
G1 X101.424 Y127.58 E84.41096
G1 X101.02 Y127.059 E84.47326
G1 X100.682 Y126.494 E84.53548
G1 X100.416 Y125.892 E84.59767
G1 X100.224 Y125.262 E84.65991
G1 X100.11 Y124.614 E84.72209
G1 X100.075 Y124 E84.78021
G1 X100.075 Y99 E87.14271
G1 X100.115 Y98.343 E87.20491
G1 X100.234 Y97.695 E87.26717
G1 X100.431 Y97.067 E87.32937
G1 X100.703 Y96.467 E87.39162
G1 X101.045 Y95.904 E87.45387
G1 X101.453 Y95.387 E87.51611
G0 F4500 X101.799 Y95.528
G1 F1800 X102.263 Y95.092 E87.57628
G1 X102.778 Y94.717 E87.63648
G1 X103.335 Y94.41 E87.69658
G1 X103.927 Y94.175 E87.75677
G1 X104.544 Y94.016 E87.81698
G1 X105.176 Y93.935 E87.8772
G1 X105.5 Y93.925 E87.90783
G1 X117.5 Y93.925 E89.04183
G1 X118.136 Y93.965 E89.10205
G1 X118.761 Y94.084 E89.16217
G1 X119.367 Y94.281 E89.22239
G1 X119.943 Y94.552 E89.28254
G1 X120.481 Y94.893 E89.34274
G1 X120.972 Y95.299 E89.40295
G1 X121.408 Y95.763 E89.46311
G1 X121.783 Y96.278 E89.52332
G1 X122.09 Y96.835 E89.58342
G1 X122.325 Y97.427 E89.64361
G1 X122.484 Y98.044 E89.70382
G1 X122.565 Y98.676 E89.76403
G1 X122.575 Y99 E89.79467
G1 X122.575 Y124 E92.15717
G1 X122.535 Y124.636 E92.21739
G1 X122.416 Y125.261 E92.27751
G1 X122.219 Y125.867 E92.33773
G1 X121.948 Y126.443 E92.39788
G1 X121.607 Y126.981 E92.45808
G1 X121.201 Y127.472 E92.51828
G1 X120.737 Y127.908 E92.57845
G1 X120.222 Y128.283 E92.63865
G1 X119.665 Y128.59 E92.69876
G1 X119.073 Y128.825 E92.75895
G1 X118.456 Y128.984 E92.81916
