;FLAVOR:UltiGCode
;TIME:5148
;MATERIAL:8813
;MATERIAL2:0
;NOZZLE_DIAMETER:0.4
;Generated with Cura_SteamEngine 3.1.0
M82 ; absolute extrusion mode

;LAYER_COUNT:140
;LAYER:0
M107
G0 F4500 X70.649 Y90.296 Z0.27
;TYPE:SKIRT
G1 F1800 X71.298 Y89.84 E0.07496
G1 X71.99 Y89.451 E0.14997
G1 X72.717 Y89.133 E0.22496
G1 X73.473 Y88.89 E0.3
G1 X74.249 Y88.725 E0.37497
G1 X75.037 Y88.639 E0.44988
G1 X75.5 Y88.625 E0.49366
G1 X149.5 Y88.625 E7.48666
G1 X150.292 Y88.665 E7.56159
G1 X151.077 Y88.784 E7.63662
G1 X151.845 Y88.982 E7.71157
G1 X152.59 Y89.257 E7.78662
G1 X153.303 Y89.604 E7.86155
G1 X153.978 Y90.022 E7.93658
G1 X154.607 Y90.505 E8.01152
G1 X155.184 Y91.05 E8.08653
G1 X155.704 Y91.649 E8.16149
G1 X156.16 Y92.298 E8.23644
G1 X156.549 Y92.99 E8.31146
G1 X156.867 Y93.717 E8.38645
G1 X157.11 Y94.473 E8.46149
G1 X157.275 Y95.249 E8.53646
G1 X157.361 Y96.037 E8.61137
G1 X157.375 Y96.5 E8.65514
G1 X157.375 Y126.5 E11.49014
G1 X157.335 Y127.292 E11.56508
G1 X157.216 Y128.077 E11.64011
G1 X157.018 Y128.845 E11.71506
G1 X156.743 Y129.59 E11.79011
G1 X156.396 Y130.303 E11.86504
G1 X155.978 Y130.978 E11.94007
G1 X155.495 Y131.607 E12.01501
G1 X154.95 Y132.184 E12.09002
G1 X154.351 Y132.704 E12.16498
G1 X153.702 Y133.16 E12.23993
G1 X153.01 Y133.549 E12.31495
G1 X152.283 Y133.867 E12.38994
G1 X151.527 Y134.11 E12.46498
G1 X150.751 Y134.275 E12.53995
G1 X149.963 Y134.361 E12.61486
G1 X149.5 Y134.375 E12.65863
G1 X75.5 Y134.375 E19.65163
G1 X74.708 Y134.335 E19.72657
G1 X73.923 Y134.216 E19.8016
G1 X73.155 Y134.018 E19.87655
G1 X72.41 Y133.743 E19.9516
G1 X71.697 Y133.396 E20.02653
G1 X71.022 Y132.978 E20.10156
G1 X70.393 Y132.495 E20.1765
G1 X69.816 Y131.95 E20.25151
G1 X69.296 Y131.351 E20.32647
G1 X69.043 Y130.991 E20.36805
G1 X69.022 Y130.978 E20.37038
G1 X68.393 Y130.495 E20.44532
G1 X67.816 Y129.95 E20.52033
G1 X67.296 Y129.351 E20.59529
G1 X66.84 Y128.702 E20.67024
G1 X66.451 Y128.01 E20.74526
G1 X66.133 Y127.283 E20.82025
G1 X65.89 Y126.527 E20.89529
G1 X65.725 Y125.751 E20.97026
G1 X65.639 Y124.963 E21.04517
G1 X65.625 Y124.5 E21.08894
G1 X65.625 Y98.5 E23.54594
G1 X65.665 Y97.708 E23.62088
G1 X65.784 Y96.923 E23.69591
G1 X65.982 Y96.155 E23.77086
G1 X66.257 Y95.41 E23.84591
G1 X66.604 Y94.697 E23.92084
G1 X67.022 Y94.022 E23.99587
G1 X67.505 Y93.393 E24.07081
G1 X68.05 Y92.816 E24.14582
G1 X68.649 Y92.296 E24.22078
G1 X69.009 Y92.043 E24.26236
G1 X69.022 Y92.022 E24.26469
G1 X69.505 Y91.393 E24.33963
G1 X70.05 Y90.816 E24.41464
G1 X70.649 Y90.296 E24.4896
G0 F4500 X70.99 Y90.476
G1 F1800 X71.634 Y90.044 E24.56288
G1 X72.319 Y89.681 E24.63614
G1 X73.038 Y89.389 E24.70948
G1 X73.783 Y89.174 E24.78275
G1 X74.546 Y89.036 E24.85602
G1 X75.5 Y88.975 E24.94636
G1 X149.5 Y88.975 E31.93936
G1 X150.275 Y89.015 E32.0127
G1 X151.041 Y89.134 E32.08595
G1 X151.791 Y89.332 E32.15926
G1 X152.517 Y89.606 E32.23259
G1 X153.21 Y89.953 E32.30583
G1 X153.864 Y90.37 E32.37912
G1 X154.472 Y90.852 E32.45244
G1 X155.027 Y91.394 E32.52575
G1 X155.524 Y91.99 E32.59909
G1 X155.956 Y92.634 E32.67237
G1 X156.319 Y93.319 E32.74563
G1 X156.611 Y94.038 E32.81896
G1 X156.826 Y94.783 E32.89224
G1 X156.964 Y95.546 E32.96551
G1 X157.025 Y96.5 E33.05585
G1 X157.025 Y126.5 E35.89085
G1 X156.985 Y127.275 E35.96418
G1 X156.866 Y128.041 E36.03744
G1 X156.668 Y128.791 E36.11074
G1 X156.394 Y129.517 E36.18407
G1 X156.047 Y130.21 E36.25731
G1 X155.63 Y130.864 E36.33061
G1 X155.148 Y131.472 E36.40393
G1 X154.606 Y132.027 E36.47724
G1 X154.01 Y132.524 E36.55057
G1 X153.366 Y132.956 E36.62386
G1 X152.681 Y133.319 E36.69712
G1 X151.962 Y133.611 E36.77045
G1 X151.217 Y133.826 E36.84373
G1 X150.454 Y133.964 E36.917
G1 X149.5 Y134.025 E37.00734
G1 X75.5 Y134.025 E44.00034
G1 X74.725 Y133.985 E44.07367
G1 X73.959 Y133.866 E44.14693
G1 X73.209 Y133.668 E44.22023
G1 X72.483 Y133.394 E44.29356
G1 X71.79 Y133.047 E44.3668
G1 X71.136 Y132.63 E44.4401
G1 X70.528 Y132.148 E44.51342
G1 X69.973 Y131.606 E44.58673
G1 X69.476 Y131.01 E44.66006
G1 X69.285 Y130.725 E44.69248
G1 X69.136 Y130.63 E44.70918
G1 X68.528 Y130.148 E44.7825
G1 X67.973 Y129.606 E44.85581
G1 X67.476 Y129.01 E44.92915
G1 X67.044 Y128.366 E45.00243
G1 X66.681 Y127.681 E45.07569
G1 X66.389 Y126.962 E45.14902
G1 X66.174 Y126.217 E45.2223
G1 X66.036 Y125.454 E45.29557
G1 X65.975 Y124.5 E45.38591
G1 X65.975 Y98.5 E47.84291
G1 X66.015 Y97.725 E47.91625
G1 X66.134 Y96.959 E47.9895
G1 X66.332 Y96.209 E48.0628
G1 X66.606 Y95.483 E48.13613
G1 X66.953 Y94.79 E48.20937
G1 X67.37 Y94.136 E48.28267
G1 X67.852 Y93.528 E48.35599
G1 X68.394 Y92.973 E48.4293
G1 X68.99 Y92.476 E48.50263
G1 X69.275 Y92.285 E48.53506
G1 X69.37 Y92.136 E48.55176
G1 X69.852 Y91.528 E48.62508
G1 X70.394 Y90.973 E48.69838
G1 X70.99 Y90.476 E48.77172
G0 F4500 X71.329 Y90.662
G1 F1800 X71.968 Y90.255 E48.84331
G1 X72.646 Y89.917 E48.9149
G1 X73.355 Y89.653 E48.9864
G1 X74.089 Y89.465 E49.058
G1 X74.838 Y89.356 E49.12953
G1 X75.5 Y89.325 E49.19215
G1 X149.5 Y89.325 E56.18515
G1 X150.256 Y89.365 E56.2567
G1 X151.004 Y89.484 E56.32827
G1 X151.735 Y89.682 E56.39984
G1 X152.442 Y89.956 E56.47149
G1 X153.115 Y90.302 E56.54301
G1 X153.748 Y90.718 E56.61459
G1 X154.334 Y91.198 E56.68617
G1 X154.866 Y91.737 E56.75774
G1 X155.338 Y92.329 E56.82928
G1 X155.745 Y92.968 E56.90088
G1 X156.083 Y93.646 E56.97247
G1 X156.347 Y94.355 E57.04396
G1 X156.535 Y95.089 E57.11557
G1 X156.644 Y95.838 E57.18709
G1 X156.675 Y96.5 E57.24972
G1 X156.675 Y126.5 E60.08472
G1 X156.635 Y127.256 E60.15626
G1 X156.516 Y128.004 E60.22784
G1 X156.318 Y128.735 E60.29941
G1 X156.044 Y129.442 E60.37106
G1 X155.698 Y130.115 E60.44257
G1 X155.282 Y130.748 E60.51415
G1 X154.802 Y131.334 E60.58573
G1 X154.263 Y131.866 E60.6573
G1 X153.671 Y132.338 E60.72885
G1 X153.032 Y132.745 E60.80044
G1 X152.354 Y133.083 E60.87204
G1 X151.645 Y133.347 E60.94353
G1 X150.911 Y133.535 E61.01513
G1 X150.162 Y133.644 E61.08666
G1 X149.5 Y133.675 E61.14929
G1 X75.5 Y133.675 E68.14229
G1 X74.744 Y133.635 E68.21383
G1 X73.996 Y133.516 E68.2854
G1 X73.265 Y133.318 E68.35697
G1 X72.558 Y133.044 E68.42862
G1 X71.885 Y132.698 E68.50014
G1 X71.252 Y132.282 E68.57172
G1 X70.666 Y131.802 E68.6433
G1 X70.134 Y131.263 E68.71487
G1 X69.662 Y130.671 E68.78642
G1 X69.531 Y130.465 E68.80948
G1 X69.252 Y130.282 E68.84102
G1 X68.666 Y129.802 E68.9126
G1 X68.134 Y129.263 E68.98417
G1 X67.662 Y128.671 E69.05572
G1 X67.255 Y128.032 E69.12731
G1 X66.917 Y127.354 E69.1989
G1 X66.653 Y126.645 E69.2704
G1 X66.465 Y125.911 E69.342
G1 X66.356 Y125.162 E69.41352
G1 X66.325 Y124.5 E69.47615
G1 X66.325 Y98.5 E71.93315
G1 X66.365 Y97.744 E72.00469
G1 X66.484 Y96.996 E72.07627
G1 X66.682 Y96.265 E72.14784
G1 X66.956 Y95.558 E72.21949
G1 X67.302 Y94.885 E72.291
G1 X67.718 Y94.252 E72.36258
G1 X68.198 Y93.666 E72.43416
G1 X68.737 Y93.134 E72.50573
G1 X69.329 Y92.662 E72.57728
G1 X69.535 Y92.531 E72.60035
G1 X69.718 Y92.252 E72.63188
G1 X70.198 Y91.666 E72.70346
G1 X70.737 Y91.134 E72.77503
G1 X71.329 Y90.662 E72.84658
G0 F4500 X71.079 Y91.3
G1 F1800 X71.667 Y90.853 E72.91638
G1 X72.3 Y90.472 E72.9862
G1 X72.97 Y90.161 E73.056
G1 X73.67 Y89.925 E73.12581
G1 X74.391 Y89.766 E73.19558
G1 X75.126 Y89.685 E73.26546
G1 X75.5 Y89.675 E73.30082
G1 X149.5 Y89.675 E80.29382
G1 X150.238 Y89.715 E80.36366
G1 X150.966 Y89.834 E80.43337
G1 X151.678 Y90.032 E80.50321
G1 X152.364 Y90.305 E80.57298
G1 X153.017 Y90.651 E80.64281
G1 X153.629 Y91.065 E80.71264
G1 X154.192 Y91.543 E80.78243
G1 X154.7 Y92.079 E80.85222
G1 X155.147 Y92.667 E80.92202
G1 X155.528 Y93.3 E80.99183
G1 X155.839 Y93.97 E81.06164
G1 X156.075 Y94.67 E81.13145
G1 X156.234 Y95.391 E81.20122
G1 X156.315 Y96.126 E81.2711
G1 X156.325 Y96.5 E81.30645
G1 X156.325 Y126.5 E84.14145
G1 X156.285 Y127.238 E84.21129
G1 X156.166 Y127.966 E84.281
G1 X155.968 Y128.678 E84.35084
G1 X155.695 Y129.364 E84.42061
G1 X155.349 Y130.017 E84.49045
G1 X154.935 Y130.629 E84.56027
G1 X154.457 Y131.192 E84.63006
G1 X153.921 Y131.7 E84.69985
G1 X153.333 Y132.147 E84.76965
G1 X152.7 Y132.528 E84.83947
G1 X152.03 Y132.839 E84.90927
G1 X151.33 Y133.075 E84.97908
G1 X150.609 Y133.234 E85.04885
G1 X149.874 Y133.315 E85.11873
G1 X149.5 Y133.325 E85.15409
G1 X75.5 Y133.325 E92.14709
G1 X74.762 Y133.285 E92.21693
G1 X74.034 Y133.166 E92.28664
G1 X73.322 Y132.968 E92.35648
G1 X72.636 Y132.695 E92.42625
G1 X71.983 Y132.349 E92.49608
G1 X71.371 Y131.935 E92.56591
G1 X70.808 Y131.457 E92.6357
G1 X70.3 Y130.921 E92.70549
G1 X69.853 Y130.333 E92.77529
G1 X69.78 Y130.212 E92.78864
G1 X69.371 Y129.935 E92.83532
G1 X68.808 Y129.457 E92.90511
G1 X68.3 Y128.921 E92.9749
G1 X67.853 Y128.333 E93.0447
G1 X67.472 Y127.7 E93.11452
G1 X67.161 Y127.03 E93.18432
G1 X66.925 Y126.33 E93.25413
G1 X66.766 Y125.609 E93.3239
G1 X66.685 Y124.874 E93.39378
G1 X66.675 Y124.5 E93.42913
G1 X66.675 Y98.5 E95.88613
G1 X66.715 Y97.762 E95.95598
G1 X66.834 Y97.034 E96.02569
G1 X67.032 Y96.322 E96.09552
G1 X67.305 Y95.636 E96.1653
G1 X67.651 Y94.983 E96.23513
G1 X68.065 Y94.371 E96.30496
G1 X68.543 Y93.808 E96.37475
G1 X69.079 Y93.3 E96.44454
G1 X69.667 Y92.853 E96.51433
G1 X69.788 Y92.78 E96.52769
G1 X70.065 Y92.371 E96.57437
G1 X70.543 Y91.808 E96.64416
G1 X71.079 Y91.3 E96.71395
G0 F4500 X71.421 Y91.471
G1 F1800 X72.004 Y91.05 E96.78191
G1 X72.631 Y90.696 E96.84995
G1 X73.292 Y90.413 E96.9179
G1 X73.981 Y90.206 E96.98588
G1 X74.689 Y90.076 E97.05391
G1 X75.5 Y90.025 E97.1307
G1 X149.5 Y90.025 E104.1237
G1 X150.218 Y90.065 E104.19165
G1 X150.928 Y90.184 E104.25969
G1 X151.62 Y90.382 E104.3277
G1 X152.285 Y90.655 E104.39564
G1 X152.917 Y91 E104.46368
G1 X153.506 Y91.413 E104.53166
G1 X154.045 Y91.889 E104.59961
G1 X154.529 Y92.421 E104.66758
G1 X154.95 Y93.004 E104.73554
G1 X155.304 Y93.631 E104.80358
G1 X155.587 Y94.292 E104.87153
G1 X155.794 Y94.981 E104.93951
G1 X155.924 Y95.689 E105.00754
G1 X155.975 Y96.5 E105.08433
G1 X155.975 Y126.5 E107.91933
G1 X155.935 Y127.218 E107.98728
G1 X155.816 Y127.928 E108.05532
G1 X155.618 Y128.62 E108.12333
G1 X155.345 Y129.285 E108.19127
G1 X155 Y129.917 E108.25931
G1 X154.587 Y130.506 E108.32729
G1 X154.111 Y131.045 E108.39524
G1 X153.579 Y131.529 E108.46321
G1 X152.996 Y131.95 E108.53117
G1 X152.369 Y132.304 E108.59921
G1 X151.708 Y132.587 E108.66716
G1 X151.019 Y132.794 E108.73514
G1 X150.311 Y132.924 E108.80317
G1 X149.5 Y132.975 E108.87996
G1 X75.5 Y132.975 E115.87296
G1 X74.782 Y132.935 E115.94092
G1 X74.072 Y132.816 E116.00895
G1 X73.38 Y132.618 E116.07696
G1 X72.715 Y132.345 E116.1449
G1 X72.083 Y132 E116.21294
G1 X71.494 Y131.587 E116.28092
G1 X70.955 Y131.111 E116.34887
G1 X70.471 Y130.579 E116.41684
G1 X70.05 Y129.996 E116.4848
G1 X70.032 Y129.964 E116.48827
G1 X69.494 Y129.587 E116.55035
G1 X68.955 Y129.111 E116.6183
G1 X68.471 Y128.579 E116.68627
G1 X68.05 Y127.996 E116.75423
G1 X67.696 Y127.369 E116.82227
G1 X67.413 Y126.708 E116.89022
G1 X67.206 Y126.019 E116.9582
G1 X67.076 Y125.311 E117.02623
G1 X67.025 Y124.5 E117.10302
G1 X67.025 Y98.5 E119.56002
G1 X67.065 Y97.782 E119.62797
G1 X67.184 Y97.072 E119.69601
G1 X67.382 Y96.38 E119.76402
G1 X67.655 Y95.715 E119.83196
G1 X68 Y95.083 E119.9
G1 X68.413 Y94.494 E119.96798
G1 X68.889 Y93.955 E120.03593
G1 X69.421 Y93.471 E120.1039
G1 X70.004 Y93.05 E120.17186
G1 X70.036 Y93.032 E120.17533
G1 X70.413 Y92.494 E120.23741
G1 X70.889 Y91.955 E120.30536
G1 X71.421 Y91.471 E120.37333
G0 F4500 X71.762 Y91.648
G1 F1800 X72.34 Y91.253 E120.43949
G1 X72.959 Y90.927 E120.5056
G1 X73.611 Y90.673 E120.57172
G1 X74.288 Y90.496 E120.63785
G1 X74.981 Y90.397 E120.704
G1 X75.5 Y90.375 E120.75309
G1 X149.5 Y90.375 E127.74609
G1 X150.199 Y90.415 E127.81226
G1 X150.888 Y90.534 E127.87833
G1 X151.559 Y90.732 E127.94444
G1 X152.204 Y91.004 E128.01059
G1 X152.813 Y91.348 E128.07669
G1 X153.379 Y91.76 E128.14285
G1 X153.894 Y92.233 E128.20893
G1 X154.352 Y92.762 E128.27505
G1 X154.747 Y93.34 E128.34121
G1 X155.073 Y93.959 E128.40732
G1 X155.327 Y94.611 E128.47344
G1 X155.504 Y95.288 E128.53957
G1 X155.603 Y95.981 E128.60572
G1 X155.625 Y96.5 E128.65481
G1 X155.625 Y126.5 E131.48981
G1 X155.585 Y127.199 E131.55598
G1 X155.466 Y127.888 E131.62205
G1 X155.268 Y128.559 E131.68816
G1 X154.996 Y129.204 E131.75431
G1 X154.652 Y129.813 E131.82041
G1 X154.24 Y130.379 E131.88657
G1 X153.767 Y130.894 E131.95265
G1 X153.238 Y131.352 E132.01877
G1 X152.66 Y131.747 E132.08493
G1 X152.041 Y132.073 E132.15104
G1 X151.389 Y132.327 E132.21716
G1 X150.712 Y132.504 E132.28329
G1 X150.019 Y132.603 E132.34944
G1 X149.5 Y132.625 E132.39853
G1 X75.5 Y132.625 E139.39153
G1 X74.801 Y132.585 E139.4577
G1 X74.112 Y132.466 E139.52377
G1 X73.441 Y132.268 E139.58988
G1 X72.796 Y131.996 E139.65604
G1 X72.187 Y131.652 E139.72213
G1 X71.621 Y131.24 E139.78829
G1 X71.106 Y130.767 E139.85437
G1 X70.648 Y130.238 E139.92049
G1 X70.286 Y129.708 E139.98114
G1 X70.187 Y129.652 E139.99189
G1 X69.621 Y129.24 E140.05805
G1 X69.106 Y128.767 E140.12413
G1 X68.648 Y128.238 E140.19025
G1 X68.253 Y127.66 E140.25641
G1 X67.927 Y127.041 E140.32252
G1 X67.673 Y126.389 E140.38865
G1 X67.496 Y125.712 E140.45477
G1 X67.397 Y125.019 E140.52093
G1 X67.375 Y124.5 E140.57002
G1 X67.375 Y98.5 E143.02702
G1 X67.415 Y97.801 E143.09318
G1 X67.534 Y97.112 E143.15925
G1 X67.732 Y96.441 E143.22537
G1 X68.004 Y95.796 E143.29152
G1 X68.348 Y95.187 E143.35761
G1 X68.76 Y94.621 E143.42377
G1 X69.233 Y94.106 E143.48985
G1 X69.762 Y93.648 E143.55597
G1 X70.292 Y93.286 E143.61663
G1 X70.348 Y93.187 E143.62738
G1 X70.76 Y92.621 E143.69353
G1 X71.233 Y92.106 E143.75961
G1 X71.762 Y91.648 E143.82573
G0 F4500 X72.102 Y91.831
G1 F1800 X72.674 Y91.464 E143.88996
G1 X73.285 Y91.167 E143.95416
G1 X73.927 Y90.943 E144.01841
G1 X74.59 Y90.797 E144.08257
G1 X75.5 Y90.725 E144.16883
G1 X149.5 Y90.725 E151.16183
G1 X150.178 Y90.765 E151.22601
G1 X150.847 Y90.884 E151.29023
G1 X151.497 Y91.081 E151.35441
G1 X152.12 Y91.353 E151.41865
G1 X152.706 Y91.697 E151.48286
G1 X153.248 Y92.107 E151.54709
G1 X153.738 Y92.577 E151.61125
G1 X154.169 Y93.102 E151.67544
G1 X154.536 Y93.674 E151.73966
G1 X154.833 Y94.285 E151.80386
G1 X155.057 Y94.927 E151.86812
G1 X155.203 Y95.59 E151.93227
G1 X155.275 Y96.5 E152.01854
G1 X155.275 Y126.5 E154.85354
G1 X155.235 Y127.178 E154.91772
G1 X155.116 Y127.847 E154.98193
G1 X154.919 Y128.497 E155.04612
G1 X154.647 Y129.12 E155.11036
G1 X154.303 Y129.706 E155.17457
G1 X153.893 Y130.248 E155.23879
G1 X153.423 Y130.738 E155.30296
G1 X152.898 Y131.169 E155.36714
G1 X152.326 Y131.536 E155.43137
G1 X151.715 Y131.833 E155.49557
G1 X151.073 Y132.057 E155.55982
G1 X150.41 Y132.203 E155.62398
G1 X149.5 Y132.275 E155.71024
G1 X75.5 Y132.275 E162.70324
G1 X74.822 Y132.235 E162.76742
G1 X74.153 Y132.116 E162.83164
G1 X73.503 Y131.919 E162.89582
G1 X72.88 Y131.647 E162.96006
G1 X72.294 Y131.303 E163.02427
G1 X71.752 Y130.893 E163.0885
G1 X71.262 Y130.423 E163.15266
G1 X70.831 Y129.898 E163.21685
G1 X70.543 Y129.449 E163.26726
G1 X70.294 Y129.303 E163.29454
G1 X69.752 Y128.893 E163.35876
G1 X69.262 Y128.423 E163.42292
G1 X68.831 Y127.898 E163.48711
G1 X68.464 Y127.326 E163.55133
G1 X68.167 Y126.715 E163.61553
G1 X67.943 Y126.073 E163.67979
G1 X67.797 Y125.41 E163.74394
G1 X67.725 Y124.5 E163.83021
G1 X67.725 Y98.5 E166.28721
G1 X67.765 Y97.822 E166.35139
G1 X67.884 Y97.153 E166.4156
G1 X68.081 Y96.503 E166.47979
G1 X68.353 Y95.88 E166.54403
G1 X68.697 Y95.294 E166.60824
G1 X69.107 Y94.752 E166.67246
G1 X69.577 Y94.262 E166.73663
G1 X70.102 Y93.831 E166.80082
G1 X70.551 Y93.543 E166.85122
G1 X70.697 Y93.294 E166.8785
G1 X71.107 Y92.752 E166.94272
G1 X71.577 Y92.262 E167.00689
G1 X72.102 Y91.831 E167.07108
G0 F4500 X71.92 Y92.424
G1 F1800 X72.441 Y92.02 E167.13338
G1 X73.006 Y91.682 E167.1956
G1 X73.608 Y91.416 E167.25779
G1 X74.238 Y91.224 E167.32003
G1 X74.886 Y91.11 E167.38221
G1 X75.5 Y91.075 E167.44032
G1 X149.5 Y91.075 E174.43332
G1 X150.157 Y91.115 E174.49552
G1 X150.805 Y91.234 E174.55778
G1 X151.433 Y91.431 E174.61998
G1 X152.033 Y91.703 E174.68224
G1 X152.596 Y92.045 E174.74449
G1 X153.113 Y92.453 E174.80672
G1 X153.576 Y92.92 E174.86887
G1 X153.98 Y93.441 E174.93117
G1 X154.318 Y94.006 E174.99339
G1 X154.584 Y94.608 E175.05558
