;FLAVOR:UltiGCode
;TIME:4464
;MATERIAL:7973
;MATERIAL2:0
;NOZZLE_DIAMETER:0.4
;Generated with Cura_SteamEngine 3.1.0
M82 ; absolute extrusion mode

;LAYER_COUNT:78
;LAYER:0
M107
G0 F4500 X70.899 Y88.549 Z0.27
;TYPE:SKIRT
G1 F1800 X71.548 Y88.093 E0.07496
G1 X72.24 Y87.704 E0.14997
G1 X72.967 Y87.386 E0.22496
G1 X73.723 Y87.143 E0.3
G1 X74.499 Y86.978 E0.37497
G1 X75.287 Y86.892 E0.44988
G1 X75.75 Y86.878 E0.49366
G1 X150.75 Y86.878 E7.58116
G1 X151.542 Y86.918 E7.65609
G1 X152.327 Y87.037 E7.73112
G1 X153.095 Y87.235 E7.80607
G1 X153.84 Y87.51 E7.88112
G1 X154.553 Y87.857 E7.95605
G1 X155.228 Y88.275 E8.03108
G1 X155.857 Y88.758 E8.10602
G1 X156.434 Y89.303 E8.18103
G1 X156.954 Y89.902 E8.25599
G1 X157.41 Y90.551 E8.33094
G1 X157.799 Y91.243 E8.40596
G1 X158.117 Y91.97 E8.48095
G1 X158.36 Y92.726 E8.55599
G1 X158.525 Y93.502 E8.63096
G1 X158.611 Y94.29 E8.70587
G1 X158.625 Y94.753 E8.74964
G1 X158.625 Y119.162 E11.05629
G1 X158.904 Y119.669 E11.11098
G1 X159.251 Y120.382 E11.18592
G1 X159.524 Y121.127 E11.2609
G1 X159.633 Y121.512 E11.29871
G1 X159.851 Y122.364 E11.38182
G1 X160.009 Y123.142 E11.45684
G1 X160.097 Y124.316 E11.56809
G1 X160.097 Y125.191 E11.65078
G1 X160.057 Y125.983 E11.72572
G1 X159.852 Y127.139 E11.83667
G1 X159.635 Y127.989 E11.91957
G1 X159.401 Y128.747 E11.99453
G1 X159.091 Y129.477 E12.06948
G1 X158.905 Y129.836 E12.10769
G1 X158.481 Y130.607 E12.19084
G1 X158.064 Y131.282 E12.26582
G1 X157.582 Y131.912 E12.34078
G1 X157.313 Y132.212 E12.37886
G1 X156.712 Y132.85 E12.46169
G1 X156.14 Y133.399 E12.53661
G1 X155.618 Y133.814 E12.59963
G1 X155.264 Y134.072 E12.64102
G1 X154.6 Y134.507 E12.71604
G1 X153.978 Y134.834 E12.78244
G1 X153.183 Y135.208 E12.86547
G1 X152.449 Y135.509 E12.94044
G1 X151.31 Y135.817 E13.05194
G1 X150.447 Y135.982 E13.13497
G1 X149.661 Y136.091 E13.20996
G1 X148.868 Y136.121 E13.28495
G1 X148.465 Y136.106 E13.32306
G1 X147.59 Y136.05 E13.40592
G1 X146.802 Y135.959 E13.48088
G1 X145.654 Y135.679 E13.59254
G1 X144.822 Y135.408 E13.67523
G1 X144.081 Y135.124 E13.75022
G1 X143.043 Y134.57 E13.86141
G1 X142.302 Y134.1 E13.94433
G1 X141.654 Y133.642 E14.01932
G1 X140.788 Y132.85 E14.13022
G1 X140.579 Y132.628 E14.15903
G1 X70.75 Y132.628 E20.75788
G1 X69.958 Y132.588 E20.83281
G1 X69.173 Y132.469 E20.90784
G1 X68.405 Y132.271 E20.98279
G1 X67.66 Y131.996 E21.05784
G1 X66.947 Y131.649 E21.13277
G1 X66.272 Y131.231 E21.2078
G1 X65.643 Y130.748 E21.28274
G1 X65.066 Y130.203 E21.35775
G1 X64.546 Y129.604 E21.43271
G1 X64.09 Y128.955 E21.50766
G1 X63.701 Y128.263 E21.58268
G1 X63.383 Y127.536 E21.65767
G1 X63.14 Y126.78 E21.73271
G1 X62.975 Y126.004 E21.80768
G1 X62.889 Y125.216 E21.88259
G1 X62.875 Y124.753 E21.92636
G1 X62.875 Y100.753 E24.19436
G1 X62.915 Y99.961 E24.2693
G1 X63.034 Y99.176 E24.34433
G1 X63.232 Y98.408 E24.41928
G1 X63.507 Y97.663 E24.49433
G1 X63.854 Y96.95 E24.56926
G1 X64.272 Y96.275 E24.64429
G1 X64.755 Y95.646 E24.71923
G1 X65.3 Y95.069 E24.79424
G1 X65.899 Y94.549 E24.8692
G1 X66.548 Y94.093 E24.94415
G1 X67.24 Y93.704 E25.01917
G1 X67.967 Y93.386 E25.09416
G1 X68.004 Y93.374 E25.09783
G1 X68.034 Y93.176 E25.11676
G1 X68.232 Y92.408 E25.19171
G1 X68.507 Y91.663 E25.26675
G1 X68.854 Y90.95 E25.34169
G1 X69.272 Y90.275 E25.41671
G1 X69.755 Y89.646 E25.49166
G1 X70.3 Y89.069 E25.56666
G1 X70.899 Y88.549 E25.64162
G0 F4500 X71.24 Y88.729
G1 F1800 X71.884 Y88.297 E25.7149
G1 X72.569 Y87.934 E25.78816
G1 X73.288 Y87.642 E25.8615
G1 X74.033 Y87.427 E25.93477
G1 X74.796 Y87.289 E26.00805
G1 X75.75 Y87.228 E26.09839
G1 X150.75 Y87.228 E33.18589
G1 X151.525 Y87.268 E33.25922
G1 X152.291 Y87.387 E33.33248
G1 X153.041 Y87.585 E33.40578
G1 X153.767 Y87.859 E33.47911
G1 X154.46 Y88.206 E33.55235
G1 X155.114 Y88.623 E33.62565
G1 X155.722 Y89.105 E33.69897
G1 X156.277 Y89.647 E33.77227
G1 X156.774 Y90.243 E33.84561
G1 X157.206 Y90.887 E33.91889
G1 X157.569 Y91.572 E33.99215
G1 X157.861 Y92.291 E34.06549
G1 X158.076 Y93.036 E34.13876
G1 X158.214 Y93.799 E34.21204
G1 X158.275 Y94.753 E34.30237
G1 X158.275 Y119.252 E36.61753
G1 X158.597 Y119.837 E36.68063
G1 X158.936 Y120.535 E36.75396
G1 X159.294 Y121.599 E36.86005
G1 X159.512 Y122.451 E36.94316
G1 X159.665 Y123.211 E37.01642
G1 X159.747 Y124.316 E37.12113
G1 X159.747 Y125.191 E37.20381
G1 X159.707 Y125.966 E37.27715
G1 X159.513 Y127.052 E37.3814
G1 X159.296 Y127.902 E37.4643
G1 X159.066 Y128.643 E37.53762
G1 X158.599 Y129.667 E37.64398
G1 X158.175 Y130.438 E37.72713
G1 X157.766 Y131.098 E37.8005
G1 X157.058 Y131.972 E37.9068
G1 X156.457 Y132.61 E37.98962
G1 X155.897 Y133.146 E38.06288
G1 X155.412 Y133.531 E38.1214
G1 X155.058 Y133.789 E38.16279
G1 X154.409 Y134.213 E38.23605
G1 X153.829 Y134.517 E38.29793
G1 X153.034 Y134.891 E38.38096
G1 X152.316 Y135.185 E38.45428
G1 X151.244 Y135.473 E38.55917
G1 X150.381 Y135.638 E38.6422
G1 X149.613 Y135.744 E38.71547
G1 X148.487 Y135.757 E38.82188
G1 X147.612 Y135.701 E38.90474
G1 X146.842 Y135.611 E38.978
G1 X145.762 Y135.346 E39.08309
G1 X144.93 Y135.075 E39.16578
G1 X144.206 Y134.797 E39.23906
G1 X143.23 Y134.275 E39.34366
G1 X142.489 Y133.805 E39.42658
G1 X141.857 Y133.356 E39.49984
G1 X141.043 Y132.61 E39.60418
G1 X140.73 Y132.278 E39.6473
G1 X70.75 Y132.278 E46.26041
G1 X69.975 Y132.238 E46.33375
G1 X69.209 Y132.119 E46.407
G1 X68.459 Y131.921 E46.48031
G1 X67.733 Y131.647 E46.55364
G1 X67.04 Y131.3 E46.62688
G1 X66.386 Y130.883 E46.70017
G1 X65.778 Y130.401 E46.77349
G1 X65.223 Y129.859 E46.8468
G1 X64.726 Y129.263 E46.92014
G1 X64.294 Y128.619 E46.99342
G1 X63.931 Y127.934 E47.06668
G1 X63.639 Y127.215 E47.14001
G1 X63.424 Y126.47 E47.21329
G1 X63.286 Y125.707 E47.28656
G1 X63.225 Y124.753 E47.3769
G1 X63.225 Y100.753 E49.6449
G1 X63.265 Y99.978 E49.71824
G1 X63.384 Y99.212 E49.79149
G1 X63.582 Y98.462 E49.86479
G1 X63.856 Y97.736 E49.93812
G1 X64.203 Y97.043 E50.01136
G1 X64.62 Y96.389 E50.08466
G1 X65.102 Y95.781 E50.15798
G1 X65.644 Y95.226 E50.23129
G1 X66.24 Y94.729 E50.30463
G1 X66.884 Y94.297 E50.37791
G1 X67.569 Y93.934 E50.45117
G1 X68.288 Y93.642 E50.5245
G1 X68.319 Y93.633 E50.52755
G1 X68.384 Y93.212 E50.56781
G1 X68.582 Y92.462 E50.64111
G1 X68.856 Y91.736 E50.71444
G1 X69.203 Y91.043 E50.78768
G1 X69.62 Y90.389 E50.86098
G1 X70.102 Y89.781 E50.9343
G1 X70.644 Y89.226 E51.00761
G1 X71.24 Y88.729 E51.08094
G0 F4500 X71.579 Y88.915
G1 F1800 X72.218 Y88.508 E51.15254
G1 X72.896 Y88.17 E51.22413
G1 X73.605 Y87.906 E51.29562
G1 X74.339 Y87.718 E51.36723
G1 X75.088 Y87.609 E51.43875
G1 X75.75 Y87.578 E51.50138
G1 X150.75 Y87.578 E58.58888
G1 X151.506 Y87.618 E58.66042
G1 X152.254 Y87.737 E58.732
G1 X152.985 Y87.935 E58.80356
G1 X153.692 Y88.209 E58.87522
G1 X154.365 Y88.555 E58.94673
G1 X154.998 Y88.971 E59.01831
G1 X155.584 Y89.451 E59.08989
G1 X156.116 Y89.99 E59.16146
G1 X156.588 Y90.582 E59.23301
G1 X156.995 Y91.221 E59.3046
G1 X157.333 Y91.899 E59.37619
G1 X157.597 Y92.608 E59.44769
G1 X157.785 Y93.342 E59.51929
G1 X157.894 Y94.091 E59.59082
G1 X157.925 Y94.753 E59.65344
G1 X157.925 Y119.341 E61.97701
G1 X158.291 Y120.006 E62.04874
G1 X158.62 Y120.688 E62.1203
G1 X158.955 Y121.685 E62.21969
G1 X159.173 Y122.537 E62.3028
G1 X159.322 Y123.28 E62.37441
G1 X159.397 Y124.316 E62.47257
G1 X159.397 Y125.191 E62.55526
G1 X159.357 Y125.947 E62.6268
G1 X159.174 Y126.966 E62.72463
G1 X158.957 Y127.816 E62.80754
G1 X158.731 Y128.539 E62.87912
G1 X158.292 Y129.498 E62.97879
G1 X157.868 Y130.269 E63.06194
G1 X157.469 Y130.913 E63.13353
G1 X156.804 Y131.732 E63.23323
G1 X156.203 Y132.37 E63.31606
G1 X155.655 Y132.893 E63.38764
G1 X155.206 Y133.248 E63.44173
G1 X154.852 Y133.506 E63.48313
G1 X154.217 Y133.92 E63.55476
G1 X153.68 Y134.2 E63.61199
G1 X152.885 Y134.574 E63.69502
G1 X152.184 Y134.86 E63.76656
G1 X151.178 Y135.129 E63.86497
G1 X150.315 Y135.294 E63.948
G1 X149.565 Y135.397 E64.01954
G1 X148.51 Y135.407 E64.11924
G1 X147.635 Y135.351 E64.2021
G1 X146.883 Y135.263 E64.27365
G1 X145.871 Y135.013 E64.37216
G1 X145.039 Y134.742 E64.45485
G1 X144.332 Y134.47 E64.52643
G1 X143.418 Y133.979 E64.62448
G1 X142.677 Y133.509 E64.7074
G1 X142.06 Y133.07 E64.77896
G1 X141.297 Y132.37 E64.87681
G1 X140.881 Y131.928 E64.93417
G1 X70.75 Y131.928 E71.56155
G1 X69.994 Y131.888 E71.63309
G1 X69.246 Y131.769 E71.70467
G1 X68.515 Y131.571 E71.77624
G1 X67.808 Y131.297 E71.84789
G1 X67.135 Y130.951 E71.9194
G1 X66.502 Y130.535 E71.99098
G1 X65.916 Y130.055 E72.06256
G1 X65.384 Y129.516 E72.13413
G1 X64.912 Y128.924 E72.20568
G1 X64.505 Y128.285 E72.27727
G1 X64.167 Y127.607 E72.34887
G1 X63.903 Y126.898 E72.42036
G1 X63.715 Y126.164 E72.49196
G1 X63.606 Y125.415 E72.56349
G1 X63.575 Y124.753 E72.62612
G1 X63.575 Y100.753 E74.89412
G1 X63.615 Y99.997 E74.96566
G1 X63.734 Y99.249 E75.03723
G1 X63.932 Y98.518 E75.1088
G1 X64.206 Y97.811 E75.18045
G1 X64.552 Y97.138 E75.25197
G1 X64.968 Y96.505 E75.32355
G1 X65.448 Y95.919 E75.39513
G1 X65.987 Y95.387 E75.4667
G1 X66.579 Y94.915 E75.53825
G1 X67.218 Y94.508 E75.60984
G1 X67.896 Y94.17 E75.68143
G1 X68.605 Y93.906 E75.75293
G1 X68.631 Y93.899 E75.75547
G1 X68.734 Y93.249 E75.81766
G1 X68.932 Y92.518 E75.88923
G1 X69.206 Y91.811 E75.96088
G1 X69.552 Y91.138 E76.03239
G1 X69.968 Y90.505 E76.10397
G1 X70.448 Y89.919 E76.17556
G1 X70.987 Y89.387 E76.24713
G1 X71.579 Y88.915 E76.31867
G0 F4500 X71.329 Y89.553
G1 F1800 X71.917 Y89.106 E76.38847
G1 X72.55 Y88.725 E76.45829
G1 X73.22 Y88.414 E76.52809
G1 X73.92 Y88.178 E76.5979
G1 X74.641 Y88.019 E76.66767
G1 X75.376 Y87.938 E76.73755
G1 X75.75 Y87.928 E76.77291
G1 X150.75 Y87.928 E83.86041
G1 X151.488 Y87.968 E83.93025
G1 X152.216 Y88.087 E83.99996
G1 X152.928 Y88.285 E84.0698
G1 X153.614 Y88.558 E84.13957
G1 X154.267 Y88.904 E84.20941
G1 X154.879 Y89.318 E84.27923
G1 X155.442 Y89.796 E84.34902
G1 X155.95 Y90.332 E84.41881
G1 X156.397 Y90.92 E84.48861
G1 X156.778 Y91.553 E84.55843
G1 X157.089 Y92.223 E84.62823
G1 X157.325 Y92.923 E84.69804
G1 X157.484 Y93.644 E84.76781
G1 X157.565 Y94.379 E84.83769
G1 X157.575 Y94.753 E84.87304
G1 X157.575 Y119.431 E87.20511
G1 X157.984 Y120.175 E87.28535
G1 X158.304 Y120.84 E87.35509
G1 X158.616 Y121.772 E87.44796
G1 X158.834 Y122.624 E87.53107
G1 X158.978 Y123.349 E87.60092
G1 X159.047 Y124.316 E87.69254
G1 X159.047 Y125.191 E87.77522
G1 X159.007 Y125.929 E87.84507
G1 X158.835 Y126.879 E87.9363
G1 X158.618 Y127.729 E88.0192
G1 X158.397 Y128.434 E88.08902
G1 X157.985 Y129.33 E88.18222
G1 X157.561 Y130.101 E88.26537
G1 X157.171 Y130.728 E88.33515
G1 X156.549 Y131.492 E88.42824
G1 X155.948 Y132.13 E88.51107
G1 X155.413 Y132.639 E88.58086
G1 X155 Y132.966 E88.63064
G1 X154.646 Y133.224 E88.67203
G1 X154.026 Y133.626 E88.74186
G1 X153.531 Y133.884 E88.79461
G1 X152.736 Y134.258 E88.87764
G1 X152.052 Y134.536 E88.94741
G1 X151.113 Y134.786 E89.03924
G1 X150.25 Y134.951 E89.12227
G1 X149.518 Y135.05 E89.19207
G1 X148.532 Y135.058 E89.28525
G1 X147.657 Y135.002 E89.36811
G1 X146.924 Y134.915 E89.43786
G1 X145.979 Y134.68 E89.52988
G1 X145.147 Y134.409 E89.61257
G1 X144.458 Y134.143 E89.68237
G1 X143.605 Y133.683 E89.77395
G1 X142.864 Y133.213 E89.85687
G1 X142.263 Y132.785 E89.9266
G1 X141.552 Y132.13 E90.01795
G1 X141.032 Y131.578 E90.08962
G1 X70.75 Y131.578 E96.73127
G1 X70.012 Y131.538 E96.80111
G1 X69.284 Y131.419 E96.87082
G1 X68.572 Y131.221 E96.94066
G1 X67.886 Y130.948 E97.01043
G1 X67.233 Y130.602 E97.08026
G1 X66.621 Y130.188 E97.15009
G1 X66.058 Y129.71 E97.21988
G1 X65.55 Y129.174 E97.28967
G1 X65.103 Y128.586 E97.35947
G1 X64.722 Y127.953 E97.42928
G1 X64.411 Y127.283 E97.49909
G1 X64.175 Y126.583 E97.5689
G1 X64.016 Y125.862 E97.63867
G1 X63.935 Y125.127 E97.70855
G1 X63.925 Y124.753 E97.7439
G1 X63.925 Y100.753 E100.0119
G1 X63.965 Y100.015 E100.08174
G1 X64.084 Y99.287 E100.15145
G1 X64.282 Y98.575 E100.22129
G1 X64.555 Y97.889 E100.29106
G1 X64.901 Y97.236 E100.3609
G1 X65.315 Y96.624 E100.43072
G1 X65.793 Y96.061 E100.50052
G1 X66.329 Y95.553 E100.5703
G1 X66.917 Y95.106 E100.6401
G1 X67.55 Y94.725 E100.70992
G1 X68.22 Y94.414 E100.77972
G1 X68.92 Y94.178 E100.84953
G1 X68.957 Y94.17 E100.85311
G1 X68.965 Y94.015 E100.86778
G1 X69.084 Y93.287 E100.93748
G1 X69.282 Y92.575 E101.00732
G1 X69.555 Y91.889 E101.07709
G1 X69.901 Y91.236 E101.14693
G1 X70.315 Y90.624 E101.21675
G1 X70.793 Y90.061 E101.28655
G1 X71.329 Y89.553 E101.35633
G0 F4500 X71.671 Y89.724
G1 F1800 X72.254 Y89.303 E101.42429
G1 X72.881 Y88.949 E101.49233
G1 X73.542 Y88.666 E101.56028
G1 X74.231 Y88.459 E101.62827
G1 X74.939 Y88.329 E101.69629
G1 X75.75 Y88.278 E101.77308
G1 X150.75 Y88.278 E108.86058
G1 X151.468 Y88.318 E108.92854
G1 X152.178 Y88.437 E108.99657
G1 X152.87 Y88.635 E109.06459
G1 X153.535 Y88.908 E109.13252
G1 X154.167 Y89.253 E109.20056
G1 X154.756 Y89.666 E109.26854
G1 X155.295 Y90.142 E109.3365
G1 X155.779 Y90.674 E109.40446
G1 X156.2 Y91.257 E109.47242
G1 X156.554 Y91.884 E109.54046
G1 X156.837 Y92.545 E109.60841
G1 X157.044 Y93.234 E109.6764
G1 X157.174 Y93.942 E109.74442
G1 X157.225 Y94.753 E109.82121
G1 X157.225 Y119.529 E112.16254
G1 X157.254 Y119.574 E112.1676
G1 X157.677 Y120.343 E112.25054
G1 X157.989 Y120.992 E112.31859
G1 X158.277 Y121.859 E112.40493
G1 X158.495 Y122.711 E112.48803
G1 X158.634 Y123.417 E112.55603
G1 X158.697 Y124.316 E112.6412
G1 X158.697 Y125.191 E112.72388
G1 X158.657 Y125.909 E112.79184
G1 X158.496 Y126.793 E112.87675
G1 X158.279 Y127.643 E112.95965
G1 X158.062 Y128.329 E113.02765
G1 X157.679 Y129.161 E113.1142
G1 X157.255 Y129.932 E113.19735
G1 X156.873 Y130.542 E113.26537
G1 X156.294 Y131.252 E113.35194
G1 X155.693 Y131.89 E113.43477
G1 X155.171 Y132.385 E113.50275
G1 X154.794 Y132.683 E113.54817
G1 X154.44 Y132.941 E113.58956
G1 X153.836 Y133.332 E113.65755
G1 X153.382 Y133.567 E113.70586
G1 X152.587 Y133.941 E113.78889
G1 X151.92 Y134.211 E113.85689
G1 X151.047 Y134.442 E113.94223
G1 X150.184 Y134.607 E114.02526
G1 X149.471 Y134.702 E114.09323
G1 X148.554 Y134.709 E114.17989
G1 X147.679 Y134.653 E114.26275
G1 X146.965 Y134.567 E114.33071
G1 X146.088 Y134.348 E114.41613
G1 X145.256 Y134.077 E114.49882
G1 X144.585 Y133.816 E114.56686
G1 X143.793 Y133.388 E114.65193
G1 X143.052 Y132.918 E114.73485
G1 X142.467 Y132.499 E114.80285
G1 X141.807 Y131.89 E114.88772
G1 X141.206 Y131.252 E114.97055
G1 X141.186 Y131.228 E114.9735
G1 X70.75 Y131.228 E121.6297
G1 X70.032 Y131.188 E121.69766
G1 X69.322 Y131.069 E121.76569
G1 X68.63 Y130.871 E121.83371
G1 X67.965 Y130.598 E121.90164
G1 X67.333 Y130.253 E121.96968
G1 X66.744 Y129.84 E122.03766
G1 X66.205 Y129.364 E122.10562
G1 X65.721 Y128.832 E122.17358
G1 X65.3 Y128.249 E122.24154
G1 X64.946 Y127.622 E122.30958
G1 X64.663 Y126.961 E122.37753
G1 X64.456 Y126.272 E122.44552
G1 X64.326 Y125.564 E122.51354
G1 X64.275 Y124.753 E122.59033
G1 X64.275 Y100.753 E124.85833
G1 X64.315 Y100.035 E124.92629
G1 X64.434 Y99.325 E124.99432
G1 X64.632 Y98.633 E125.06234
G1 X64.905 Y97.968 E125.13027
G1 X65.25 Y97.336 E125.19831
G1 X65.663 Y96.747 E125.26629
G1 X66.139 Y96.208 E125.33425
G1 X66.671 Y95.724 E125.40221
G1 X67.254 Y95.303 E125.47017
G1 X67.881 Y94.949 E125.53821
G1 X68.542 Y94.666 E125.60616
G1 X69.231 Y94.459 E125.67415
G1 X69.292 Y94.448 E125.68
G1 X69.315 Y94.035 E125.71909
G1 X69.434 Y93.325 E125.78712
G1 X69.632 Y92.633 E125.85514
G1 X69.905 Y91.968 E125.92307
G1 X70.25 Y91.336 E125.99112
G1 X70.663 Y90.747 E126.0591
G1 X71.139 Y90.208 E126.12705
G1 X71.671 Y89.724 E126.19502
G0 F4500 X72.012 Y89.901
G1 F1800 X72.59 Y89.506 E126.26118
G1 X73.209 Y89.18 E126.32729
G1 X73.861 Y88.926 E126.39341
G1 X74.538 Y88.749 E126.45954
G1 X75.231 Y88.65 E126.52569
G1 X75.75 Y88.628 E126.57478
G1 X150.75 Y88.628 E133.66228
G1 X151.449 Y88.668 E133.72845
G1 X152.138 Y88.787 E133.79452
G1 X152.809 Y88.985 E133.86063
G1 X153.454 Y89.257 E133.92678
G1 X154.063 Y89.601 E133.99288
G1 X154.629 Y90.013 E134.05904
G1 X155.144 Y90.486 E134.12512
G1 X155.602 Y91.015 E134.19124
G1 X155.997 Y91.593 E134.2574
G1 X156.323 Y92.212 E134.32351
G1 X156.577 Y92.864 E134.38963
G1 X156.754 Y93.541 E134.45576
G1 X156.853 Y94.234 E134.52191
G1 X156.875 Y94.753 E134.571
G1 X156.875 Y119.63 E136.92188
