;FLAVOR:UltiGCode
;TIME:3281
;MATERIAL:6020
;MATERIAL2:0
;NOZZLE_DIAMETER:0.4
;MINX:68.125
;MINY:88.625
;MINZ:0.27
;MAXX:154.875
;MAXY:134.375
;MAXZ:22.92
;Generated with Cura_SteamEngine 4.2.1
M82 ;absolute extrusion mode

G92 E0
G92 E0
G10
;LAYER_COUNT:152
;LAYER:0
M107
G0 F4500 X71.149 Y90.296 Z0.27
;TYPE:SKIRT
G11
G1 F1800 X71.798 Y89.84 E0.07496
G1 X72.49 Y89.451 E0.14997
G1 X73.217 Y89.133 E0.22496
G1 X73.973 Y88.89 E0.3
G1 X74.749 Y88.725 E0.37497
G1 X75.537 Y88.639 E0.44988
G1 X76 Y88.625 E0.49366
G1 X147 Y88.625 E7.20316
G1 X147.792 Y88.665 E7.27809
G1 X148.577 Y88.784 E7.35312
G1 X149.345 Y88.982 E7.42807
G1 X150.09 Y89.257 E7.50312
G1 X150.803 Y89.604 E7.57805
G1 X151.478 Y90.022 E7.65308
G1 X152.107 Y90.505 E7.72802
G1 X152.684 Y91.05 E7.80303
G1 X153.204 Y91.649 E7.87799
G1 X153.66 Y92.298 E7.95294
G1 X154.049 Y92.99 E8.02796
G1 X154.367 Y93.717 E8.10295
G1 X154.61 Y94.473 E8.17799
G1 X154.775 Y95.249 E8.25296
G1 X154.861 Y96.037 E8.32787
G1 X154.875 Y96.5 E8.37164
G1 X154.875 Y126.5 E11.20664
G1 X154.835 Y127.292 E11.28158
G1 X154.716 Y128.077 E11.35661
G1 X154.518 Y128.845 E11.43156
G1 X154.243 Y129.59 E11.50661
G1 X153.896 Y130.303 E11.58154
G1 X153.478 Y130.978 E11.65657
G1 X152.995 Y131.607 E11.73151
G1 X152.45 Y132.184 E11.80652
G1 X151.851 Y132.704 E11.88148
G1 X151.202 Y133.16 E11.95643
G1 X150.51 Y133.549 E12.03145
G1 X149.783 Y133.867 E12.10644
G1 X149.027 Y134.11 E12.18148
G1 X148.251 Y134.275 E12.25645
G1 X147.463 Y134.361 E12.33136
G1 X147 Y134.375 E12.37513
G1 X76 Y134.375 E19.08463
G1 X75.208 Y134.335 E19.15957
G1 X74.423 Y134.216 E19.2346
G1 X73.655 Y134.018 E19.30955
G1 X72.91 Y133.743 E19.3846
G1 X72.197 Y133.396 E19.45953
G1 X71.522 Y132.978 E19.53456
G1 X70.893 Y132.495 E19.6095
G1 X70.316 Y131.95 E19.68451
G1 X69.796 Y131.351 E19.75947
G1 X69.34 Y130.702 E19.83442
G1 X68.951 Y130.01 E19.90944
G1 X68.633 Y129.283 E19.98443
G1 X68.39 Y128.527 E20.05947
G1 X68.225 Y127.751 E20.13444
G1 X68.139 Y126.963 E20.20935
G1 X68.125 Y126.5 E20.25312
G1 X68.125 Y96.5 E23.08812
G1 X68.165 Y95.708 E23.16306
G1 X68.284 Y94.923 E23.23809
G1 X68.482 Y94.155 E23.31304
G1 X68.757 Y93.41 E23.38808
G1 X69.104 Y92.697 E23.46302
G1 X69.522 Y92.022 E23.53805
G1 X70.005 Y91.393 E23.61299
G1 X70.55 Y90.816 E23.68799
G1 X71.149 Y90.296 E23.76295
G0 F4500 X71.49 Y90.476
G1 F1800 X72.134 Y90.044 E23.83624
G1 X72.819 Y89.681 E23.9095
G1 X73.538 Y89.389 E23.98283
G1 X74.283 Y89.174 E24.05611
G1 X75.046 Y89.036 E24.12938
G1 X76 Y88.975 E24.21972
G1 X147 Y88.975 E30.92922
G1 X147.775 Y89.015 E31.00255
G1 X148.541 Y89.134 E31.07581
G1 X149.291 Y89.332 E31.14911
G1 X150.017 Y89.606 E31.22244
G1 X150.71 Y89.953 E31.29568
G1 X151.364 Y90.37 E31.36898
G1 X151.972 Y90.852 E31.4423
G1 X152.527 Y91.394 E31.51561
G1 X153.024 Y91.99 E31.58894
G1 X153.456 Y92.634 E31.66222
G1 X153.819 Y93.319 E31.73548
G1 X154.111 Y94.038 E31.80882
G1 X154.326 Y94.783 E31.8821
G1 X154.464 Y95.546 E31.95537
G1 X154.525 Y96.5 E32.04571
G1 X154.525 Y126.5 E34.88071
G1 X154.485 Y127.275 E34.95404
G1 X154.366 Y128.041 E35.0273
G1 X154.168 Y128.791 E35.1006
G1 X153.894 Y129.517 E35.17393
G1 X153.547 Y130.21 E35.24717
G1 X153.13 Y130.864 E35.32047
G1 X152.648 Y131.472 E35.39379
G1 X152.106 Y132.027 E35.4671
G1 X151.51 Y132.524 E35.54043
G1 X150.866 Y132.956 E35.61371
G1 X150.181 Y133.319 E35.68697
G1 X149.462 Y133.611 E35.76031
G1 X148.717 Y133.826 E35.83358
G1 X147.954 Y133.964 E35.90686
G1 X147 Y134.025 E35.99719
G1 X76 Y134.025 E42.70669
G1 X75.225 Y133.985 E42.78003
G1 X74.459 Y133.866 E42.85328
G1 X73.709 Y133.668 E42.92659
G1 X72.983 Y133.394 E42.99992
G1 X72.29 Y133.047 E43.07316
G1 X71.636 Y132.63 E43.14645
G1 X71.028 Y132.148 E43.21978
G1 X70.473 Y131.606 E43.29308
G1 X69.976 Y131.01 E43.36642
G1 X69.544 Y130.366 E43.4397
G1 X69.181 Y129.681 E43.51296
G1 X68.889 Y128.962 E43.5863
G1 X68.674 Y128.217 E43.65957
G1 X68.536 Y127.454 E43.73284
G1 X68.475 Y126.5 E43.82318
G1 X68.475 Y96.5 E46.65818
G1 X68.515 Y95.725 E46.73152
G1 X68.634 Y94.959 E46.80477
G1 X68.832 Y94.209 E46.87808
G1 X69.106 Y93.483 E46.95141
G1 X69.453 Y92.79 E47.02465
G1 X69.87 Y92.136 E47.09794
G1 X70.352 Y91.528 E47.17126
G1 X70.894 Y90.973 E47.24457
G1 X71.49 Y90.476 E47.31791
G0 F4500 X71.829 Y90.662
G1 F1800 X72.468 Y90.255 E47.3895
G1 X73.146 Y89.917 E47.46109
G1 X73.855 Y89.653 E47.53259
G1 X74.589 Y89.465 E47.60419
G1 X75.338 Y89.356 E47.67571
G1 X76 Y89.325 E47.73834
G1 X147 Y89.325 E54.44784
G1 X147.756 Y89.365 E54.51938
G1 X148.504 Y89.484 E54.59096
G1 X149.235 Y89.682 E54.66253
G1 X149.942 Y89.956 E54.73418
G1 X150.615 Y90.302 E54.80569
G1 X151.248 Y90.718 E54.87727
G1 X151.834 Y91.198 E54.94886
G1 X152.366 Y91.737 E55.02042
G1 X152.838 Y92.329 E55.09197
G1 X153.245 Y92.968 E55.16357
G1 X153.583 Y93.646 E55.23516
G1 X153.847 Y94.355 E55.30665
G1 X154.035 Y95.089 E55.37825
G1 X154.144 Y95.838 E55.44978
G1 X154.175 Y96.5 E55.51241
G1 X154.175 Y126.5 E58.34741
G1 X154.135 Y127.256 E58.41895
G1 X154.016 Y128.004 E58.49052
G1 X153.818 Y128.735 E58.56209
G1 X153.544 Y129.442 E58.63375
G1 X153.198 Y130.115 E58.70526
G1 X152.782 Y130.748 E58.77684
G1 X152.302 Y131.334 E58.84842
G1 X151.763 Y131.866 E58.91999
G1 X151.171 Y132.338 E58.99154
G1 X150.532 Y132.745 E59.06313
G1 X149.854 Y133.083 E59.13472
G1 X149.145 Y133.347 E59.20622
G1 X148.411 Y133.535 E59.27782
G1 X147.662 Y133.644 E59.34935
G1 X147 Y133.675 E59.41197
G1 X76 Y133.675 E66.12147
G1 X75.244 Y133.635 E66.19301
G1 X74.496 Y133.516 E66.26459
G1 X73.765 Y133.318 E66.33616
G1 X73.058 Y133.044 E66.40781
G1 X72.385 Y132.698 E66.47932
G1 X71.752 Y132.282 E66.5509
G1 X71.166 Y131.802 E66.62249
G1 X70.634 Y131.263 E66.69405
G1 X70.162 Y130.671 E66.7656
G1 X69.755 Y130.032 E66.8372
G1 X69.417 Y129.354 E66.90879
G1 X69.153 Y128.645 E66.98028
G1 X68.965 Y127.911 E67.05188
G1 X68.856 Y127.162 E67.12341
G1 X68.825 Y126.5 E67.18604
G1 X68.825 Y96.5 E70.02104
G1 X68.865 Y95.744 E70.09258
G1 X68.984 Y94.996 E70.16415
G1 X69.182 Y94.265 E70.23572
G1 X69.456 Y93.558 E70.30738
G1 X69.802 Y92.885 E70.37889
G1 X70.218 Y92.252 E70.45047
G1 X70.698 Y91.666 E70.52205
G1 X71.237 Y91.134 E70.59362
G1 X71.829 Y90.662 E70.66517
G0 F4500 X71.579 Y91.3
G1 F1800 X72.167 Y90.853 E70.73497
G1 X72.8 Y90.472 E70.80479
G1 X73.47 Y90.161 E70.87459
G1 X74.17 Y89.925 E70.9444
G1 X74.891 Y89.766 E71.01417
G1 X75.626 Y89.685 E71.08405
G1 X76 Y89.675 E71.1194
G1 X147 Y89.675 E77.8289
G1 X147.738 Y89.715 E77.89875
G1 X148.466 Y89.834 E77.96845
G1 X149.178 Y90.032 E78.03829
G1 X149.864 Y90.305 E78.10806
G1 X150.517 Y90.651 E78.1779
G1 X151.129 Y91.065 E78.24772
G1 X151.692 Y91.543 E78.31752
G1 X152.2 Y92.079 E78.3873
G1 X152.647 Y92.667 E78.4571
G1 X153.028 Y93.3 E78.52692
G1 X153.339 Y93.97 E78.59672
G1 X153.575 Y94.67 E78.66653
G1 X153.734 Y95.391 E78.7363
G1 X153.815 Y96.126 E78.80618
G1 X153.825 Y96.5 E78.84154
G1 X153.825 Y126.5 E81.67654
G1 X153.785 Y127.238 E81.74638
G1 X153.666 Y127.966 E81.81609
G1 X153.468 Y128.678 E81.88593
G1 X153.195 Y129.364 E81.9557
G1 X152.849 Y130.017 E82.02553
G1 X152.435 Y130.629 E82.09536
G1 X151.957 Y131.192 E82.16515
G1 X151.421 Y131.7 E82.23494
G1 X150.833 Y132.147 E82.30474
G1 X150.2 Y132.528 E82.37456
G1 X149.53 Y132.839 E82.44436
G1 X148.83 Y133.075 E82.51417
G1 X148.109 Y133.234 E82.58394
G1 X147.374 Y133.315 E82.65382
G1 X147 Y133.325 E82.68917
G1 X76 Y133.325 E89.39867
G1 X75.262 Y133.285 E89.46852
G1 X74.534 Y133.166 E89.53822
G1 X73.822 Y132.968 E89.60806
G1 X73.136 Y132.695 E89.67783
G1 X72.483 Y132.349 E89.74767
G1 X71.871 Y131.935 E89.81749
G1 X71.308 Y131.457 E89.88729
G1 X70.8 Y130.921 E89.95707
G1 X70.353 Y130.333 E90.02687
G1 X69.972 Y129.7 E90.09669
G1 X69.661 Y129.03 E90.16649
G1 X69.425 Y128.33 E90.2363
G1 X69.266 Y127.609 E90.30607
G1 X69.185 Y126.874 E90.37595
G1 X69.175 Y126.5 E90.41131
G1 X69.175 Y96.5 E93.24631
G1 X69.215 Y95.762 E93.31615
G1 X69.334 Y95.034 E93.38586
G1 X69.532 Y94.322 E93.4557
G1 X69.805 Y93.636 E93.52547
G1 X70.151 Y92.983 E93.5953
G1 X70.565 Y92.371 E93.66513
G1 X71.043 Y91.808 E93.73492
G1 X71.579 Y91.3 E93.80471
G0 F4500 X71.921 Y91.471
G1 F1800 X72.504 Y91.05 E93.87266
G1 X73.131 Y90.696 E93.94071
G1 X73.792 Y90.413 E94.00866
G1 X74.481 Y90.206 E94.07664
G1 X75.189 Y90.076 E94.14467
G1 X76 Y90.025 E94.22146
G1 X147 Y90.025 E100.93096
G1 X147.718 Y90.065 E100.99891
G1 X148.428 Y90.184 E101.06694
G1 X149.12 Y90.382 E101.13496
G1 X149.785 Y90.655 E101.20289
G1 X150.417 Y91 E101.27094
G1 X151.006 Y91.413 E101.33892
G1 X151.545 Y91.889 E101.40687
G1 X152.029 Y92.421 E101.47484
G1 X152.45 Y93.004 E101.5428
G1 X152.804 Y93.631 E101.61084
G1 X153.087 Y94.292 E101.67879
G1 X153.294 Y94.981 E101.74677
G1 X153.424 Y95.689 E101.8148
G1 X153.475 Y96.5 E101.89159
G1 X153.475 Y126.5 E104.72659
G1 X153.435 Y127.218 E104.79454
G1 X153.316 Y127.928 E104.86258
G1 X153.118 Y128.62 E104.93059
G1 X152.845 Y129.285 E104.99853
G1 X152.5 Y129.917 E105.06657
G1 X152.087 Y130.506 E105.13455
G1 X151.611 Y131.045 E105.2025
G1 X151.079 Y131.529 E105.27047
G1 X150.496 Y131.95 E105.33843
G1 X149.869 Y132.304 E105.40647
G1 X149.208 Y132.587 E105.47442
G1 X148.519 Y132.794 E105.5424
G1 X147.811 Y132.924 E105.61043
G1 X147 Y132.975 E105.68722
G1 X76 Y132.975 E112.39672
G1 X75.282 Y132.935 E112.46468
G1 X74.572 Y132.816 E112.53271
G1 X73.88 Y132.618 E112.60072
G1 X73.215 Y132.345 E112.66866
G1 X72.583 Y132 E112.7367
G1 X71.994 Y131.587 E112.80468
G1 X71.455 Y131.111 E112.87263
G1 X70.971 Y130.579 E112.9406
G1 X70.55 Y129.996 E113.00856
G1 X70.196 Y129.369 E113.0766
G1 X69.913 Y128.708 E113.14455
G1 X69.706 Y128.019 E113.21253
G1 X69.576 Y127.311 E113.28056
G1 X69.525 Y126.5 E113.35735
G1 X69.525 Y96.5 E116.19235
G1 X69.565 Y95.782 E116.26031
G1 X69.684 Y95.072 E116.32834
G1 X69.882 Y94.38 E116.39636
G1 X70.155 Y93.715 E116.46429
G1 X70.5 Y93.083 E116.53233
G1 X70.913 Y92.494 E116.60031
G1 X71.389 Y91.955 E116.66826
G1 X71.921 Y91.471 E116.73623
G0 F4500 X72.262 Y91.648
G1 F1800 X72.84 Y91.253 E116.80239
G1 X73.459 Y90.927 E116.8685
G1 X74.111 Y90.673 E116.93462
G1 X74.788 Y90.496 E117.00075
G1 X75.481 Y90.397 E117.06691
G1 X76 Y90.375 E117.11599
G1 X147 Y90.375 E123.82549
G1 X147.699 Y90.415 E123.89166
G1 X148.388 Y90.534 E123.95773
G1 X149.059 Y90.732 E124.02385
G1 X149.704 Y91.004 E124.09
G1 X150.313 Y91.348 E124.15609
G1 X150.879 Y91.76 E124.22225
G1 X151.394 Y92.233 E124.28833
G1 X151.852 Y92.762 E124.35445
G1 X152.247 Y93.34 E124.42061
G1 X152.573 Y93.959 E124.48672
G1 X152.827 Y94.611 E124.55285
G1 X153.004 Y95.288 E124.61897
G1 X153.103 Y95.981 E124.68513
G1 X153.125 Y96.5 E124.73422
G1 X153.125 Y126.5 E127.56922
G1 X153.085 Y127.199 E127.63538
G1 X152.966 Y127.888 E127.70145
G1 X152.768 Y128.559 E127.76757
G1 X152.496 Y129.204 E127.83372
G1 X152.152 Y129.813 E127.89981
G1 X151.74 Y130.379 E127.96597
G1 X151.267 Y130.894 E128.03205
G1 X150.738 Y131.352 E128.09817
G1 X150.16 Y131.747 E128.16433
G1 X149.541 Y132.073 E128.23044
G1 X148.889 Y132.327 E128.29657
G1 X148.212 Y132.504 E128.36269
G1 X147.519 Y132.603 E128.42885
G1 X147 Y132.625 E128.47794
G1 X76 Y132.625 E135.18744
G1 X75.301 Y132.585 E135.2536
G1 X74.612 Y132.466 E135.31968
G1 X73.941 Y132.268 E135.38579
G1 X73.296 Y131.996 E135.45194
G1 X72.687 Y131.652 E135.51804
G1 X72.121 Y131.24 E135.58419
G1 X71.606 Y130.767 E135.65027
G1 X71.148 Y130.238 E135.7164
G1 X70.753 Y129.66 E135.78255
G1 X70.427 Y129.041 E135.84866
G1 X70.173 Y128.389 E135.91479
G1 X69.996 Y127.712 E135.98092
G1 X69.897 Y127.019 E136.04707
G1 X69.875 Y126.5 E136.09616
G1 X69.875 Y96.5 E138.93116
G1 X69.915 Y95.801 E138.99732
G1 X70.034 Y95.112 E139.0634
G1 X70.232 Y94.441 E139.12951
G1 X70.504 Y93.796 E139.19566
G1 X70.848 Y93.187 E139.26176
G1 X71.26 Y92.621 E139.32791
G1 X71.733 Y92.106 E139.39399
G1 X72.262 Y91.648 E139.46012
G0 F4500 X72.602 Y91.831
G1 F1800 X73.174 Y91.464 E139.52434
G1 X73.785 Y91.167 E139.58854
G1 X74.427 Y90.943 E139.6528
G1 X75.09 Y90.797 E139.71695
G1 X76 Y90.725 E139.80321
G1 X147 Y90.725 E146.51271
G1 X147.678 Y90.765 E146.5769
G1 X148.347 Y90.884 E146.64111
G1 X148.997 Y91.081 E146.70529
G1 X149.62 Y91.353 E146.76953
G1 X150.206 Y91.697 E146.83375
G1 X150.748 Y92.107 E146.89797
G1 X151.238 Y92.577 E146.96213
G1 X151.669 Y93.102 E147.02632
G1 X152.036 Y93.674 E147.09054
G1 X152.333 Y94.285 E147.15474
G1 X152.557 Y94.927 E147.219
G1 X152.703 Y95.59 E147.28315
G1 X152.775 Y96.5 E147.36942
G1 X152.775 Y126.5 E150.20442
G1 X152.735 Y127.178 E150.2686
G1 X152.616 Y127.847 E150.33281
G1 X152.419 Y128.497 E150.397
G1 X152.147 Y129.12 E150.46124
G1 X151.803 Y129.706 E150.52545
G1 X151.393 Y130.248 E150.58967
G1 X150.923 Y130.738 E150.65384
G1 X150.398 Y131.169 E150.71803
G1 X149.826 Y131.536 E150.78225
G1 X149.215 Y131.833 E150.84645
G1 X148.573 Y132.057 E150.91071
G1 X147.91 Y132.203 E150.97486
G1 X147 Y132.275 E151.06112
G1 X76 Y132.275 E157.77062
G1 X75.322 Y132.235 E157.83481
G1 X74.653 Y132.116 E157.89902
G1 X74.003 Y131.919 E157.9632
G1 X73.38 Y131.647 E158.02744
G1 X72.794 Y131.303 E158.09166
G1 X72.252 Y130.893 E158.15588
G1 X71.762 Y130.423 E158.22004
G1 X71.331 Y129.898 E158.28423
G1 X70.964 Y129.326 E158.34845
G1 X70.667 Y128.715 E158.41265
G1 X70.443 Y128.073 E158.47691
G1 X70.297 Y127.41 E158.54106
G1 X70.225 Y126.5 E158.62733
G1 X70.225 Y96.5 E161.46233
G1 X70.265 Y95.822 E161.52651
G1 X70.384 Y95.153 E161.59072
G1 X70.581 Y94.503 E161.65491
G1 X70.853 Y93.88 E161.71915
G1 X71.197 Y93.294 E161.78336
G1 X71.607 Y92.752 E161.84758
G1 X72.077 Y92.262 E161.91175
G1 X72.602 Y91.831 E161.97594
G0 F4500 X72.42 Y92.424
G1 F1800 X72.941 Y92.02 E162.03824
G1 X73.506 Y91.682 E162.10046
G1 X74.108 Y91.416 E162.16265
G1 X74.738 Y91.224 E162.22489
G1 X75.386 Y91.11 E162.28707
G1 X76 Y91.075 E162.34518
G1 X147 Y91.075 E169.05468
G1 X147.657 Y91.115 E169.11688
G1 X148.305 Y91.234 E169.17914
G1 X148.933 Y91.431 E169.24134
G1 X149.533 Y91.703 E169.3036
G1 X150.096 Y92.045 E169.36585
G1 X150.613 Y92.453 E169.42808
G1 X151.076 Y92.92 E169.49023
G1 X151.48 Y93.441 E169.55253
G1 X151.818 Y94.006 E169.61475
G1 X152.084 Y94.608 E169.67694
G1 X152.276 Y95.238 E169.73918
G1 X152.39 Y95.886 E169.80136
G1 X152.425 Y96.5 E169.85948
G1 X152.425 Y126.5 E172.69448
G1 X152.385 Y127.157 E172.75668
G1 X152.266 Y127.805 E172.81894
G1 X152.069 Y128.433 E172.88114
G1 X151.797 Y129.033 E172.94339
G1 X151.455 Y129.596 E173.00564
G1 X151.047 Y130.113 E173.06788
G1 X150.58 Y130.576 E173.13002
G1 X150.059 Y130.98 E173.19232
G1 X149.494 Y131.318 E173.25454
G1 X148.892 Y131.584 E173.31674
G1 X148.262 Y131.776 E173.37898
G1 X147.614 Y131.89 E173.44115
G1 X147 Y131.925 E173.49927
G1 X76 Y131.925 E180.20877
G1 X75.343 Y131.885 E180.27097
G1 X74.695 Y131.766 E180.33323
G1 X74.067 Y131.569 E180.39543
G1 X73.467 Y131.297 E180.45768
G1 X72.904 Y130.955 E180.51993
G1 X72.387 Y130.547 E180.58217
G1 X71.924 Y130.08 E180.64431
G1 X71.52 Y129.559 E180.70662
G1 X71.182 Y128.994 E180.76883
G1 X70.916 Y128.392 E180.83103
G1 X70.724 Y127.762 E180.89327
G1 X70.61 Y127.114 E180.95544
G1 X70.575 Y126.5 E181.01356
G1 X70.575 Y96.5 E183.84856
G1 X70.615 Y95.843 E183.91076
G1 X70.734 Y95.195 E183.97302
G1 X70.931 Y94.567 E184.03522
G1 X71.203 Y93.967 E184.09747
G1 X71.545 Y93.404 E184.15973
G1 X71.953 Y92.887 E184.22196
G1 X72.42 Y92.424 E184.28411
G0 F4500 X72.763 Y92.592
G1 F1800 X73.278 Y92.217 E184.34431
G1 X73.835 Y91.91 E184.40441
G1 X74.427 Y91.675 E184.4646
G1 X75.044 Y91.516 E184.52481
G1 X75.676 Y91.435 E184.58503
G1 X76 Y91.425 E184.61566
G1 X147 Y91.425 E191.32516
G1 X147.636 Y91.465 E191.38538
G1 X148.261 Y91.584 E191.4455
G1 X148.867 Y91.781 E191.50572
G1 X149.443 Y92.052 E191.56588
G1 X149.981 Y92.393 E191.62607
G1 X150.472 Y92.799 E191.68628
G1 X150.908 Y93.263 E191.74645
G1 X151.283 Y93.778 E191.80665
G1 X151.59 Y94.335 E191.86675
G1 X151.825 Y94.927 E191.92694
G1 X151.984 Y95.544 E191.98715
G1 X152.065 Y96.176 E192.04736
G1 X152.075 Y96.5 E192.078
G1 X152.075 Y126.5 E194.913
G1 X152.035 Y127.136 E194.97322
G1 X151.916 Y127.761 E195.03334
G1 X151.719 Y128.367 E195.09356
G1 X151.448 Y128.943 E195.15371
G1 X151.107 Y129.481 E195.21391
