;FLAVOR:UltiGCode
;TIME:3695
;MATERIAL:6538
;MATERIAL2:0
;NOZZLE_DIAMETER:0.4
;MINX:62.875
;MINY:86.878
;MINZ:0.27
;MAXX:160.109
;MAXY:136.122
;MAXZ:10.92
;Generated with Cura_SteamEngine 4.2.1
M82 ;absolute extrusion mode

G92 E0
G92 E0
G10
;LAYER_COUNT:72
;LAYER:0
M107
G0 F4500 X70.899 Y88.549 Z0.27
;TYPE:SKIRT
G11
G1 F1800 X71.548 Y88.093 E0.07496
G1 X72.24 Y87.704 E0.14997
G1 X72.967 Y87.386 E0.22496
G1 X73.723 Y87.143 E0.3
G1 X74.499 Y86.978 E0.37497
G1 X75.287 Y86.892 E0.44988
G1 X75.75 Y86.878 E0.49366
G1 X150.75 Y86.878 E7.58116
G1 X151.542 Y86.918 E7.65609
G1 X152.327 Y87.037 E7.73112
G1 X153.095 Y87.235 E7.80607
G1 X153.84 Y87.51 E7.88112
G1 X154.553 Y87.857 E7.95605
G1 X155.228 Y88.275 E8.03108
G1 X155.857 Y88.758 E8.10602
G1 X156.434 Y89.303 E8.18103
G1 X156.954 Y89.902 E8.25599
G1 X157.41 Y90.551 E8.33094
G1 X157.799 Y91.243 E8.40596
G1 X158.117 Y91.97 E8.48095
G1 X158.36 Y92.726 E8.55599
G1 X158.525 Y93.502 E8.63096
G1 X158.611 Y94.29 E8.70587
G1 X158.625 Y94.753 E8.74964
G1 X158.625 Y119.136 E11.05384
G1 X158.946 Y119.72 E11.11681
G1 X159.132 Y120.116 E11.15816
G1 X159.498 Y121.044 E11.25243
G1 X159.633 Y121.462 E11.29394
G1 X159.874 Y122.403 E11.38573
G1 X159.957 Y122.837 E11.42749
G1 X160.081 Y123.811 E11.52027
G1 X160.109 Y124.247 E11.56156
G1 X160.109 Y125.253 E11.65663
G1 X160.081 Y125.692 E11.6982
G1 X159.957 Y126.67 E11.79136
G1 X159.874 Y127.104 E11.83311
G1 X159.635 Y128.039 E11.92431
G1 X159.501 Y128.455 E11.96561
G1 X159.132 Y129.39 E12.0606
G1 X158.945 Y129.788 E12.10216
G1 X158.465 Y130.662 E12.19639
G1 X158.228 Y131.035 E12.23815
G1 X157.583 Y131.911 E12.34095
G1 X157.278 Y132.27 E12.38547
G1 X156.635 Y132.941 E12.47329
G1 X156.312 Y133.241 E12.51495
G1 X155.515 Y133.89 E12.61208
G1 X155.159 Y134.143 E12.65335
G1 X154.311 Y134.668 E12.7476
G1 X153.924 Y134.875 E12.78908
G1 X153.045 Y135.278 E12.88045
G1 X152.633 Y135.437 E12.92219
G1 X151.691 Y135.734 E13.01553
G1 X151.267 Y135.839 E13.0568
G1 X150.3 Y136.015 E13.14969
G1 X149.861 Y136.067 E13.19146
G1 X148.863 Y136.122 E13.28592
G1 X148.426 Y136.118 E13.32722
G1 X147.429 Y136.045 E13.42168
G1 X146.991 Y135.985 E13.46346
G1 X146.035 Y135.793 E13.55561
G1 X145.614 Y135.681 E13.59678
G1 X144.653 Y135.358 E13.69258
G1 X144.243 Y135.19 E13.73445
G1 X143.378 Y134.772 E13.82524
G1 X142.998 Y134.559 E13.86641
G1 X142.156 Y134.014 E13.96119
G1 X141.803 Y133.752 E14.00273
G1 X141.19 Y133.247 E14.07779
G1 X140.756 Y132.819 E14.13539
G1 X140.577 Y132.628 E14.16013
G1 X70.75 Y132.628 E20.75878
G1 X69.958 Y132.588 E20.83372
G1 X69.173 Y132.469 E20.90875
G1 X68.405 Y132.271 E20.9837
G1 X67.66 Y131.996 E21.05874
G1 X66.947 Y131.649 E21.13368
G1 X66.272 Y131.231 E21.2087
G1 X65.643 Y130.748 E21.28365
G1 X65.066 Y130.203 E21.35865
G1 X64.546 Y129.604 E21.43361
G1 X64.09 Y128.955 E21.50857
G1 X63.701 Y128.263 E21.58358
G1 X63.383 Y127.536 E21.65857
G1 X63.14 Y126.78 E21.73361
G1 X62.975 Y126.004 E21.80858
G1 X62.889 Y125.216 E21.88349
G1 X62.875 Y124.753 E21.92727
G1 X62.875 Y100.753 E24.19527
G1 X62.915 Y99.961 E24.2702
G1 X63.034 Y99.176 E24.34523
G1 X63.232 Y98.408 E24.42018
G1 X63.507 Y97.663 E24.49523
G1 X63.854 Y96.95 E24.57016
G1 X64.272 Y96.275 E24.64519
G1 X64.755 Y95.646 E24.72013
G1 X65.3 Y95.069 E24.79514
G1 X65.899 Y94.549 E24.8701
G1 X66.548 Y94.093 E24.94505
G1 X67.24 Y93.704 E25.02007
G1 X67.967 Y93.386 E25.09506
G1 X68.004 Y93.374 E25.09873
G1 X68.034 Y93.176 E25.11766
G1 X68.232 Y92.408 E25.19261
G1 X68.507 Y91.663 E25.26765
G1 X68.854 Y90.95 E25.34259
G1 X69.272 Y90.275 E25.41762
G1 X69.755 Y89.646 E25.49256
G1 X70.3 Y89.069 E25.56756
G1 X70.899 Y88.549 E25.64252
G0 F4500 X71.24 Y88.729
G1 F1800 X71.884 Y88.297 E25.71581
G1 X72.569 Y87.934 E25.78907
G1 X73.288 Y87.642 E25.8624
G1 X74.033 Y87.427 E25.93568
G1 X74.796 Y87.289 E26.00895
G1 X75.75 Y87.228 E26.09929
G1 X150.75 Y87.228 E33.18679
G1 X151.525 Y87.268 E33.26012
G1 X152.291 Y87.387 E33.33338
G1 X153.041 Y87.585 E33.40668
G1 X153.767 Y87.859 E33.48001
G1 X154.46 Y88.206 E33.55325
G1 X155.114 Y88.623 E33.62655
G1 X155.722 Y89.105 E33.69987
G1 X156.277 Y89.647 E33.77318
G1 X156.774 Y90.243 E33.84651
G1 X157.206 Y90.887 E33.91979
G1 X157.569 Y91.572 E33.99305
G1 X157.861 Y92.291 E34.06639
G1 X158.076 Y93.036 E34.13966
G1 X158.214 Y93.799 E34.21294
G1 X158.275 Y94.753 E34.30327
G1 X158.275 Y119.225 E36.61588
G1 X158.629 Y119.869 E36.68533
G1 X158.815 Y120.265 E36.72667
G1 X159.165 Y121.151 E36.81669
G1 X159.3 Y121.569 E36.8582
G1 X159.53 Y122.469 E36.94599
G1 X159.613 Y122.903 E36.98774
G1 X159.732 Y123.834 E37.07644
G1 X159.76 Y124.27 E37.11772
G1 X159.76 Y125.231 E37.20854
G1 X159.732 Y125.67 E37.25011
G1 X159.613 Y126.604 E37.33909
G1 X159.53 Y127.038 E37.38084
G1 X159.302 Y127.932 E37.46803
G1 X159.168 Y128.348 E37.50933
G1 X158.816 Y129.241 E37.60004
G1 X158.629 Y129.639 E37.64159
G1 X158.169 Y130.475 E37.73177
G1 X157.932 Y130.848 E37.77353
G1 X157.316 Y131.684 E37.87166
G1 X157.011 Y132.043 E37.91618
G1 X156.397 Y132.685 E38.00012
G1 X156.074 Y132.985 E38.04178
G1 X155.312 Y133.605 E38.13462
G1 X154.956 Y133.858 E38.17589
G1 X154.146 Y134.359 E38.26589
G1 X153.759 Y134.566 E38.30737
G1 X152.919 Y134.951 E38.39469
G1 X152.507 Y135.11 E38.43642
G1 X151.607 Y135.394 E38.5256
G1 X151.183 Y135.499 E38.56688
G1 X150.259 Y135.668 E38.65565
G1 X149.82 Y135.72 E38.69742
G1 X148.866 Y135.772 E38.78771
G1 X148.429 Y135.768 E38.82901
G1 X147.477 Y135.698 E38.91922
G1 X147.039 Y135.638 E38.96099
G1 X146.125 Y135.455 E39.04908
G1 X145.704 Y135.343 E39.09025
G1 X144.786 Y135.034 E39.18178
G1 X144.376 Y134.866 E39.22365
G1 X143.55 Y134.467 E39.31034
G1 X143.17 Y134.254 E39.35151
G1 X142.364 Y133.733 E39.4422
G1 X142.011 Y133.471 E39.48374
G1 X141.413 Y132.977 E39.55704
G1 X141.011 Y132.58 E39.61044
G1 X140.727 Y132.278 E39.64961
G1 X70.75 Y132.278 E46.26244
G1 X69.975 Y132.238 E46.33577
G1 X69.209 Y132.119 E46.40903
G1 X68.459 Y131.921 E46.48233
G1 X67.733 Y131.647 E46.55566
G1 X67.04 Y131.3 E46.6289
G1 X66.386 Y130.883 E46.7022
G1 X65.778 Y130.401 E46.77552
G1 X65.223 Y129.859 E46.84883
G1 X64.726 Y129.263 E46.92216
G1 X64.294 Y128.619 E46.99544
G1 X63.931 Y127.934 E47.0687
G1 X63.639 Y127.215 E47.14204
G1 X63.424 Y126.47 E47.21532
G1 X63.286 Y125.707 E47.28859
G1 X63.225 Y124.753 E47.37893
G1 X63.225 Y100.753 E49.64693
G1 X63.265 Y99.978 E49.72026
G1 X63.384 Y99.212 E49.79352
G1 X63.582 Y98.462 E49.86682
G1 X63.856 Y97.736 E49.94015
G1 X64.203 Y97.043 E50.01339
G1 X64.62 Y96.389 E50.08669
G1 X65.102 Y95.781 E50.16001
G1 X65.644 Y95.226 E50.23332
G1 X66.24 Y94.729 E50.30665
G1 X66.884 Y94.297 E50.37993
G1 X67.569 Y93.934 E50.45319
G1 X68.288 Y93.642 E50.52653
G1 X68.319 Y93.633 E50.52958
G1 X68.384 Y93.212 E50.56983
G1 X68.582 Y92.462 E50.64314
G1 X68.856 Y91.736 E50.71647
G1 X69.203 Y91.043 E50.78971
G1 X69.62 Y90.389 E50.863
G1 X70.102 Y89.781 E50.93633
G1 X70.644 Y89.226 E51.00963
G1 X71.24 Y88.729 E51.08297
G0 F4500 X71.579 Y88.915
G1 F1800 X72.218 Y88.508 E51.15456
G1 X72.896 Y88.17 E51.22615
G1 X73.605 Y87.906 E51.29765
G1 X74.339 Y87.718 E51.36925
G1 X75.088 Y87.609 E51.44078
G1 X75.75 Y87.578 E51.5034
G1 X150.75 Y87.578 E58.5909
G1 X151.506 Y87.618 E58.66245
G1 X152.254 Y87.737 E58.73402
G1 X152.985 Y87.935 E58.80559
G1 X153.692 Y88.209 E58.87724
G1 X154.365 Y88.555 E58.94875
G1 X154.998 Y88.971 E59.02033
G1 X155.584 Y89.451 E59.09192
G1 X156.116 Y89.99 E59.16348
G1 X156.588 Y90.582 E59.23503
G1 X156.995 Y91.221 E59.30663
G1 X157.333 Y91.899 E59.37822
G1 X157.597 Y92.608 E59.44971
G1 X157.785 Y93.342 E59.52132
G1 X157.894 Y94.091 E59.59284
G1 X157.925 Y94.753 E59.65547
G1 X157.925 Y119.313 E61.97639
G1 X158.312 Y120.018 E62.05239
G1 X158.498 Y120.414 E62.09373
G1 X158.832 Y121.259 E62.1796
G1 X158.967 Y121.677 E62.22111
G1 X159.186 Y122.534 E62.3047
G1 X159.269 Y122.968 E62.34645
G1 X159.382 Y123.856 E62.43105
G1 X159.41 Y124.292 E62.47233
G1 X159.41 Y125.209 E62.55899
G1 X159.382 Y125.648 E62.60056
G1 X159.269 Y126.539 E62.68543
G1 X159.186 Y126.973 E62.72719
G1 X158.968 Y127.825 E62.8103
G1 X158.834 Y128.241 E62.8516
G1 X158.499 Y129.092 E62.93802
G1 X158.312 Y129.49 E62.97958
G1 X157.874 Y130.287 E63.06552
G1 X157.637 Y130.66 E63.10728
G1 X157.049 Y131.458 E63.20095
G1 X156.744 Y131.817 E63.24547
G1 X156.159 Y132.428 E63.32541
G1 X155.836 Y132.728 E63.36707
G1 X155.109 Y133.32 E63.45566
G1 X154.753 Y133.573 E63.49694
G1 X153.981 Y134.051 E63.58274
G1 X153.594 Y134.258 E63.62422
G1 X152.793 Y134.625 E63.70748
G1 X152.381 Y134.784 E63.74921
G1 X151.523 Y135.055 E63.83424
G1 X151.099 Y135.16 E63.87552
G1 X150.218 Y135.32 E63.96014
G1 X149.779 Y135.372 E64.00191
G1 X148.869 Y135.422 E64.08804
G1 X148.432 Y135.418 E64.12933
G1 X147.524 Y135.352 E64.21537
G1 X147.086 Y135.292 E64.25714
G1 X146.215 Y135.117 E64.3411
G1 X145.794 Y135.005 E64.38227
G1 X144.919 Y134.71 E64.46953
G1 X144.509 Y134.542 E64.5114
G1 X143.721 Y134.162 E64.59407
G1 X143.341 Y133.949 E64.63524
G1 X142.573 Y133.451 E64.72174
G1 X142.22 Y133.189 E64.76328
G1 X141.636 Y132.707 E64.83484
G1 X141.266 Y132.34 E64.88408
G1 X140.879 Y131.928 E64.9375
G1 X70.75 Y131.928 E71.56469
G1 X69.994 Y131.888 E71.63623
G1 X69.246 Y131.769 E71.70781
G1 X68.515 Y131.571 E71.77938
G1 X67.808 Y131.297 E71.85103
G1 X67.135 Y130.951 E71.92254
G1 X66.502 Y130.535 E71.99412
G1 X65.916 Y130.055 E72.0657
G1 X65.384 Y129.516 E72.13727
G1 X64.912 Y128.924 E72.20882
G1 X64.505 Y128.285 E72.28041
G1 X64.167 Y127.607 E72.35201
G1 X63.903 Y126.898 E72.4235
G1 X63.715 Y126.164 E72.4951
G1 X63.606 Y125.415 E72.56663
G1 X63.575 Y124.753 E72.62926
G1 X63.575 Y100.753 E74.89726
G1 X63.615 Y99.997 E74.9688
G1 X63.734 Y99.249 E75.04037
G1 X63.932 Y98.518 E75.11194
G1 X64.206 Y97.811 E75.1836
G1 X64.552 Y97.138 E75.25511
G1 X64.968 Y96.505 E75.32669
G1 X65.448 Y95.919 E75.39827
G1 X65.987 Y95.387 E75.46984
G1 X66.579 Y94.915 E75.54139
G1 X67.218 Y94.508 E75.61298
G1 X67.896 Y94.17 E75.68457
G1 X68.605 Y93.906 E75.75607
G1 X68.631 Y93.899 E75.75861
G1 X68.734 Y93.249 E75.8208
G1 X68.932 Y92.518 E75.89237
G1 X69.206 Y91.811 E75.96402
G1 X69.552 Y91.138 E76.03554
G1 X69.968 Y90.505 E76.10712
G1 X70.448 Y89.919 E76.1787
G1 X70.987 Y89.387 E76.25027
G1 X71.579 Y88.915 E76.32181
G0 F4500 X71.329 Y89.553
G1 F1800 X71.917 Y89.106 E76.39161
G1 X72.55 Y88.725 E76.46143
G1 X73.22 Y88.414 E76.53124
G1 X73.92 Y88.178 E76.60104
G1 X74.641 Y88.019 E76.67082
G1 X75.376 Y87.938 E76.74069
G1 X75.75 Y87.928 E76.77605
G1 X150.75 Y87.928 E83.86355
G1 X151.488 Y87.968 E83.93339
G1 X152.216 Y88.087 E84.0031
G1 X152.928 Y88.285 E84.07294
G1 X153.614 Y88.558 E84.14271
G1 X154.267 Y88.904 E84.21255
G1 X154.879 Y89.318 E84.28237
G1 X155.442 Y89.796 E84.35216
G1 X155.95 Y90.332 E84.42195
G1 X156.397 Y90.92 E84.49175
G1 X156.778 Y91.553 E84.56157
G1 X157.089 Y92.223 E84.63137
G1 X157.325 Y92.923 E84.70118
G1 X157.484 Y93.644 E84.77095
G1 X157.565 Y94.379 E84.84083
G1 X157.575 Y94.753 E84.87618
G1 X157.575 Y119.402 E87.20551
G1 X157.579 Y119.408 E87.2062
G1 X157.996 Y120.166 E87.28795
G1 X158.182 Y120.562 E87.3293
G1 X158.499 Y121.366 E87.41097
G1 X158.634 Y121.784 E87.45248
G1 X158.843 Y122.6 E87.53208
G1 X158.926 Y123.034 E87.57383
G1 X159.033 Y123.879 E87.65432
G1 X159.061 Y124.315 E87.69561
G1 X159.061 Y125.186 E87.77792
G1 X159.033 Y125.625 E87.81949
G1 X158.926 Y126.473 E87.90026
G1 X158.843 Y126.907 E87.94202
G1 X158.635 Y127.718 E88.02114
G1 X158.501 Y128.134 E88.06244
G1 X158.182 Y128.943 E88.14462
G1 X157.995 Y129.341 E88.18617
G1 X157.579 Y130.099 E88.26788
G1 X157.342 Y130.472 E88.30964
G1 X156.782 Y131.231 E88.39878
G1 X156.477 Y131.59 E88.4433
G1 X155.921 Y132.172 E88.51936
G1 X155.598 Y132.472 E88.56102
G1 X154.907 Y133.034 E88.64519
G1 X154.551 Y133.287 E88.68646
G1 X153.816 Y133.742 E88.76815
G1 X153.429 Y133.949 E88.80962
G1 X152.667 Y134.298 E88.88882
G1 X152.255 Y134.457 E88.93056
G1 X151.439 Y134.715 E89.01143
G1 X151.015 Y134.82 E89.05271
G1 X150.177 Y134.973 E89.13321
G1 X149.738 Y135.025 E89.17499
G1 X148.873 Y135.072 E89.25685
G1 X148.436 Y135.068 E89.29815
G1 X147.572 Y135.005 E89.38001
G1 X147.134 Y134.945 E89.42179
G1 X146.305 Y134.779 E89.50169
G1 X145.884 Y134.667 E89.54285
G1 X145.051 Y134.386 E89.62593
G1 X144.641 Y134.218 E89.6678
G1 X143.892 Y133.857 E89.74637
G1 X143.512 Y133.644 E89.78754
G1 X142.781 Y133.17 E89.86987
G1 X142.428 Y132.908 E89.91142
G1 X141.86 Y132.437 E89.98114
G1 X141.521 Y132.1 E90.02632
G1 X141.031 Y131.578 E90.09397
G1 X70.75 Y131.578 E96.73553
G1 X70.012 Y131.538 E96.80537
G1 X69.284 Y131.419 E96.87508
G1 X68.572 Y131.221 E96.94492
G1 X67.886 Y130.948 E97.01469
G1 X67.233 Y130.602 E97.08453
G1 X66.621 Y130.188 E97.15435
G1 X66.058 Y129.71 E97.22414
G1 X65.55 Y129.174 E97.29393
G1 X65.103 Y128.586 E97.36373
G1 X64.722 Y127.953 E97.43355
G1 X64.411 Y127.283 E97.50335
G1 X64.175 Y126.583 E97.57316
G1 X64.016 Y125.862 E97.64293
G1 X63.935 Y125.127 E97.71281
G1 X63.925 Y124.753 E97.74816
G1 X63.925 Y100.753 E100.01616
G1 X63.965 Y100.015 E100.08601
G1 X64.084 Y99.287 E100.15572
G1 X64.282 Y98.575 E100.22555
G1 X64.555 Y97.889 E100.29532
G1 X64.901 Y97.236 E100.36516
G1 X65.315 Y96.624 E100.43498
G1 X65.793 Y96.061 E100.50478
G1 X66.329 Y95.553 E100.57456
G1 X66.917 Y95.106 E100.64436
G1 X67.55 Y94.725 E100.71418
G1 X68.22 Y94.414 E100.78398
G1 X68.92 Y94.178 E100.85379
G1 X68.957 Y94.17 E100.85737
G1 X68.965 Y94.015 E100.87204
G1 X69.084 Y93.287 E100.94175
G1 X69.282 Y92.575 E101.01158
G1 X69.555 Y91.889 E101.08136
G1 X69.901 Y91.236 E101.15119
G1 X70.315 Y90.624 E101.22101
G1 X70.793 Y90.061 E101.29081
G1 X71.329 Y89.553 E101.36059
G0 F4500 X71.671 Y89.724
G1 F1800 X72.254 Y89.303 E101.42855
G1 X72.881 Y88.949 E101.49659
G1 X73.542 Y88.666 E101.56454
G1 X74.231 Y88.459 E101.63253
G1 X74.939 Y88.329 E101.70055
G1 X75.75 Y88.278 E101.77734
G1 X150.75 Y88.278 E108.86484
G1 X151.468 Y88.318 E108.9328
G1 X152.178 Y88.437 E109.00083
G1 X152.87 Y88.635 E109.06885
G1 X153.535 Y88.908 E109.13678
G1 X154.167 Y89.253 E109.20482
G1 X154.756 Y89.666 E109.2728
G1 X155.295 Y90.142 E109.34076
G1 X155.779 Y90.674 E109.40873
G1 X156.2 Y91.257 E109.47668
G1 X156.554 Y91.884 E109.54472
G1 X156.837 Y92.545 E109.61267
G1 X157.044 Y93.234 E109.68066
G1 X157.174 Y93.942 E109.74868
G1 X157.225 Y94.753 E109.82547
G1 X157.225 Y119.505 E112.16454
G1 X157.283 Y119.596 E112.17474
G1 X157.679 Y120.315 E112.25231
G1 X157.865 Y120.711 E112.29365
G1 X158.166 Y121.474 E112.37116
G1 X158.301 Y121.892 E112.41267
G1 X158.499 Y122.666 E112.48817
G1 X158.582 Y123.1 E112.52993
G1 X158.684 Y123.901 E112.60623
G1 X158.712 Y124.337 E112.64752
G1 X158.712 Y125.164 E112.72567
G1 X158.684 Y125.603 E112.76724
G1 X158.582 Y126.407 E112.84383
G1 X158.499 Y126.841 E112.88558
G1 X158.302 Y127.61 E112.9606
G1 X158.168 Y128.026 E113.0019
G1 X157.865 Y128.794 E113.07992
G1 X157.678 Y129.192 E113.12148
G1 X157.283 Y129.911 E113.199
G1 X157.046 Y130.284 E113.24076
G1 X156.516 Y131.004 E113.32525
G1 X156.211 Y131.363 E113.36977
G1 X155.682 Y131.915 E113.44202
G1 X155.359 Y132.215 E113.48367
G1 X154.704 Y132.749 E113.56354
G1 X154.348 Y133.002 E113.60481
G1 X153.651 Y133.434 E113.6823
G1 X153.264 Y133.641 E113.72377
G1 X152.541 Y133.972 E113.79892
G1 X152.129 Y134.131 E113.84065
G1 X151.354 Y134.375 E113.91743
G1 X150.93 Y134.48 E113.95871
G1 X150.136 Y134.625 E114.03498
G1 X149.697 Y134.677 E114.07676
G1 X148.876 Y134.722 E114.15446
G1 X148.439 Y134.718 E114.19576
G1 X147.619 Y134.658 E114.27346
G1 X147.181 Y134.598 E114.31523
G1 X146.395 Y134.44 E114.391
G1 X145.974 Y134.328 E114.43216
G1 X145.184 Y134.063 E114.51091
G1 X144.774 Y133.895 E114.55278
G1 X144.063 Y133.551 E114.62742
G1 X143.683 Y133.338 E114.66859
G1 X142.99 Y132.889 E114.74662
G1 X142.637 Y132.627 E114.78816
G1 X142.084 Y132.167 E114.85614
G1 X141.776 Y131.861 E114.89716
G1 X141.22 Y131.269 E114.97391
G1 X141.186 Y131.228 E114.97895
G1 X70.75 Y131.228 E121.63515
G1 X70.032 Y131.188 E121.70311
G1 X69.322 Y131.069 E121.77114
G1 X68.63 Y130.871 E121.83915
G1 X67.965 Y130.598 E121.90709
G1 X67.333 Y130.253 E121.97513
G1 X66.744 Y129.84 E122.04311
G1 X66.205 Y129.364 E122.11106
