;FLAVOR:UltiGCode
;TIME:6960
;MATERIAL:12213
;MATERIAL2:0
;NOZZLE_DIAMETER:0.4
;MINX:52.125
;MINY:86.878
;MINZ:0.27
;MAXX:160.109
;MAXY:170.375
;MAXZ:20.97
;Generated with Cura_SteamEngine 4.2.1
M82 ;absolute extrusion mode

G92 E0
G92 E0
G10
;LAYER_COUNT:139
;LAYER:0
M107
G0 F4500 X70.899 Y88.549 Z0.27
;TYPE:SKIRT
G11
G1 F1800 X71.548 Y88.093 E0.07496
G1 X72.24 Y87.704 E0.14997
G1 X72.967 Y87.386 E0.22496
G1 X73.723 Y87.143 E0.3
G1 X74.499 Y86.978 E0.37497
G1 X75.287 Y86.892 E0.44988
G1 X75.75 Y86.878 E0.49366
G1 X150.75 Y86.878 E7.58116
G1 X151.542 Y86.918 E7.65609
G1 X152.327 Y87.037 E7.73112
G1 X153.095 Y87.235 E7.80607
G1 X153.84 Y87.51 E7.88112
G1 X154.553 Y87.857 E7.95605
G1 X155.228 Y88.275 E8.03108
G1 X155.857 Y88.758 E8.10602
G1 X156.434 Y89.303 E8.18103
G1 X156.954 Y89.902 E8.25599
G1 X157.41 Y90.551 E8.33094
G1 X157.799 Y91.243 E8.40596
G1 X158.117 Y91.97 E8.48095
G1 X158.36 Y92.726 E8.55599
G1 X158.525 Y93.502 E8.63096
G1 X158.611 Y94.29 E8.70587
G1 X158.625 Y94.753 E8.74964
G1 X158.625 Y119.136 E11.05384
G1 X158.946 Y119.72 E11.11681
G1 X159.132 Y120.116 E11.15816
G1 X159.498 Y121.044 E11.25243
G1 X159.633 Y121.462 E11.29394
G1 X159.874 Y122.403 E11.38573
G1 X159.957 Y122.837 E11.42749
G1 X160.081 Y123.811 E11.52027
G1 X160.109 Y124.247 E11.56156
G1 X160.109 Y125.253 E11.65663
G1 X160.081 Y125.692 E11.6982
G1 X159.957 Y126.67 E11.79136
G1 X159.874 Y127.104 E11.83311
G1 X159.635 Y128.039 E11.92431
G1 X159.501 Y128.455 E11.96561
G1 X159.132 Y129.39 E12.0606
G1 X158.945 Y129.788 E12.10216
G1 X158.465 Y130.662 E12.19639
G1 X158.228 Y131.035 E12.23815
G1 X157.586 Y131.906 E12.3404
G1 X157.284 Y132.262 E12.38452
G1 X156.638 Y132.938 E12.47288
G1 X156.315 Y133.238 E12.51454
G1 X155.538 Y133.872 E12.60931
G1 X155.183 Y134.126 E12.65056
G1 X154.322 Y134.663 E12.74645
G1 X153.934 Y134.871 E12.78805
G1 X153.054 Y135.275 E12.87956
G1 X152.643 Y135.434 E12.9212
G1 X151.716 Y135.728 E13.0131
G1 X151.293 Y135.834 E13.05431
G1 X150.303 Y136.016 E13.14944
G1 X149.863 Y136.068 E13.1913
G1 X148.867 Y136.122 E13.28556
G1 X148.431 Y136.118 E13.32677
G1 X147.454 Y136.048 E13.41933
G1 X147.015 Y135.989 E13.46119
G1 X146.044 Y135.795 E13.55476
G1 X145.622 Y135.683 E13.59602
G1 X144.665 Y135.363 E13.69138
G1 X144.256 Y135.196 E13.73313
G1 X143.396 Y134.782 E13.82333
G1 X143.016 Y134.57 E13.86445
G1 X142.168 Y134.023 E13.95981
G1 X141.814 Y133.761 E14.00143
G1 X141.201 Y133.257 E14.07642
G1 X140.76 Y132.824 E14.13483
G1 X140.576 Y132.628 E14.16023
G1 X138.875 Y132.628 E14.32097
G1 X138.875 Y162.5 E17.14388
G1 X138.835 Y163.292 E17.21882
G1 X138.716 Y164.077 E17.29385
G1 X138.518 Y164.845 E17.3688
G1 X138.243 Y165.59 E17.44384
G1 X137.896 Y166.303 E17.51878
G1 X137.478 Y166.978 E17.5938
G1 X136.995 Y167.607 E17.66875
G1 X136.45 Y168.184 E17.74375
G1 X135.851 Y168.704 E17.81871
G1 X135.202 Y169.16 E17.89367
G1 X134.51 Y169.549 E17.96869
G1 X133.783 Y169.867 E18.04367
G1 X133.027 Y170.11 E18.11871
G1 X132.251 Y170.275 E18.19369
G1 X131.463 Y170.361 E18.26859
G1 X131 Y170.375 E18.31237
G1 X60 Y170.375 E25.02187
G1 X59.208 Y170.335 E25.09681
G1 X58.423 Y170.216 E25.17184
G1 X57.655 Y170.018 E25.24679
G1 X56.91 Y169.743 E25.32183
G1 X56.197 Y169.396 E25.39677
G1 X55.522 Y168.978 E25.47179
G1 X54.893 Y168.495 E25.54674
G1 X54.316 Y167.95 E25.62174
G1 X53.796 Y167.351 E25.6967
G1 X53.34 Y166.702 E25.77166
G1 X52.951 Y166.01 E25.84667
G1 X52.633 Y165.283 E25.92166
G1 X52.39 Y164.527 E25.9967
G1 X52.225 Y163.751 E26.07167
G1 X52.139 Y162.963 E26.14658
G1 X52.125 Y162.5 E26.19036
G1 X52.125 Y132.5 E29.02536
G1 X52.165 Y131.708 E29.10029
G1 X52.284 Y130.923 E29.17532
G1 X52.482 Y130.155 E29.25027
G1 X52.757 Y129.41 E29.32532
G1 X53.104 Y128.697 E29.40025
G1 X53.522 Y128.022 E29.47528
G1 X54.005 Y127.393 E29.55023
G1 X54.55 Y126.816 E29.62523
G1 X55.149 Y126.296 E29.70019
G1 X55.798 Y125.84 E29.77514
G1 X56.49 Y125.451 E29.85016
G1 X57.217 Y125.133 E29.92515
G1 X57.973 Y124.89 E30.00019
G1 X58.749 Y124.725 E30.07516
G1 X59.537 Y124.639 E30.15007
G1 X60 Y124.625 E30.19384
G1 X62.875 Y124.625 E30.46553
G1 X62.875 Y100.753 E32.72144
G1 X62.915 Y99.961 E32.79637
G1 X63.034 Y99.176 E32.87141
G1 X63.232 Y98.408 E32.94635
G1 X63.507 Y97.663 E33.0214
G1 X63.854 Y96.95 E33.09633
G1 X64.272 Y96.275 E33.17136
G1 X64.755 Y95.646 E33.24631
G1 X65.3 Y95.069 E33.32131
G1 X65.899 Y94.549 E33.39627
G1 X66.548 Y94.093 E33.47122
G1 X67.24 Y93.704 E33.54624
G1 X67.967 Y93.386 E33.62123
G1 X68.004 Y93.374 E33.62491
G1 X68.034 Y93.176 E33.64383
G1 X68.232 Y92.408 E33.71878
G1 X68.507 Y91.663 E33.79382
G1 X68.854 Y90.95 E33.86876
G1 X69.272 Y90.275 E33.94379
G1 X69.755 Y89.646 E34.01873
G1 X70.3 Y89.069 E34.09373
G1 X70.899 Y88.549 E34.16869
G0 F4500 X71.24 Y88.729
G1 F1800 X71.884 Y88.297 E34.24198
G1 X72.569 Y87.934 E34.31524
G1 X73.288 Y87.642 E34.38857
G1 X74.033 Y87.427 E34.46185
G1 X74.796 Y87.289 E34.53512
G1 X75.75 Y87.228 E34.62546
G1 X150.75 Y87.228 E41.71296
G1 X151.525 Y87.268 E41.78629
G1 X152.291 Y87.387 E41.85955
G1 X153.041 Y87.585 E41.93285
G1 X153.767 Y87.859 E42.00618
G1 X154.46 Y88.206 E42.07942
G1 X155.114 Y88.623 E42.15272
G1 X155.722 Y89.105 E42.22604
G1 X156.277 Y89.647 E42.29935
G1 X156.774 Y90.243 E42.37268
G1 X157.206 Y90.887 E42.44596
G1 X157.569 Y91.572 E42.51922
G1 X157.861 Y92.291 E42.59256
G1 X158.076 Y93.036 E42.66583
G1 X158.214 Y93.799 E42.73911
G1 X158.275 Y94.753 E42.82945
G1 X158.275 Y119.225 E45.14205
G1 X158.629 Y119.869 E45.2115
G1 X158.815 Y120.265 E45.25284
G1 X159.165 Y121.151 E45.34286
G1 X159.3 Y121.569 E45.38437
G1 X159.53 Y122.469 E45.47216
G1 X159.613 Y122.903 E45.51391
G1 X159.732 Y123.834 E45.60261
G1 X159.76 Y124.27 E45.64389
G1 X159.76 Y125.231 E45.73471
G1 X159.732 Y125.67 E45.77628
G1 X159.613 Y126.604 E45.86526
G1 X159.53 Y127.038 E45.90701
G1 X159.302 Y127.932 E45.9942
G1 X159.168 Y128.348 E46.0355
G1 X158.816 Y129.241 E46.12621
G1 X158.629 Y129.639 E46.16776
G1 X158.169 Y130.475 E46.25794
G1 X157.932 Y130.848 E46.2997
G1 X157.319 Y131.68 E46.39736
G1 X157.017 Y132.036 E46.44147
G1 X156.4 Y132.682 E46.52589
G1 X156.077 Y132.982 E46.56755
G1 X155.335 Y133.588 E46.65808
G1 X154.98 Y133.842 E46.69933
G1 X154.156 Y134.354 E46.79101
G1 X153.768 Y134.562 E46.83261
G1 X152.928 Y134.948 E46.91997
G1 X152.517 Y135.107 E46.96162
G1 X151.631 Y135.388 E47.04945
G1 X151.208 Y135.494 E47.09066
G1 X150.262 Y135.668 E47.18156
G1 X149.822 Y135.72 E47.22343
G1 X148.87 Y135.772 E47.31353
G1 X148.434 Y135.768 E47.35473
G1 X147.501 Y135.701 E47.44313
G1 X147.062 Y135.642 E47.48498
G1 X146.134 Y135.457 E47.57441
G1 X145.712 Y135.345 E47.61566
G1 X144.797 Y135.039 E47.70684
G1 X144.388 Y134.872 E47.74859
G1 X143.567 Y134.476 E47.83473
G1 X143.187 Y134.264 E47.87585
G1 X142.376 Y133.742 E47.96699
G1 X142.022 Y133.48 E48.00861
G1 X141.424 Y132.987 E48.08185
G1 X141.016 Y132.584 E48.13604
G1 X140.728 Y132.278 E48.17575
G1 X138.511 Y132.278 E48.38526
G1 X138.525 Y132.5 E48.40628
G1 X138.525 Y162.5 E51.24128
G1 X138.485 Y163.275 E51.31461
G1 X138.366 Y164.041 E51.38787
G1 X138.168 Y164.791 E51.46117
G1 X137.894 Y165.517 E51.5345
G1 X137.547 Y166.21 E51.60774
G1 X137.13 Y166.864 E51.68104
G1 X136.648 Y167.472 E51.75436
G1 X136.106 Y168.027 E51.82767
G1 X135.51 Y168.524 E51.901
G1 X134.866 Y168.956 E51.97428
G1 X134.181 Y169.319 E52.04754
G1 X133.462 Y169.611 E52.12088
G1 X132.717 Y169.826 E52.19416
G1 X131.954 Y169.964 E52.26743
G1 X131 Y170.025 E52.35777
G1 X60 Y170.025 E59.06727
G1 X59.225 Y169.985 E59.1406
G1 X58.459 Y169.866 E59.21386
G1 X57.709 Y169.668 E59.28716
G1 X56.983 Y169.394 E59.36049
G1 X56.29 Y169.047 E59.43373
G1 X55.636 Y168.63 E59.50703
G1 X55.028 Y168.148 E59.58035
G1 X54.473 Y167.606 E59.65366
G1 X53.976 Y167.01 E59.72699
G1 X53.544 Y166.366 E59.80027
G1 X53.181 Y165.681 E59.87353
G1 X52.889 Y164.962 E59.94687
G1 X52.674 Y164.217 E60.02014
G1 X52.536 Y163.454 E60.09342
G1 X52.475 Y162.5 E60.18375
G1 X52.475 Y132.5 E63.01875
G1 X52.515 Y131.725 E63.09209
G1 X52.634 Y130.959 E63.16534
G1 X52.832 Y130.209 E63.23865
G1 X53.106 Y129.483 E63.31198
G1 X53.453 Y128.79 E63.38522
G1 X53.87 Y128.136 E63.45851
G1 X54.352 Y127.528 E63.53184
G1 X54.894 Y126.973 E63.60514
G1 X55.49 Y126.476 E63.67848
G1 X56.134 Y126.044 E63.75176
G1 X56.819 Y125.681 E63.82502
G1 X57.538 Y125.389 E63.89836
G1 X58.283 Y125.174 E63.97163
G1 X59.046 Y125.036 E64.0449
G1 X60 Y124.975 E64.13524
G1 X63.239 Y124.975 E64.44133
G1 X63.225 Y124.753 E64.46235
G1 X63.225 Y100.753 E66.73035
G1 X63.265 Y99.978 E66.80368
G1 X63.384 Y99.212 E66.87694
G1 X63.582 Y98.462 E66.95024
G1 X63.856 Y97.736 E67.02357
G1 X64.203 Y97.043 E67.09681
G1 X64.62 Y96.389 E67.17011
G1 X65.102 Y95.781 E67.24343
G1 X65.644 Y95.226 E67.31674
G1 X66.24 Y94.729 E67.39007
G1 X66.884 Y94.297 E67.46336
G1 X67.569 Y93.934 E67.53662
G1 X68.288 Y93.642 E67.60995
G1 X68.319 Y93.633 E67.613
G1 X68.384 Y93.212 E67.65326
G1 X68.582 Y92.462 E67.72656
G1 X68.856 Y91.736 E67.79989
G1 X69.203 Y91.043 E67.87313
G1 X69.62 Y90.389 E67.94643
G1 X70.102 Y89.781 E68.01975
G1 X70.644 Y89.226 E68.09306
G1 X71.24 Y88.729 E68.16639
G0 F4500 X71.579 Y88.915
G1 F1800 X72.218 Y88.508 E68.23798
G1 X72.896 Y88.17 E68.30958
G1 X73.605 Y87.906 E68.38107
G1 X74.339 Y87.718 E68.45267
G1 X75.088 Y87.609 E68.5242
G1 X75.75 Y87.578 E68.58683
G1 X150.75 Y87.578 E75.67433
G1 X151.506 Y87.618 E75.74587
G1 X152.254 Y87.737 E75.81744
G1 X152.985 Y87.935 E75.88901
G1 X153.692 Y88.209 E75.96067
G1 X154.365 Y88.555 E76.03218
G1 X154.998 Y88.971 E76.10376
G1 X155.584 Y89.451 E76.17534
G1 X156.116 Y89.99 E76.24691
G1 X156.588 Y90.582 E76.31846
G1 X156.995 Y91.221 E76.39005
G1 X157.333 Y91.899 E76.46164
G1 X157.597 Y92.608 E76.53314
G1 X157.785 Y93.342 E76.60474
G1 X157.894 Y94.091 E76.67626
G1 X157.925 Y94.753 E76.73889
G1 X157.925 Y119.313 E79.05981
G1 X158.312 Y120.018 E79.13581
G1 X158.498 Y120.414 E79.17716
G1 X158.832 Y121.259 E79.26302
G1 X158.967 Y121.677 E79.30453
G1 X159.186 Y122.534 E79.38812
G1 X159.269 Y122.968 E79.42988
G1 X159.382 Y123.856 E79.51447
G1 X159.41 Y124.292 E79.55576
G1 X159.41 Y125.209 E79.64241
G1 X159.382 Y125.648 E79.68398
G1 X159.269 Y126.539 E79.76886
G1 X159.186 Y126.973 E79.81061
G1 X158.968 Y127.825 E79.89372
G1 X158.834 Y128.241 E79.93502
G1 X158.499 Y129.092 E80.02145
G1 X158.312 Y129.49 E80.063
G1 X157.874 Y130.287 E80.14894
G1 X157.637 Y130.66 E80.19071
G1 X157.052 Y131.454 E80.2839
G1 X156.75 Y131.81 E80.32802
G1 X156.162 Y132.425 E80.40843
G1 X155.839 Y132.725 E80.45009
G1 X155.131 Y133.303 E80.53646
G1 X154.776 Y133.557 E80.57771
G1 X153.991 Y134.046 E80.6651
G1 X153.603 Y134.254 E80.70671
G1 X152.802 Y134.622 E80.79001
G1 X152.391 Y134.781 E80.83165
G1 X151.546 Y135.049 E80.91542
G1 X151.123 Y135.155 E80.95663
G1 X150.221 Y135.32 E81.04329
G1 X149.781 Y135.372 E81.08516
G1 X148.873 Y135.422 E81.17109
G1 X148.437 Y135.418 E81.2123
G1 X147.547 Y135.354 E81.29662
G1 X147.108 Y135.295 E81.33848
G1 X146.223 Y135.119 E81.42375
G1 X145.801 Y135.007 E81.46501
G1 X144.93 Y134.715 E81.55182
G1 X144.521 Y134.548 E81.59357
G1 X143.737 Y134.171 E81.67578
G1 X143.357 Y133.959 E81.7169
G1 X142.585 Y133.46 E81.80376
G1 X142.231 Y133.198 E81.84538
G1 X141.646 Y132.716 E81.91701
G1 X141.271 Y132.345 E81.96686
G1 X140.879 Y131.928 E82.02095
G1 X138.148 Y131.928 E82.27903
G1 X138.175 Y132.5 E82.33314
G1 X138.175 Y162.5 E85.16814
G1 X138.135 Y163.256 E85.23968
G1 X138.016 Y164.004 E85.31126
G1 X137.818 Y164.735 E85.38283
G1 X137.544 Y165.442 E85.45448
G1 X137.198 Y166.115 E85.52599
G1 X136.782 Y166.748 E85.59757
G1 X136.302 Y167.334 E85.66915
G1 X135.763 Y167.866 E85.74072
G1 X135.171 Y168.338 E85.81227
G1 X134.532 Y168.745 E85.88386
G1 X133.854 Y169.083 E85.95546
G1 X133.145 Y169.347 E86.02695
G1 X132.411 Y169.535 E86.09855
G1 X131.662 Y169.644 E86.17008
G1 X131 Y169.675 E86.23271
G1 X60 Y169.675 E92.94221
G1 X59.244 Y169.635 E93.01375
G1 X58.496 Y169.516 E93.08532
G1 X57.765 Y169.318 E93.15689
G1 X57.058 Y169.044 E93.22854
G1 X56.385 Y168.698 E93.30006
G1 X55.752 Y168.282 E93.37164
G1 X55.166 Y167.802 E93.44322
G1 X54.634 Y167.263 E93.51479
G1 X54.162 Y166.671 E93.58634
G1 X53.755 Y166.032 E93.65793
G1 X53.417 Y165.354 E93.72952
G1 X53.153 Y164.645 E93.80102
G1 X52.965 Y163.911 E93.87262
G1 X52.856 Y163.162 E93.94414
G1 X52.825 Y162.5 E94.00677
G1 X52.825 Y132.5 E96.84177
G1 X52.865 Y131.744 E96.91331
G1 X52.984 Y130.996 E96.98489
G1 X53.182 Y130.265 E97.05646
G1 X53.456 Y129.558 E97.12811
G1 X53.802 Y128.885 E97.19962
G1 X54.218 Y128.252 E97.2712
G1 X54.698 Y127.666 E97.34278
G1 X55.237 Y127.134 E97.41435
G1 X55.829 Y126.662 E97.4859
G1 X56.468 Y126.255 E97.55749
G1 X57.146 Y125.917 E97.62909
G1 X57.855 Y125.653 E97.70058
G1 X58.589 Y125.465 E97.77218
G1 X59.338 Y125.356 E97.84371
G1 X60 Y125.325 E97.90634
G1 X63.602 Y125.325 E98.24673
G1 X63.575 Y124.753 E98.30084
G1 X63.575 Y100.753 E100.56884
G1 X63.615 Y99.997 E100.64038
G1 X63.734 Y99.249 E100.71196
G1 X63.932 Y98.518 E100.78353
G1 X64.206 Y97.811 E100.85518
G1 X64.552 Y97.138 E100.92669
G1 X64.968 Y96.505 E100.99827
G1 X65.448 Y95.919 E101.06985
G1 X65.987 Y95.387 E101.14142
G1 X66.579 Y94.915 E101.21297
G1 X67.218 Y94.508 E101.28456
G1 X67.896 Y94.17 E101.35615
G1 X68.605 Y93.906 E101.42765
G1 X68.631 Y93.899 E101.43019
G1 X68.734 Y93.249 E101.49239
G1 X68.932 Y92.518 E101.56395
G1 X69.206 Y91.811 E101.63561
G1 X69.552 Y91.138 E101.70712
G1 X69.968 Y90.505 E101.7787
G1 X70.448 Y89.919 E101.85028
G1 X70.987 Y89.387 E101.92185
G1 X71.579 Y88.915 E101.9934
G0 F4500 X71.329 Y89.553
G1 F1800 X71.917 Y89.106 E102.0632
G1 X72.55 Y88.725 E102.13302
G1 X73.22 Y88.414 E102.20282
G1 X73.92 Y88.178 E102.27263
G1 X74.641 Y88.019 E102.3424
G1 X75.376 Y87.938 E102.41228
G1 X75.75 Y87.928 E102.44763
G1 X150.75 Y87.928 E109.53513
G1 X151.488 Y87.968 E109.60498
G1 X152.216 Y88.087 E109.67468
G1 X152.928 Y88.285 E109.74452
G1 X153.614 Y88.558 E109.81429
G1 X154.267 Y88.904 E109.88413
G1 X154.879 Y89.318 E109.95395
G1 X155.442 Y89.796 E110.02375
G1 X155.95 Y90.332 E110.09353
G1 X156.397 Y90.92 E110.16333
G1 X156.778 Y91.553 E110.23315
G1 X157.089 Y92.223 E110.30295
G1 X157.325 Y92.923 E110.37276
G1 X157.484 Y93.644 E110.44253
G1 X157.565 Y94.379 E110.51241
G1 X157.575 Y94.753 E110.54777
G1 X157.575 Y119.402 E112.8771
G1 X157.579 Y119.408 E112.87778
G1 X157.996 Y120.166 E112.95953
G1 X158.182 Y120.562 E113.00088
G1 X158.499 Y121.366 E113.08255
G1 X158.634 Y121.784 E113.12406
G1 X158.843 Y122.6 E113.20366
G1 X158.926 Y123.034 E113.24542
G1 X159.033 Y123.879 E113.32591
G1 X159.061 Y124.315 E113.36719
G1 X159.061 Y125.186 E113.4495
G1 X159.033 Y125.625 E113.49107
G1 X158.926 Y126.473 E113.57184
G1 X158.843 Y126.907 E113.6136
G1 X158.635 Y127.718 E113.69272
G1 X158.501 Y128.134 E113.73402
G1 X158.182 Y128.943 E113.8162
G1 X157.995 Y129.341 E113.85776
G1 X157.579 Y130.099 E113.93947
G1 X157.342 Y130.472 E113.98123
G1 X156.786 Y131.227 E114.06983
G1 X156.484 Y131.583 E114.11395
G1 X155.924 Y132.169 E114.19055
G1 X155.601 Y132.469 E114.23221
G1 X154.927 Y133.019 E114.31441
G1 X154.572 Y133.273 E114.35566
G1 X153.826 Y133.737 E114.43869
G1 X153.438 Y133.945 E114.48029
G1 X152.675 Y134.295 E114.55962
G1 X152.264 Y134.454 E114.60126
G1 X151.461 Y134.709 E114.68088
G1 X151.038 Y134.815 E114.72209
G1 X150.18 Y134.973 E114.80453
G1 X149.74 Y135.025 E114.8464
G1 X148.876 Y135.072 E114.92817
G1 X148.44 Y135.068 E114.96937
G1 X147.594 Y135.007 E115.04953
G1 X147.155 Y134.948 E115.09139
G1 X146.313 Y134.781 E115.17251
G1 X145.891 Y134.669 E115.21377
G1 X145.062 Y134.391 E115.29639
G1 X144.653 Y134.224 E115.33814
G1 X143.908 Y133.865 E115.41629
G1 X143.528 Y133.653 E115.45741
G1 X142.793 Y133.179 E115.54006
G1 X142.439 Y132.917 E115.58168
G1 X141.87 Y132.446 E115.65148
G1 X141.526 Y132.105 E115.69725
G1 X141.031 Y131.578 E115.76558
G1 X137.755 Y131.578 E116.07516
G1 X137.815 Y132.126 E116.12726
G1 X137.825 Y132.5 E116.16261
G1 X137.825 Y162.5 E118.99761
G1 X137.785 Y163.238 E119.06746
G1 X137.666 Y163.966 E119.13717
G1 X137.468 Y164.678 E119.207
G1 X137.195 Y165.364 E119.27677
G1 X136.849 Y166.017 E119.34661
G1 X136.435 Y166.629 E119.41643
