;FLAVOR:UltiGCode
;TIME:8001
;MATERIAL:15698
;MATERIAL2:0
;NOZZLE_DIAMETER:0.4
;Generated with Cura_SteamEngine 3.4.1
M82 ;absolute extrusion mode

G92 E0
G10
;LAYER_COUNT:53
;LAYER:0
M107
G0 F4500 X61.648 Y77.924 Z0.27
;TYPE:SKIRT
G11
G1 F1800 X62.287 Y77.454 E0.07496
G1 X62.971 Y77.051 E0.14998
G1 X63.691 Y76.718 E0.22495
G1 X64.441 Y76.46 E0.2999
G1 X65.214 Y76.278 E0.37495
G1 X66 Y76.175 E0.44986
G1 X66.628 Y76.15 E0.50925
G1 X156.372 Y76.15 E8.99006
G1 X157.164 Y76.19 E9.065
G1 X157.949 Y76.309 E9.14003
G1 X158.717 Y76.507 E9.21498
G1 X159.462 Y76.782 E9.29002
G1 X160.175 Y77.129 E9.36496
G1 X160.85 Y77.547 E9.43998
G1 X161.479 Y78.03 E9.51493
G1 X161.94 Y78.457 E9.57431
G1 X162.043 Y78.56 E9.58807
G1 X162.576 Y79.148 E9.66307
G1 X163.046 Y79.787 E9.73803
G1 X163.449 Y80.471 E9.81306
G1 X163.782 Y81.191 E9.88802
G1 X164.04 Y81.941 E9.96297
G1 X164.222 Y82.714 E10.03802
G1 X164.325 Y83.5 E10.11293
G1 X164.35 Y84.128 E10.17232
G1 X164.35 Y138.872 E15.34563
G1 X164.31 Y139.664 E15.42057
G1 X164.191 Y140.449 E15.4956
G1 X163.993 Y141.217 E15.57055
G1 X163.718 Y141.962 E15.64559
G1 X163.371 Y142.675 E15.72053
G1 X162.953 Y143.35 E15.79556
G1 X162.47 Y143.979 E15.8705
G1 X162.043 Y144.44 E15.92988
G1 X161.94 Y144.543 E15.94365
G1 X161.352 Y145.076 E16.01864
G1 X160.713 Y145.546 E16.0936
G1 X160.029 Y145.949 E16.16863
G1 X159.309 Y146.282 E16.24359
G1 X158.559 Y146.54 E16.31854
G1 X157.786 Y146.722 E16.39359
G1 X157 Y146.825 E16.4685
G1 X156.372 Y146.85 E16.52789
G1 X66.628 Y146.85 E25.0087
G1 X65.836 Y146.81 E25.08364
G1 X65.051 Y146.691 E25.15867
G1 X64.283 Y146.493 E25.23362
G1 X63.538 Y146.218 E25.30867
G1 X62.825 Y145.871 E25.3836
G1 X62.15 Y145.453 E25.45863
G1 X61.521 Y144.97 E25.53357
G1 X61.06 Y144.543 E25.59295
G1 X60.957 Y144.44 E25.60672
G1 X60.424 Y143.852 E25.68171
G1 X59.954 Y143.213 E25.75668
G1 X59.551 Y142.529 E25.8317
G1 X59.218 Y141.809 E25.90666
G1 X58.96 Y141.059 E25.98161
G1 X58.778 Y140.286 E26.05666
G1 X58.675 Y139.5 E26.13157
G1 X58.65 Y138.872 E26.19097
G1 X58.65 Y84.128 E31.36427
G1 X58.69 Y83.336 E31.43921
G1 X58.809 Y82.551 E31.51424
G1 X59.007 Y81.783 E31.58919
G1 X59.282 Y81.038 E31.66424
G1 X59.629 Y80.325 E31.73917
G1 X60.047 Y79.65 E31.8142
G1 X60.53 Y79.021 E31.88914
G1 X60.957 Y78.56 E31.94852
G1 X61.06 Y78.457 E31.96229
G1 X61.648 Y77.924 E32.03729
G0 F4500 X61.883 Y78.185
G1 F1800 X62.509 Y77.727 E32.11059
G1 X63.18 Y77.337 E32.18393
G1 X63.886 Y77.017 E32.25718
G1 X64.622 Y76.772 E32.33048
G1 X65.38 Y76.604 E32.40385
G1 X66.15 Y76.515 E32.4771
G1 X66.628 Y76.5 E32.52229
G1 X156.372 Y76.5 E41.0031
G1 X157.147 Y76.54 E41.07644
G1 X157.913 Y76.659 E41.14969
G1 X158.663 Y76.857 E41.223
G1 X159.389 Y77.131 E41.29633
G1 X160.082 Y77.478 E41.36957
G1 X160.736 Y77.895 E41.44286
G1 X161.344 Y78.377 E41.51618
G1 X161.693 Y78.704 E41.56138
G1 X161.796 Y78.807 E41.57514
G1 X162.315 Y79.383 E41.64841
G1 X162.773 Y80.009 E41.72171
G1 X163.163 Y80.68 E41.79505
G1 X163.483 Y81.386 E41.8683
G1 X163.728 Y82.122 E41.94161
G1 X163.896 Y82.88 E42.01498
G1 X163.985 Y83.65 E42.08823
G1 X164 Y84.128 E42.13342
G1 X164 Y138.872 E47.30673
G1 X163.96 Y139.647 E47.38006
G1 X163.841 Y140.413 E47.45332
G1 X163.643 Y141.163 E47.52662
G1 X163.369 Y141.889 E47.59995
G1 X163.022 Y142.582 E47.67319
G1 X162.605 Y143.236 E47.74649
G1 X162.123 Y143.844 E47.81981
G1 X161.796 Y144.193 E47.86501
G1 X161.693 Y144.296 E47.87877
G1 X161.117 Y144.815 E47.95204
G1 X160.491 Y145.273 E48.02534
G1 X159.82 Y145.663 E48.09868
G1 X159.114 Y145.983 E48.17193
G1 X158.378 Y146.228 E48.24524
G1 X157.62 Y146.396 E48.3186
G1 X156.85 Y146.485 E48.39185
G1 X156.372 Y146.5 E48.43705
G1 X66.628 Y146.5 E56.91786
G1 X65.853 Y146.46 E56.99119
G1 X65.087 Y146.341 E57.06445
G1 X64.337 Y146.143 E57.13775
G1 X63.611 Y145.869 E57.21108
G1 X62.918 Y145.522 E57.28432
G1 X62.264 Y145.105 E57.35762
G1 X61.656 Y144.623 E57.43094
G1 X61.307 Y144.296 E57.47613
G1 X61.204 Y144.193 E57.4899
G1 X60.685 Y143.617 E57.56317
G1 X60.227 Y142.991 E57.63647
G1 X59.837 Y142.32 E57.70981
G1 X59.517 Y141.614 E57.78306
G1 X59.272 Y140.878 E57.85636
G1 X59.104 Y140.12 E57.92973
G1 X59.015 Y139.35 E58.00298
G1 X59 Y138.872 E58.04817
G1 X59 Y84.128 E63.22148
G1 X59.04 Y83.353 E63.29482
G1 X59.159 Y82.587 E63.36807
G1 X59.357 Y81.837 E63.44138
G1 X59.631 Y81.111 E63.51471
G1 X59.978 Y80.418 E63.58795
G1 X60.395 Y79.764 E63.66124
G1 X60.877 Y79.156 E63.73456
G1 X61.204 Y78.807 E63.77976
G1 X61.307 Y78.704 E63.79352
G1 X61.883 Y78.185 E63.86679
G0 F4500 X62.118 Y78.445
G1 F1800 X62.731 Y78.001 E63.93832
G1 X63.388 Y77.623 E64.00995
G1 X64.08 Y77.317 E64.08145
G1 X64.802 Y77.086 E64.15309
G1 X65.543 Y76.932 E64.22461
G1 X66.628 Y76.85 E64.32743
G1 X156.372 Y76.85 E72.80824
G1 X157.128 Y76.89 E72.87978
G1 X157.876 Y77.009 E72.95136
G1 X158.607 Y77.207 E73.02293
G1 X159.314 Y77.481 E73.09458
G1 X159.987 Y77.827 E73.16609
G1 X160.62 Y78.243 E73.23767
G1 X161.445 Y78.952 E73.34047
G1 X161.548 Y79.055 E73.35423
G1 X162.055 Y79.618 E73.42583
G1 X162.499 Y80.231 E73.49736
G1 X162.877 Y80.888 E73.56899
G1 X163.183 Y81.58 E73.64049
G1 X163.414 Y82.302 E73.71213
G1 X163.568 Y83.043 E73.78365
G1 X163.65 Y84.128 E73.88647
G1 X163.65 Y138.872 E79.05978
G1 X163.61 Y139.628 E79.13132
G1 X163.491 Y140.376 E79.2029
G1 X163.293 Y141.107 E79.27447
G1 X163.019 Y141.814 E79.34612
G1 X162.673 Y142.487 E79.41763
G1 X162.257 Y143.12 E79.48921
G1 X161.548 Y143.945 E79.59201
G1 X161.445 Y144.048 E79.60577
G1 X160.882 Y144.555 E79.67737
G1 X160.269 Y144.999 E79.7489
G1 X159.612 Y145.377 E79.82053
G1 X158.92 Y145.683 E79.89203
G1 X158.198 Y145.914 E79.96366
G1 X157.457 Y146.068 E80.03518
G1 X156.372 Y146.15 E80.13801
G1 X66.628 Y146.15 E88.61882
G1 X65.872 Y146.11 E88.69036
G1 X65.124 Y145.991 E88.76193
G1 X64.393 Y145.793 E88.8335
G1 X63.686 Y145.519 E88.90516
G1 X63.013 Y145.173 E88.97667
G1 X62.38 Y144.757 E89.04825
G1 X61.555 Y144.048 E89.15104
G1 X61.452 Y143.945 E89.16481
G1 X60.945 Y143.382 E89.23641
G1 X60.501 Y142.769 E89.30793
G1 X60.123 Y142.112 E89.37956
G1 X59.817 Y141.42 E89.45107
G1 X59.586 Y140.698 E89.5227
G1 X59.432 Y139.957 E89.59422
G1 X59.35 Y138.872 E89.69705
G1 X59.35 Y84.128 E94.87036
G1 X59.39 Y83.372 E94.9419
G1 X59.509 Y82.624 E95.01347
G1 X59.707 Y81.893 E95.08504
G1 X59.981 Y81.186 E95.15669
G1 X60.327 Y80.513 E95.22821
G1 X60.743 Y79.88 E95.29979
G1 X61.452 Y79.055 E95.40258
G1 X61.555 Y78.952 E95.41635
G1 X62.118 Y78.445 E95.48794
G0 F4500 X62.352 Y78.706
G1 F1800 X62.952 Y78.275 E95.55776
G1 X63.595 Y77.911 E95.62758
G1 X64.273 Y77.619 E95.69734
G1 X64.979 Y77.402 E95.76714
G1 X65.705 Y77.263 E95.83699
G1 X66.628 Y77.2 E95.92442
G1 X156.372 Y77.2 E104.40523
G1 X157.11 Y77.24 E104.47507
G1 X157.838 Y77.359 E104.54478
G1 X158.55 Y77.557 E104.61462
G1 X159.236 Y77.83 E104.68439
G1 X159.889 Y78.176 E104.75422
G1 X160.501 Y78.59 E104.82405
G1 X161.198 Y79.199 E104.91152
G1 X161.301 Y79.302 E104.92528
G1 X161.794 Y79.852 E104.99508
G1 X162.225 Y80.452 E105.06489
G1 X162.589 Y81.095 E105.13472
G1 X162.881 Y81.773 E105.20448
G1 X163.098 Y82.479 E105.27427
G1 X163.237 Y83.205 E105.34413
G1 X163.3 Y84.128 E105.43155
G1 X163.3 Y138.872 E110.60486
G1 X163.26 Y139.61 E110.6747
G1 X163.141 Y140.338 E110.74441
G1 X162.943 Y141.05 E110.81425
G1 X162.67 Y141.736 E110.88402
G1 X162.324 Y142.389 E110.95386
G1 X161.91 Y143.001 E111.02368
G1 X161.301 Y143.698 E111.11115
G1 X161.198 Y143.801 E111.12491
G1 X160.648 Y144.294 E111.19471
G1 X160.048 Y144.725 E111.26453
G1 X159.405 Y145.089 E111.33435
G1 X158.727 Y145.381 E111.40411
G1 X158.021 Y145.598 E111.47391
G1 X157.295 Y145.737 E111.54376
G1 X156.372 Y145.8 E111.63119
G1 X66.628 Y145.8 E120.112
G1 X65.89 Y145.76 E120.18184
G1 X65.162 Y145.641 E120.25155
G1 X64.45 Y145.443 E120.32139
G1 X63.764 Y145.17 E120.39116
G1 X63.111 Y144.824 E120.46099
G1 X62.499 Y144.41 E120.53082
G1 X61.802 Y143.801 E120.61828
G1 X61.699 Y143.698 E120.63205
G1 X61.206 Y143.148 E120.70185
G1 X60.775 Y142.548 E120.77166
G1 X60.411 Y141.905 E120.84148
G1 X60.119 Y141.227 E120.91124
G1 X59.902 Y140.521 E120.98104
G1 X59.763 Y139.795 E121.0509
G1 X59.7 Y138.872 E121.13832
G1 X59.7 Y84.128 E126.31163
G1 X59.74 Y83.39 E126.38147
G1 X59.859 Y82.662 E126.45118
G1 X60.057 Y81.95 E126.52102
G1 X60.33 Y81.264 E126.59079
G1 X60.676 Y80.611 E126.66063
G1 X61.09 Y79.999 E126.73045
G1 X61.699 Y79.302 E126.81792
G1 X61.802 Y79.199 E126.83168
G1 X62.352 Y78.706 E126.90148
G0 F4500 X62.586 Y78.967
G1 F1800 X63.172 Y78.55 E126.96945
G1 X63.801 Y78.2 E127.03747
G1 X64.464 Y77.922 E127.10541
G1 X65.155 Y77.72 E127.17344
G1 X65.863 Y77.595 E127.24138
G1 X66.628 Y77.55 E127.3138
G1 X156.372 Y77.55 E135.79461
G1 X157.09 Y77.59 E135.86257
G1 X157.8 Y77.709 E135.9306
G1 X158.492 Y77.907 E135.99861
G1 X159.157 Y78.18 E136.06655
G1 X159.789 Y78.525 E136.13459
G1 X160.378 Y78.938 E136.20257
G1 X160.951 Y79.446 E136.27493
G1 X161.054 Y79.549 E136.2887
G1 X161.533 Y80.086 E136.3567
G1 X161.95 Y80.672 E136.42467
G1 X162.3 Y81.301 E136.49269
G1 X162.578 Y81.964 E136.56063
G1 X162.78 Y82.655 E136.62866
G1 X162.905 Y83.363 E136.6966
G1 X162.95 Y84.128 E136.76902
G1 X162.95 Y138.872 E141.94233
G1 X162.91 Y139.59 E142.01028
G1 X162.791 Y140.3 E142.07831
G1 X162.593 Y140.992 E142.14633
G1 X162.32 Y141.657 E142.21426
G1 X161.975 Y142.289 E142.28231
G1 X161.562 Y142.878 E142.35029
G1 X161.054 Y143.451 E142.42265
G1 X160.951 Y143.554 E142.43642
G1 X160.414 Y144.033 E142.50442
G1 X159.828 Y144.45 E142.57239
G1 X159.199 Y144.8 E142.64041
G1 X158.536 Y145.078 E142.70835
G1 X157.845 Y145.28 E142.77638
G1 X157.137 Y145.405 E142.84432
G1 X156.372 Y145.45 E142.91674
G1 X66.628 Y145.45 E151.39755
G1 X65.91 Y145.41 E151.4655
G1 X65.2 Y145.291 E151.53353
G1 X64.508 Y145.093 E151.60155
G1 X63.843 Y144.82 E151.66948
G1 X63.211 Y144.475 E151.73753
G1 X62.622 Y144.062 E151.80551
G1 X62.049 Y143.554 E151.87787
G1 X61.946 Y143.451 E151.89164
G1 X61.467 Y142.914 E151.95964
G1 X61.05 Y142.328 E152.0276
G1 X60.7 Y141.699 E152.09563
G1 X60.422 Y141.036 E152.16357
G1 X60.22 Y140.345 E152.2316
G1 X60.095 Y139.637 E152.29954
G1 X60.05 Y138.872 E152.37196
G1 X60.05 Y84.128 E157.54526
G1 X60.09 Y83.41 E157.61322
G1 X60.209 Y82.7 E157.68125
G1 X60.407 Y82.008 E157.74927
G1 X60.68 Y81.343 E157.8172
G1 X61.025 Y80.711 E157.88525
G1 X61.438 Y80.122 E157.95323
G1 X61.946 Y79.549 E158.02559
G1 X62.049 Y79.446 E158.03936
G1 X62.586 Y78.967 E158.10736
G0 F4500 X62.819 Y79.228
G1 F1800 X63.391 Y78.825 E158.17348
G1 X64.005 Y78.49 E158.23958
G1 X64.654 Y78.227 E158.30575
G1 X65.328 Y78.04 E158.37185
G1 X66.019 Y77.93 E158.43797
G1 X66.628 Y77.9 E158.49559
G1 X156.372 Y77.9 E166.9764
G1 X157.071 Y77.94 E167.04256
G1 X157.76 Y78.059 E167.10864
G1 X158.431 Y78.257 E167.17475
G1 X159.076 Y78.529 E167.2409
G1 X159.685 Y78.873 E167.307
G1 X160.251 Y79.285 E167.37316
G1 X160.703 Y79.694 E167.43076
G1 X160.806 Y79.797 E167.44453
G1 X161.272 Y80.319 E167.51065
G1 X161.675 Y80.891 E167.57677
G1 X162.01 Y81.505 E167.64287
G1 X162.273 Y82.154 E167.70905
G1 X162.46 Y82.828 E167.77515
G1 X162.57 Y83.519 E167.84127
G1 X162.6 Y84.128 E167.89889
G1 X162.6 Y138.872 E173.0722
G1 X162.56 Y139.571 E173.13836
G1 X162.441 Y140.26 E173.20443
G1 X162.243 Y140.931 E173.27055
G1 X161.971 Y141.576 E173.3367
G1 X161.627 Y142.185 E173.40279
G1 X161.215 Y142.751 E173.46895
G1 X160.806 Y143.203 E173.52656
G1 X160.703 Y143.306 E173.54032
G1 X160.181 Y143.772 E173.60645
G1 X159.609 Y144.175 E173.67257
G1 X158.995 Y144.51 E173.73867
G1 X158.346 Y144.773 E173.80484
G1 X157.672 Y144.96 E173.87094
G1 X156.981 Y145.07 E173.93706
G1 X156.372 Y145.1 E173.99468
G1 X66.628 Y145.1 E182.47549
G1 X65.929 Y145.06 E182.54165
G1 X65.24 Y144.941 E182.60773
G1 X64.569 Y144.743 E182.67384
G1 X63.924 Y144.471 E182.73999
G1 X63.315 Y144.127 E182.80609
G1 X62.749 Y143.715 E182.87225
G1 X62.297 Y143.306 E182.92985
G1 X62.194 Y143.203 E182.94362
G1 X61.728 Y142.681 E183.00974
G1 X61.325 Y142.109 E183.07586
G1 X60.99 Y141.495 E183.14196
G1 X60.727 Y140.846 E183.20814
G1 X60.54 Y140.172 E183.27424
G1 X60.43 Y139.481 E183.34036
G1 X60.4 Y138.872 E183.39798
G1 X60.4 Y84.128 E188.57129
G1 X60.44 Y83.429 E188.63745
G1 X60.559 Y82.74 E188.70352
G1 X60.757 Y82.069 E188.76964
G1 X61.029 Y81.424 E188.83579
G1 X61.373 Y80.815 E188.90188
G1 X61.785 Y80.249 E188.96804
G1 X62.194 Y79.797 E189.02565
G1 X62.297 Y79.694 E189.03941
G1 X62.819 Y79.228 E189.10554
G0 F4500 X63.052 Y79.49
G1 F1800 X63.61 Y79.102 E189.16976
G1 X64.209 Y78.781 E189.23398
G1 X64.841 Y78.533 E189.29814
G1 X65.499 Y78.361 E189.36241
G1 X66.172 Y78.268 E189.42661
G1 X66.628 Y78.25 E189.46974
G1 X156.372 Y78.25 E197.95055
G1 X157.05 Y78.29 E198.01473
G1 X157.719 Y78.409 E198.07894
G1 X158.369 Y78.606 E198.14313
G1 X158.992 Y78.878 E198.20737
G1 X159.578 Y79.222 E198.27158
G1 X160.12 Y79.632 E198.3358
G1 X160.456 Y79.941 E198.37894
G1 X160.559 Y80.044 E198.39271
G1 X161.01 Y80.552 E198.4569
G1 X161.398 Y81.11 E198.52113
G1 X161.719 Y81.709 E198.58535
G1 X161.967 Y82.341 E198.64951
G1 X162.139 Y82.999 E198.71378
G1 X162.232 Y83.672 E198.77798
G1 X162.25 Y84.128 E198.82111
G1 X162.25 Y138.872 E203.99441
G1 X162.21 Y139.55 E204.0586
G1 X162.091 Y140.219 E204.12281
G1 X161.894 Y140.869 E204.18699
G1 X161.622 Y141.492 E204.25123
G1 X161.278 Y142.078 E204.31545
G1 X160.868 Y142.62 E204.37967
G1 X160.559 Y142.956 E204.42281
G1 X160.456 Y143.059 E204.43657
G1 X159.948 Y143.51 E204.50077
G1 X159.39 Y143.898 E204.56499
G1 X158.791 Y144.219 E204.62921
G1 X158.159 Y144.467 E204.69337
G1 X157.501 Y144.639 E204.75764
G1 X156.828 Y144.732 E204.82184
G1 X156.372 Y144.75 E204.86497
G1 X66.628 Y144.75 E213.34578
G1 X65.95 Y144.71 E213.40996
G1 X65.281 Y144.591 E213.47417
G1 X64.631 Y144.394 E213.53836
G1 X64.008 Y144.122 E213.6026
G1 X63.422 Y143.778 E213.66681
G1 X62.88 Y143.368 E213.73103
G1 X62.544 Y143.059 E213.77417
G1 X62.441 Y142.956 E213.78794
G1 X61.99 Y142.448 E213.85213
G1 X61.602 Y141.89 E213.91636
G1 X61.281 Y141.291 E213.98058
G1 X61.033 Y140.659 E214.04474
G1 X60.861 Y140.001 E214.10901
G1 X60.768 Y139.328 E214.17321
G1 X60.75 Y138.872 E214.21634
G1 X60.75 Y84.128 E219.38964
G1 X60.79 Y83.45 E219.45383
G1 X60.909 Y82.781 E219.51804
G1 X61.106 Y82.131 E219.58222
G1 X61.378 Y81.508 E219.64646
G1 X61.722 Y80.922 E219.71068
G1 X62.132 Y80.38 E219.7749
G1 X62.441 Y80.044 E219.81804
G1 X62.544 Y79.941 E219.8318
G1 X63.052 Y79.49 E219.896
G0 F4500 X63.285 Y79.752
G1 F1800 X63.827 Y79.379 E219.95817
G1 X64.411 Y79.074 E220.02043
G1 X65.027 Y78.842 E220.08264
G1 X65.667 Y78.686 E220.14489
G1 X66.628 Y78.6 E220.23607
G1 X156.372 Y78.6 E228.71687
G1 X157.029 Y78.64 E228.77908
G1 X157.677 Y78.759 E228.84134
G1 X158.305 Y78.956 E228.90353
G1 X158.905 Y79.228 E228.96579
G1 X159.468 Y79.57 E229.02804
G1 X160.208 Y80.189 E229.11921
G1 X160.311 Y80.292 E229.13297
G1 X160.748 Y80.785 E229.19523
G1 X161.121 Y81.327 E229.25741
G1 X161.426 Y81.911 E229.31967
G1 X161.658 Y82.527 E229.38187
G1 X161.814 Y83.167 E229.44412
G1 X161.9 Y84.128 E229.5353
G1 X161.9 Y138.872 E234.70861
G1 X161.86 Y139.529 E234.77081
G1 X161.741 Y140.177 E234.83307
G1 X161.544 Y140.805 E234.89527
G1 X161.272 Y141.405 E234.95752
G1 X160.93 Y141.968 E235.01977
G1 X160.311 Y142.708 E235.11094
G1 X160.208 Y142.811 E235.1247
G1 X159.715 Y143.248 E235.18696
G1 X159.173 Y143.621 E235.24914
G1 X158.589 Y143.926 E235.3114
G1 X157.973 Y144.158 E235.3736
G1 X157.333 Y144.314 E235.43585
G1 X156.372 Y144.4 E235.52703
G1 X66.628 Y144.4 E244.00784
G1 X65.971 Y144.36 E244.07004
G1 X65.323 Y144.241 E244.1323
G1 X64.695 Y144.044 E244.1945
G1 X64.095 Y143.772 E244.25675
G1 X63.532 Y143.43 E244.319
G1 X62.792 Y142.811 E244.41017
G1 X62.689 Y142.708 E244.42394
G1 X62.252 Y142.215 E244.48619
G1 X61.879 Y141.673 E244.54837
G1 X61.574 Y141.089 E244.61063
G1 X61.342 Y140.473 E244.67283
G1 X61.186 Y139.833 E244.73509
G1 X61.1 Y138.872 E244.82626
G1 X61.1 Y84.128 E249.99957
G1 X61.14 Y83.471 E250.06177
G1 X61.259 Y82.823 E250.12403
G1 X61.456 Y82.195 E250.18623
G1 X61.728 Y81.595 E250.24848
G1 X62.07 Y81.032 E250.31073
G1 X62.689 Y80.292 E250.4019
G1 X62.792 Y80.189 E250.41567
