;FLAVOR:UltiGCode
;TIME:7183
;MATERIAL:13373
;MATERIAL2:0
;NOZZLE_DIAMETER:0.4
;Generated with Cura_SteamEngine 3.4.1
M82 ;absolute extrusion mode

G92 E0
G10
;LAYER_COUNT:46
;LAYER:0
M107
G0 F4500 X61.649 Y77.796 Z0.27
;TYPE:SKIRT
G11
G1 F1800 X62.298 Y77.34 E0.07496
G1 X62.99 Y76.951 E0.14997
G1 X63.717 Y76.633 E0.22496
G1 X64.473 Y76.39 E0.3
G1 X65.249 Y76.225 E0.37497
G1 X66.037 Y76.139 E0.44988
G1 X66.5 Y76.125 E0.49366
G1 X156.5 Y76.125 E8.99866
G1 X157.292 Y76.165 E9.07359
G1 X158.077 Y76.284 E9.14862
G1 X158.845 Y76.482 E9.22357
G1 X159.59 Y76.757 E9.29862
G1 X160.303 Y77.104 E9.37355
G1 X160.978 Y77.522 E9.44858
G1 X161.607 Y78.005 E9.52352
G1 X162.184 Y78.55 E9.59853
G1 X162.704 Y79.149 E9.67349
G1 X163.16 Y79.798 E9.74844
G1 X163.549 Y80.49 E9.82346
G1 X163.867 Y81.217 E9.89845
G1 X164.11 Y81.973 E9.97349
G1 X164.275 Y82.749 E10.04846
G1 X164.361 Y83.537 E10.12337
G1 X164.375 Y84 E10.16714
G1 X164.375 Y139 E15.36464
G1 X164.335 Y139.792 E15.43958
G1 X164.216 Y140.577 E15.51461
G1 X164.018 Y141.345 E15.58956
G1 X163.743 Y142.09 E15.66461
G1 X163.396 Y142.803 E15.73954
G1 X162.978 Y143.478 E15.81457
G1 X162.495 Y144.107 E15.88951
G1 X161.95 Y144.684 E15.96452
G1 X161.351 Y145.204 E16.03948
G1 X160.702 Y145.66 E16.11443
G1 X160.01 Y146.049 E16.18945
G1 X159.283 Y146.367 E16.26444
G1 X158.527 Y146.61 E16.33948
G1 X157.751 Y146.775 E16.41445
G1 X156.963 Y146.861 E16.48936
G1 X156.5 Y146.875 E16.53313
G1 X66.5 Y146.875 E25.03813
G1 X65.708 Y146.835 E25.11307
G1 X64.923 Y146.716 E25.1881
G1 X64.155 Y146.518 E25.26305
G1 X63.41 Y146.243 E25.3381
G1 X62.697 Y145.896 E25.41303
G1 X62.022 Y145.478 E25.48806
G1 X61.393 Y144.995 E25.563
G1 X60.816 Y144.45 E25.63801
G1 X60.296 Y143.851 E25.71297
G1 X59.84 Y143.202 E25.78792
G1 X59.451 Y142.51 E25.86294
G1 X59.133 Y141.783 E25.93793
G1 X58.89 Y141.027 E26.01297
G1 X58.725 Y140.251 E26.08794
G1 X58.639 Y139.463 E26.16285
G1 X58.625 Y139 E26.20662
G1 X58.625 Y84 E31.40412
G1 X58.665 Y83.208 E31.47906
G1 X58.784 Y82.423 E31.55409
G1 X58.982 Y81.655 E31.62904
G1 X59.257 Y80.91 E31.70408
G1 X59.604 Y80.197 E31.77902
G1 X60.022 Y79.522 E31.85405
G1 X60.505 Y78.893 E31.92899
G1 X61.05 Y78.316 E32.00399
G1 X61.649 Y77.796 E32.07895
G0 F4500 X61.99 Y77.976
G1 F1800 X62.634 Y77.544 E32.15224
G1 X63.319 Y77.181 E32.2255
G1 X64.038 Y76.889 E32.29883
G1 X64.783 Y76.674 E32.37211
G1 X65.546 Y76.536 E32.44538
G1 X66.5 Y76.475 E32.53572
G1 X156.5 Y76.475 E41.04072
G1 X157.275 Y76.515 E41.11405
G1 X158.041 Y76.634 E41.18731
G1 X158.791 Y76.832 E41.26061
G1 X159.517 Y77.106 E41.33394
G1 X160.21 Y77.453 E41.40718
G1 X160.864 Y77.87 E41.48048
G1 X161.472 Y78.352 E41.5538
G1 X162.027 Y78.894 E41.62711
G1 X162.524 Y79.49 E41.70044
G1 X162.956 Y80.134 E41.77372
G1 X163.319 Y80.819 E41.84698
G1 X163.611 Y81.538 E41.92032
G1 X163.826 Y82.283 E41.9936
G1 X163.964 Y83.046 E42.06687
G1 X164.025 Y84 E42.15721
G1 X164.025 Y139 E47.35471
G1 X163.985 Y139.775 E47.42804
G1 X163.866 Y140.541 E47.5013
G1 X163.668 Y141.291 E47.5746
G1 X163.394 Y142.017 E47.64793
G1 X163.047 Y142.71 E47.72117
G1 X162.63 Y143.364 E47.79447
G1 X162.148 Y143.972 E47.86779
G1 X161.606 Y144.527 E47.9411
G1 X161.01 Y145.024 E48.01443
G1 X160.366 Y145.456 E48.08771
G1 X159.681 Y145.819 E48.16097
G1 X158.962 Y146.111 E48.23431
G1 X158.217 Y146.326 E48.30758
G1 X157.454 Y146.464 E48.38086
G1 X156.5 Y146.525 E48.47119
G1 X66.5 Y146.525 E56.97619
G1 X65.725 Y146.485 E57.04953
G1 X64.959 Y146.366 E57.12278
G1 X64.209 Y146.168 E57.19609
G1 X63.483 Y145.894 E57.26942
G1 X62.79 Y145.547 E57.34266
G1 X62.136 Y145.13 E57.41595
G1 X61.528 Y144.648 E57.48928
G1 X60.973 Y144.106 E57.56258
G1 X60.476 Y143.51 E57.63592
G1 X60.044 Y142.866 E57.7092
G1 X59.681 Y142.181 E57.78246
G1 X59.389 Y141.462 E57.8558
G1 X59.174 Y140.717 E57.92907
G1 X59.036 Y139.954 E58.00234
G1 X58.975 Y139 E58.09268
G1 X58.975 Y84 E63.29018
G1 X59.015 Y83.225 E63.36352
G1 X59.134 Y82.459 E63.43677
G1 X59.332 Y81.709 E63.51008
G1 X59.606 Y80.983 E63.58341
G1 X59.953 Y80.29 E63.65665
G1 X60.37 Y79.636 E63.72994
G1 X60.852 Y79.028 E63.80326
G1 X61.394 Y78.473 E63.87657
G1 X61.99 Y77.976 E63.94991
G0 F4500 X62.329 Y78.162
G1 F1800 X62.968 Y77.755 E64.0215
G1 X63.646 Y77.417 E64.09309
G1 X64.355 Y77.153 E64.16459
G1 X65.089 Y76.965 E64.23619
G1 X65.838 Y76.856 E64.30771
G1 X66.5 Y76.825 E64.37034
G1 X156.5 Y76.825 E72.87534
G1 X157.256 Y76.865 E72.94688
G1 X158.004 Y76.984 E73.01846
G1 X158.735 Y77.182 E73.09003
G1 X159.442 Y77.456 E73.16168
G1 X160.115 Y77.802 E73.23319
G1 X160.748 Y78.218 E73.30477
G1 X161.334 Y78.698 E73.37636
G1 X161.866 Y79.237 E73.44792
G1 X162.338 Y79.829 E73.51947
G1 X162.745 Y80.468 E73.59107
G1 X163.083 Y81.146 E73.66266
G1 X163.347 Y81.855 E73.73415
G1 X163.535 Y82.589 E73.80575
G1 X163.644 Y83.338 E73.87728
G1 X163.675 Y84 E73.93991
G1 X163.675 Y139 E79.13741
G1 X163.635 Y139.756 E79.20895
G1 X163.516 Y140.504 E79.28052
G1 X163.318 Y141.235 E79.35209
G1 X163.044 Y141.942 E79.42375
G1 X162.698 Y142.615 E79.49526
G1 X162.282 Y143.248 E79.56684
G1 X161.802 Y143.834 E79.63842
G1 X161.263 Y144.366 E79.70999
G1 X160.671 Y144.838 E79.78154
G1 X160.032 Y145.245 E79.85313
G1 X159.354 Y145.583 E79.92472
G1 X158.645 Y145.847 E79.99622
G1 X157.911 Y146.035 E80.06782
G1 X157.162 Y146.144 E80.13935
G1 X156.5 Y146.175 E80.20197
G1 X66.5 Y146.175 E88.70697
G1 X65.744 Y146.135 E88.77851
G1 X64.996 Y146.016 E88.85009
G1 X64.265 Y145.818 E88.92166
G1 X63.558 Y145.544 E88.99331
G1 X62.885 Y145.198 E89.06482
G1 X62.252 Y144.782 E89.1364
G1 X61.666 Y144.302 E89.20799
G1 X61.134 Y143.763 E89.27955
G1 X60.662 Y143.171 E89.3511
G1 X60.255 Y142.532 E89.4227
G1 X59.917 Y141.854 E89.49429
G1 X59.653 Y141.145 E89.56578
G1 X59.465 Y140.411 E89.63738
G1 X59.356 Y139.662 E89.70891
G1 X59.325 Y139 E89.77154
G1 X59.325 Y84 E94.96904
G1 X59.365 Y83.244 E95.04058
G1 X59.484 Y82.496 E95.11215
G1 X59.682 Y81.765 E95.18372
G1 X59.956 Y81.058 E95.25538
G1 X60.302 Y80.385 E95.32689
G1 X60.718 Y79.752 E95.39847
G1 X61.198 Y79.166 E95.47005
G1 X61.737 Y78.634 E95.54162
G1 X62.329 Y78.162 E95.61317
G0 F4500 X62.079 Y78.8
G1 F1800 X62.667 Y78.353 E95.68297
G1 X63.3 Y77.972 E95.75279
G1 X63.97 Y77.661 E95.82259
G1 X64.67 Y77.425 E95.8924
G1 X65.391 Y77.266 E95.96217
G1 X66.126 Y77.185 E96.03205
G1 X66.5 Y77.175 E96.0674
G1 X156.5 Y77.175 E104.5724
G1 X157.238 Y77.215 E104.64225
G1 X157.966 Y77.334 E104.71195
G1 X158.678 Y77.532 E104.78179
G1 X159.364 Y77.805 E104.85156
G1 X160.017 Y78.151 E104.9214
G1 X160.629 Y78.565 E104.99122
G1 X161.192 Y79.043 E105.06102
G1 X161.7 Y79.579 E105.1308
G1 X162.147 Y80.167 E105.2006
G1 X162.528 Y80.8 E105.27042
G1 X162.839 Y81.47 E105.34022
G1 X163.075 Y82.17 E105.41003
G1 X163.234 Y82.891 E105.4798
G1 X163.315 Y83.626 E105.54968
G1 X163.325 Y84 E105.58504
G1 X163.325 Y139 E110.78254
G1 X163.285 Y139.738 E110.85238
G1 X163.166 Y140.466 E110.92209
G1 X162.968 Y141.178 E110.99193
G1 X162.695 Y141.864 E111.0617
G1 X162.349 Y142.517 E111.13153
G1 X161.935 Y143.129 E111.20136
G1 X161.457 Y143.692 E111.27115
G1 X160.921 Y144.2 E111.34094
G1 X160.333 Y144.647 E111.41074
G1 X159.7 Y145.028 E111.48056
G1 X159.03 Y145.339 E111.55036
G1 X158.33 Y145.575 E111.62017
G1 X157.609 Y145.734 E111.68994
G1 X156.874 Y145.815 E111.75982
G1 X156.5 Y145.825 E111.79517
G1 X66.5 Y145.825 E120.30017
G1 X65.762 Y145.785 E120.37002
G1 X65.034 Y145.666 E120.43972
G1 X64.322 Y145.468 E120.50956
G1 X63.636 Y145.195 E120.57933
G1 X62.983 Y144.849 E120.64917
G1 X62.371 Y144.435 E120.71899
G1 X61.808 Y143.957 E120.78879
G1 X61.3 Y143.421 E120.85857
G1 X60.853 Y142.833 E120.92837
G1 X60.472 Y142.2 E120.99819
G1 X60.161 Y141.53 E121.06799
G1 X59.925 Y140.83 E121.1378
G1 X59.766 Y140.109 E121.20757
G1 X59.685 Y139.374 E121.27745
G1 X59.675 Y139 E121.31281
G1 X59.675 Y84 E126.51031
G1 X59.715 Y83.262 E126.58015
G1 X59.834 Y82.534 E126.64986
G1 X60.032 Y81.822 E126.7197
G1 X60.305 Y81.136 E126.78947
G1 X60.651 Y80.483 E126.8593
G1 X61.065 Y79.871 E126.92913
G1 X61.543 Y79.308 E126.99892
G1 X62.079 Y78.8 E127.06871
G0 F4500 X62.421 Y78.971
G1 F1800 X63.004 Y78.55 E127.13666
G1 X63.631 Y78.196 E127.20471
G1 X64.292 Y77.913 E127.27266
G1 X64.981 Y77.706 E127.34064
G1 X65.689 Y77.576 E127.40867
G1 X66.5 Y77.525 E127.48546
G1 X156.5 Y77.525 E135.99046
G1 X157.218 Y77.565 E136.05841
G1 X157.928 Y77.684 E136.12644
G1 X158.62 Y77.882 E136.19446
G1 X159.285 Y78.155 E136.26239
G1 X159.917 Y78.5 E136.33044
G1 X160.506 Y78.913 E136.39842
G1 X161.045 Y79.389 E136.46637
G1 X161.529 Y79.921 E136.53434
G1 X161.95 Y80.504 E136.6023
G1 X162.304 Y81.131 E136.67034
G1 X162.587 Y81.792 E136.73829
G1 X162.794 Y82.481 E136.80627
G1 X162.924 Y83.189 E136.8743
G1 X162.975 Y84 E136.95109
G1 X162.975 Y139 E142.14859
G1 X162.935 Y139.718 E142.21654
G1 X162.816 Y140.428 E142.28458
G1 X162.618 Y141.12 E142.35259
G1 X162.345 Y141.785 E142.42053
G1 X162 Y142.417 E142.48857
G1 X161.587 Y143.006 E142.55655
G1 X161.111 Y143.545 E142.6245
G1 X160.579 Y144.029 E142.69247
G1 X159.996 Y144.45 E142.76043
G1 X159.369 Y144.804 E142.82847
G1 X158.708 Y145.087 E142.89642
G1 X158.019 Y145.294 E142.9644
G1 X157.311 Y145.424 E143.03243
G1 X156.5 Y145.475 E143.10922
G1 X66.5 Y145.475 E151.61422
G1 X65.782 Y145.435 E151.68218
G1 X65.072 Y145.316 E151.75021
G1 X64.38 Y145.118 E151.81822
G1 X63.715 Y144.845 E151.88616
G1 X63.083 Y144.5 E151.9542
G1 X62.494 Y144.087 E152.02218
G1 X61.955 Y143.611 E152.09013
G1 X61.471 Y143.079 E152.1581
G1 X61.05 Y142.496 E152.22606
G1 X60.696 Y141.869 E152.2941
G1 X60.413 Y141.208 E152.36205
G1 X60.206 Y140.519 E152.43003
G1 X60.076 Y139.811 E152.49806
G1 X60.025 Y139 E152.57485
G1 X60.025 Y84 E157.77235
G1 X60.065 Y83.282 E157.84031
G1 X60.184 Y82.572 E157.90834
G1 X60.382 Y81.88 E157.97636
G1 X60.655 Y81.215 E158.04429
G1 X61 Y80.583 E158.11233
G1 X61.413 Y79.994 E158.18031
G1 X61.889 Y79.455 E158.24826
G1 X62.421 Y78.971 E158.31623
G0 F4500 X62.762 Y79.148
G1 F1800 X63.34 Y78.753 E158.38239
G1 X63.959 Y78.427 E158.4485
G1 X64.611 Y78.173 E158.51462
G1 X65.288 Y77.996 E158.58075
G1 X65.981 Y77.897 E158.64691
G1 X66.5 Y77.875 E158.69599
G1 X156.5 Y77.875 E167.20099
G1 X157.199 Y77.915 E167.26716
G1 X157.888 Y78.034 E167.33323
G1 X158.559 Y78.232 E167.39935
G1 X159.204 Y78.504 E167.4655
G1 X159.813 Y78.848 E167.53159
G1 X160.379 Y79.26 E167.59775
G1 X160.894 Y79.733 E167.66383
G1 X161.352 Y80.262 E167.72995
G1 X161.747 Y80.84 E167.79611
G1 X162.073 Y81.459 E167.86222
G1 X162.327 Y82.111 E167.92835
G1 X162.504 Y82.788 E167.99447
G1 X162.603 Y83.481 E168.06063
G1 X162.625 Y84 E168.10972
G1 X162.625 Y139 E173.30722
G1 X162.585 Y139.699 E173.37338
G1 X162.466 Y140.388 E173.43945
G1 X162.268 Y141.059 E173.50557
G1 X161.996 Y141.704 E173.57172
G1 X161.652 Y142.313 E173.63781
G1 X161.24 Y142.879 E173.70397
G1 X160.767 Y143.394 E173.77005
G1 X160.238 Y143.852 E173.83617
G1 X159.66 Y144.247 E173.90233
G1 X159.041 Y144.573 E173.96844
G1 X158.389 Y144.827 E174.03457
G1 X157.712 Y145.004 E174.10069
G1 X157.019 Y145.103 E174.16685
G1 X156.5 Y145.125 E174.21594
G1 X66.5 Y145.125 E182.72094
G1 X65.801 Y145.085 E182.7871
G1 X65.112 Y144.966 E182.85318
G1 X64.441 Y144.768 E182.91929
G1 X63.796 Y144.496 E182.98544
G1 X63.187 Y144.152 E183.05154
G1 X62.621 Y143.74 E183.11769
G1 X62.106 Y143.267 E183.18377
G1 X61.648 Y142.738 E183.2499
G1 X61.253 Y142.16 E183.31605
G1 X60.927 Y141.541 E183.38216
G1 X60.673 Y140.889 E183.44829
G1 X60.496 Y140.212 E183.51442
G1 X60.397 Y139.519 E183.58057
G1 X60.375 Y139 E183.62966
G1 X60.375 Y84 E188.82716
G1 X60.415 Y83.301 E188.89332
G1 X60.534 Y82.612 E188.9594
G1 X60.732 Y81.941 E189.02551
G1 X61.004 Y81.296 E189.09166
G1 X61.348 Y80.687 E189.15776
G1 X61.76 Y80.121 E189.22391
G1 X62.233 Y79.606 E189.28999
G1 X62.762 Y79.148 E189.35612
G0 F4500 X63.102 Y79.331
G1 F1800 X63.674 Y78.964 E189.42034
G1 X64.285 Y78.667 E189.48454
G1 X64.927 Y78.443 E189.5488
G1 X65.59 Y78.297 E189.61295
G1 X66.5 Y78.225 E189.69921
G1 X156.5 Y78.225 E198.20421
G1 X157.178 Y78.265 E198.2684
G1 X157.847 Y78.384 E198.33261
G1 X158.497 Y78.581 E198.39679
G1 X159.12 Y78.853 E198.46103
G1 X159.706 Y79.197 E198.52525
G1 X160.248 Y79.607 E198.58947
G1 X160.738 Y80.077 E198.65363
G1 X161.169 Y80.602 E198.71782
G1 X161.536 Y81.174 E198.78204
G1 X161.833 Y81.785 E198.84624
G1 X162.057 Y82.427 E198.9105
G1 X162.203 Y83.09 E198.97465
G1 X162.275 Y84 E199.06092
G1 X162.275 Y139 E204.25842
G1 X162.235 Y139.678 E204.3226
G1 X162.116 Y140.347 E204.38681
G1 X161.919 Y140.997 E204.451
G1 X161.647 Y141.62 E204.51524
G1 X161.303 Y142.206 E204.57945
G1 X160.893 Y142.748 E204.64367
G1 X160.423 Y143.238 E204.70784
G1 X159.898 Y143.669 E204.77203
G1 X159.326 Y144.036 E204.83625
G1 X158.715 Y144.333 E204.90045
G1 X158.073 Y144.557 E204.96471
G1 X157.41 Y144.703 E205.02886
G1 X156.5 Y144.775 E205.11512
G1 X66.5 Y144.775 E213.62012
G1 X65.822 Y144.735 E213.68431
G1 X65.153 Y144.616 E213.74852
G1 X64.503 Y144.419 E213.8127
G1 X63.88 Y144.147 E213.87694
G1 X63.294 Y143.803 E213.94116
G1 X62.752 Y143.393 E214.00538
G1 X62.262 Y142.923 E214.06954
G1 X61.831 Y142.398 E214.13373
G1 X61.464 Y141.826 E214.19795
G1 X61.167 Y141.215 E214.26215
G1 X60.943 Y140.573 E214.32641
G1 X60.797 Y139.91 E214.39056
G1 X60.725 Y139 E214.47683
G1 X60.725 Y84 E219.67433
G1 X60.765 Y83.322 E219.73851
G1 X60.884 Y82.653 E219.80272
G1 X61.081 Y82.003 E219.86691
G1 X61.353 Y81.38 E219.93115
G1 X61.697 Y80.794 E219.99536
G1 X62.107 Y80.252 E220.05958
G1 X62.577 Y79.762 E220.12375
G1 X63.102 Y79.331 E220.18794
G0 F4500 X62.92 Y79.924
G1 F1800 X63.441 Y79.52 E220.25024
G1 X64.006 Y79.182 E220.31246
G1 X64.608 Y78.916 E220.37465
G1 X65.238 Y78.724 E220.43689
G1 X65.886 Y78.61 E220.49907
G1 X66.5 Y78.575 E220.55718
G1 X156.5 Y78.575 E229.06218
G1 X157.157 Y78.615 E229.12438
G1 X157.805 Y78.734 E229.18664
G1 X158.433 Y78.931 E229.24884
G1 X159.033 Y79.203 E229.3111
G1 X159.596 Y79.545 E229.37335
G1 X160.113 Y79.953 E229.43558
G1 X160.576 Y80.42 E229.49773
G1 X160.98 Y80.941 E229.56003
G1 X161.318 Y81.506 E229.62225
G1 X161.584 Y82.108 E229.68444
G1 X161.776 Y82.738 E229.74668
G1 X161.89 Y83.386 E229.80886
G1 X161.925 Y84 E229.86698
G1 X161.925 Y139 E235.06448
G1 X161.885 Y139.657 E235.12668
G1 X161.766 Y140.305 E235.18894
G1 X161.569 Y140.933 E235.25114
G1 X161.297 Y141.533 E235.31339
G1 X160.955 Y142.096 E235.37564
G1 X160.547 Y142.613 E235.43788
G1 X160.08 Y143.076 E235.50002
G1 X159.559 Y143.48 E235.56232
G1 X158.994 Y143.818 E235.62454
G1 X158.392 Y144.084 E235.68674
G1 X157.762 Y144.276 E235.74898
G1 X157.114 Y144.39 E235.81115
G1 X156.5 Y144.425 E235.86927
G1 X66.5 Y144.425 E244.37427
G1 X65.843 Y144.385 E244.43647
G1 X65.195 Y144.266 E244.49873
G1 X64.567 Y144.069 E244.56093
G1 X63.967 Y143.797 E244.62318
G1 X63.404 Y143.455 E244.68543
G1 X62.887 Y143.047 E244.74767
G1 X62.424 Y142.58 E244.80981
G1 X62.02 Y142.059 E244.87212
G1 X61.682 Y141.494 E244.93433
G1 X61.416 Y140.892 E244.99653
G1 X61.224 Y140.262 E245.05877
G1 X61.11 Y139.614 E245.12094
G1 X61.075 Y139 E245.17906
G1 X61.075 Y84 E250.37656
G1 X61.115 Y83.343 E250.43876
G1 X61.234 Y82.695 E250.50102
G1 X61.431 Y82.067 E250.56322
G1 X61.703 Y81.467 E250.62547
G1 X62.045 Y80.904 E250.68773
G1 X62.453 Y80.387 E250.74996
G1 X62.92 Y79.924 E250.81211
G0 F4500 X63.263 Y80.092
G1 F1800 X63.778 Y79.717 E250.87231
G1 X64.335 Y79.41 E250.93241
G1 X64.927 Y79.175 E250.9926
G1 X65.544 Y79.016 E251.05281
G1 X66.176 Y78.935 E251.11303
G1 X66.5 Y78.925 E251.14366
G1 X156.5 Y78.925 E259.64866
G1 X157.136 Y78.965 E259.70888
G1 X157.761 Y79.084 E259.769
G1 X158.367 Y79.281 E259.82922
G1 X158.943 Y79.552 E259.88938
G1 X159.481 Y79.893 E259.94957
G1 X159.972 Y80.299 E260.00978
G1 X160.408 Y80.763 E260.06995
G1 X160.783 Y81.278 E260.13015
G1 X161.09 Y81.835 E260.19025
G1 X161.325 Y82.427 E260.25044
G1 X161.484 Y83.044 E260.31065
G1 X161.565 Y83.676 E260.37086
G1 X161.575 Y84 E260.4015
G1 X161.575 Y139 E265.599
G1 X161.535 Y139.636 E265.65922
G1 X161.416 Y140.261 E265.71934
G1 X161.219 Y140.867 E265.77956
G1 X160.948 Y141.443 E265.83971
G1 X160.607 Y141.981 E265.89991
G1 X160.201 Y142.472 E265.96011
