;FLAVOR:UltiGCode
;TIME:380
;MATERIAL:615
;MATERIAL2:0
;NOZZLE_DIAMETER:0.4
;Generated with Cura_SteamEngine 3.4.1
M82 ;absolute extrusion mode

G92 E0
G10
;LAYER_COUNT:6
;LAYER:0
M107
G0 F4500 X89.381 Y89.831 Z0.27
;TYPE:SKIRT
G11
G1 F1800 X89.946 Y89.274 E0.07498
G1 X90.292 Y88.974 E0.11825
G1 X90.94 Y88.483 E0.19508
G1 X91.512 Y88.131 E0.25855
G1 X92.905 Y87.445 E0.40529
G1 X93.397 Y87.247 E0.4554
G1 X93.735 Y87.158 E0.48843
G1 X95.258 Y86.837 E0.63552
G1 X95.784 Y86.767 E0.68566
G1 X96.139 Y86.764 E0.71921
G1 X97.718 Y86.833 E0.86857
G1 X98.245 Y86.896 E0.91873
G1 X98.593 Y86.984 E0.95265
G1 X100.07 Y87.435 E1.09859
G1 X100.565 Y87.627 E1.14876
G1 X100.87 Y87.792 E1.18153
G1 X102.205 Y88.602 E1.32909
G1 X102.75 Y89.01 E1.39343
G1 X103.411 Y89.612 E1.47792
G1 X103.638 Y89.839 E1.50825
G1 X107.013 Y93.528 E1.98075
G1 X108.911 Y95.438 E2.2352
G1 X113.355 Y99.557 E2.80781
G1 X113.588 Y99.794 E2.83922
G1 X115.114 Y101.502 E3.05566
G1 X118.926 Y105.452 E3.57441
G1 X123.355 Y109.557 E4.14508
G1 X123.588 Y109.794 E4.17648
G1 X125.114 Y111.502 E4.39293
G1 X128.926 Y115.452 E4.91168
G1 X133.355 Y119.557 E5.48234
G1 X133.765 Y120.009 E5.54001
G1 X134.7 Y121.239 E5.68602
G1 X134.989 Y121.684 E5.73616
G1 X135.139 Y121.995 E5.76879
G1 X135.738 Y123.406 E5.91365
G1 X135.936 Y124.028 E5.97533
G1 X136.112 Y124.831 E6.05302
G1 X136.193 Y125.502 E6.11689
G1 X136.229 Y127.021 E6.26047
G1 X136.184 Y127.676 E6.32252
G1 X136.05 Y128.493 E6.40076
G1 X135.877 Y129.144 E6.46441
G1 X135.344 Y130.586 E6.60969
G1 X135.06 Y131.18 E6.67191
G1 X134.64 Y131.879 E6.74897
G1 X134.237 Y132.423 E6.81295
G1 X133.199 Y133.575 E6.95949
G1 X132.815 Y133.941 E7.00962
G1 X132.536 Y134.148 E7.04245
G1 X131.242 Y135.011 E7.18943
G1 X130.779 Y135.271 E7.23961
G1 X130.453 Y135.404 E7.27288
G1 X128.991 Y135.917 E7.4193
G1 X128.365 Y136.074 E7.48029
G1 X127.611 Y136.191 E7.55239
G1 X126.935 Y136.23 E7.61638
G1 X125.313 Y136.168 E7.76977
G1 X124.632 Y136.075 E7.83473
G1 X123.867 Y135.893 E7.90904
G1 X123.403 Y135.748 E7.95497
G1 X122.459 Y135.38 E8.05072
G1 X122.204 Y135.269 E8.077
G1 X118.165 Y133.314 E8.50105
G1 X113.074 Y131.176 E9.02285
G1 X110.588 Y130.256 E9.27335
G1 X105.376 Y128.571 E9.79098
G1 X100.081 Y127.185 E10.30822
G1 X97.371 Y126.596 E10.57029
G1 X94.074 Y125.943 E10.88791
G1 X93.557 Y125.799 E10.93863
G1 X92.763 Y125.511 E11.01844
G1 X92.14 Y125.213 E11.08371
G1 X90.816 Y124.412 E11.22994
G1 X90.384 Y124.104 E11.28008
G1 X90.137 Y123.877 E11.31178
G1 X89.07 Y122.8 E11.45505
G1 X88.655 Y122.296 E11.51674
G1 X88.187 Y121.605 E11.59561
G1 X87.861 Y121.005 E11.66014
G1 X87.262 Y119.594 E11.80499
G1 X87.064 Y118.971 E11.86677
G1 X86.888 Y118.167 E11.94455
G1 X86.807 Y117.494 E12.0086
G1 X86.772 Y115.963 E12.15332
G1 X86.776 Y115.686 E12.1795
G1 X87.191 Y108.246 E12.88367
G1 X87.141 Y102.8 E13.39834
G1 X86.748 Y96.843 E13.9625
G1 X86.76 Y96.236 E14.01988
G1 X86.925 Y94.695 E14.16633
G1 X87.021 Y94.173 E14.21649
G1 X87.128 Y93.836 E14.2499
G1 X87.675 Y92.373 E14.3975
G1 X87.898 Y91.891 E14.44769
G1 X88.081 Y91.597 E14.48042
G1 X88.96 Y90.331 E14.62606
G1 X89.381 Y89.831 E14.68783
G0 F4500 X89.627 Y90.08
G1 F1800 X90.192 Y89.523 E14.76281
G1 X90.504 Y89.253 E14.8018
G1 X91.152 Y88.762 E14.87863
G1 X91.666 Y88.445 E14.9357
G1 X93.059 Y87.759 E15.08243
G1 X93.527 Y87.573 E15.13002
G1 X93.807 Y87.5 E15.15737
G1 X95.33 Y87.179 E15.30445
G1 X95.83 Y87.115 E15.35209
G1 X96.124 Y87.114 E15.37987
G1 X97.703 Y87.183 E15.52923
G1 X98.202 Y87.245 E15.57675
G1 X98.491 Y87.318 E15.60491
G1 X99.968 Y87.769 E15.75085
G1 X100.437 Y87.954 E15.7985
G1 X100.688 Y88.092 E15.82557
G1 X102.023 Y88.902 E15.97313
G1 X102.514 Y89.269 E16.03106
G1 X103.175 Y89.871 E16.11554
G1 X103.38 Y90.075 E16.14287
G1 X106.766 Y93.776 E16.61691
G1 X108.659 Y95.682 E16.87076
G1 X113.117 Y99.813 E17.44511
G1 X113.327 Y100.027 E17.47344
G1 X114.848 Y101.73 E17.68922
G1 X118.683 Y105.704 E18.21111
G1 X123.117 Y109.813 E18.78238
G1 X123.327 Y110.027 E18.81072
G1 X124.848 Y111.73 E19.02649
G1 X128.683 Y115.704 E19.54838
G1 X133.117 Y119.813 E20.11965
G1 X133.487 Y120.221 E20.1717
G1 X134.422 Y121.451 E20.31771
G1 X134.694 Y121.874 E20.36523
G1 X134.817 Y122.131 E20.39216
G1 X135.416 Y123.542 E20.53701
G1 X135.594 Y124.103 E20.59263
G1 X135.77 Y124.906 E20.67032
G1 X135.843 Y125.511 E20.72791
G1 X135.879 Y127.03 E20.87149
G1 X135.838 Y127.619 E20.92729
G1 X135.704 Y128.436 E21.00552
G1 X135.549 Y129.023 E21.0629
G1 X135.016 Y130.465 E21.20818
G1 X134.76 Y130.999 E21.26414
G1 X134.34 Y131.698 E21.3412
G1 X133.977 Y132.188 E21.39883
G1 X132.939 Y133.34 E21.54537
G1 X132.573 Y133.687 E21.59303
G1 X132.342 Y133.856 E21.62007
G1 X131.048 Y134.719 E21.76706
G1 X130.608 Y134.965 E21.8147
G1 X130.337 Y135.074 E21.8423
G1 X128.875 Y135.587 E21.98872
G1 X128.311 Y135.728 E22.04365
G1 X127.557 Y135.845 E22.11576
G1 X126.949 Y135.881 E22.17332
G1 X125.327 Y135.819 E22.32671
G1 X124.713 Y135.735 E22.38527
G1 X123.948 Y135.553 E22.45958
G1 X123.53 Y135.422 E22.50098
G1 X122.586 Y135.054 E22.59672
G1 X122.356 Y134.954 E22.62042
G1 X118.303 Y132.993 E23.04591
G1 X113.213 Y130.855 E23.56762
G1 X110.699 Y129.925 E23.82093
G1 X105.462 Y128.232 E24.34105
G1 X100.171 Y126.846 E24.85792
G1 X97.466 Y126.258 E25.11951
G1 X94.142 Y125.6 E25.43972
G1 X93.676 Y125.47 E25.48544
G1 X92.882 Y125.182 E25.56526
G1 X92.322 Y124.914 E25.62392
G1 X90.998 Y124.113 E25.77016
G1 X90.589 Y123.819 E25.81776
G1 X90.385 Y123.631 E25.84397
G1 X89.318 Y122.554 E25.98724
G1 X88.945 Y122.099 E26.04284
G1 X88.477 Y121.408 E26.12171
G1 X88.183 Y120.869 E26.17973
G1 X87.584 Y119.458 E26.32458
G1 X87.405 Y118.896 E26.38032
G1 X87.229 Y118.092 E26.4581
G1 X87.157 Y117.486 E26.51577
G1 X87.122 Y115.955 E26.66048
G1 X87.126 Y115.705 E26.68411
G1 X87.541 Y108.262 E27.38857
G1 X87.491 Y102.792 E27.90551
G1 X87.097 Y96.82 E28.47109
G1 X87.108 Y96.273 E28.52279
G1 X87.273 Y94.732 E28.66924
G1 X87.366 Y94.237 E28.71684
G1 X87.456 Y93.958 E28.74454
G1 X88.003 Y92.495 E28.89215
G1 X88.216 Y92.039 E28.93971
G1 X88.369 Y91.796 E28.96684
G1 X89.248 Y90.53 E29.11249
G1 X89.627 Y90.08 E29.16809
G10
G0 F4500 X94.279 Y89.923
G0 X94.734 Y91.077
G0 X97.543 Y90.974
G0 X97.561 Y90.876
;TYPE:WALL-INNER
G11
G1 F1800 X98.272 Y91.058 E29.23744
G1 X98.938 Y91.321 E29.30511
G1 X99.568 Y91.668 E29.37308
G1 X100.144 Y92.085 E29.44028
G1 X100.677 Y92.587 E29.50947
G1 X101.132 Y93.136 E29.57685
G1 X101.516 Y93.741 E29.64457
G1 X101.821 Y94.391 E29.71242
G1 X102.046 Y95.082 E29.78109
G1 X102.178 Y95.777 E29.84794
G1 X102.224 Y96.5 E29.91641
G1 X102.178 Y97.223 E29.98487
G1 X102.046 Y97.918 E30.05172
G1 X101.821 Y98.609 E30.12039
G1 X101.516 Y99.259 E30.18824
G1 X101.132 Y99.864 E30.25596
G1 X100.677 Y100.413 E30.32334
G1 X100.144 Y100.915 E30.39253
G1 X99.568 Y101.332 E30.45973
G1 X98.938 Y101.679 E30.5277
G1 X98.272 Y101.942 E30.59537
G1 X97.561 Y102.124 E30.66472
G1 X96.865 Y102.213 E30.73103
G1 X96.135 Y102.213 E30.80002
G1 X95.439 Y102.124 E30.86632
G1 X94.728 Y101.942 E30.93568
G1 X94.062 Y101.679 E31.00335
G1 X93.432 Y101.332 E31.07131
G1 X92.856 Y100.915 E31.13851
G1 X92.323 Y100.413 E31.2077
G1 X91.868 Y99.864 E31.27509
G1 X91.484 Y99.259 E31.3428
G1 X91.179 Y98.609 E31.41065
G1 X90.954 Y97.918 E31.47933
G1 X90.822 Y97.223 E31.54618
G1 X90.776 Y96.5 E31.61464
G1 X90.822 Y95.777 E31.6831
G1 X90.954 Y95.082 E31.74995
G1 X91.179 Y94.391 E31.81863
G1 X91.484 Y93.741 E31.88648
G1 X91.868 Y93.136 E31.9542
G1 X92.323 Y92.587 E32.02158
G1 X92.856 Y92.085 E32.09077
G1 X93.432 Y91.668 E32.15797
G1 X94.062 Y91.321 E32.22594
G1 X94.728 Y91.058 E32.2936
G1 X95.439 Y90.876 E32.36296
G1 X96.135 Y90.787 E32.42927
G1 X96.865 Y90.787 E32.49825
G1 X97.561 Y90.876 E32.56456
G0 F4500 X97.543 Y90.974
G0 X94.984 Y96.111
G0 X94.947 Y96.694
G0 X95.048 Y97.011
G0 X95.316 Y97.615
G0 X95.388 Y97.547
G1 F1800 X95.529 Y97.676 E32.58262
G1 X95.681 Y97.788 E32.60046
G1 X95.85 Y97.881 E32.61869
G1 X96.029 Y97.952 E32.63689
G1 X96.214 Y97.999 E32.65493
G1 X96.403 Y98.023 E32.67293
G1 X96.597 Y98.023 E32.69126
G1 X96.786 Y97.999 E32.70927
G1 X96.971 Y97.952 E32.7273
G1 X97.15 Y97.881 E32.7455
G1 X97.319 Y97.788 E32.76373
G1 X97.471 Y97.676 E32.78157
G1 X97.612 Y97.547 E32.79963
G1 X97.735 Y97.397 E32.81796
G1 X97.837 Y97.236 E32.83598
G1 X97.919 Y97.062 E32.85415
G1 X97.978 Y96.88 E32.87223
G1 X98.014 Y96.69 E32.89051
G1 X98.026 Y96.5 E32.9085
G1 X98.014 Y96.31 E32.92649
G1 X97.978 Y96.12 E32.94476
G1 X97.919 Y95.938 E32.96284
G1 X97.837 Y95.764 E32.98102
G1 X97.734 Y95.602 E32.99916
G1 X97.612 Y95.455 E33.01721
G1 X97.471 Y95.322 E33.03553
G1 X97.317 Y95.212 E33.05342
G1 X97.15 Y95.12 E33.07143
G1 X96.971 Y95.048 E33.08967
G1 X96.786 Y95.001 E33.1077
G1 X96.597 Y94.977 E33.12571
G1 X96.403 Y94.977 E33.14404
G1 X96.214 Y95.001 E33.16205
G1 X96.029 Y95.048 E33.18008
G1 X95.85 Y95.12 E33.19832
G1 X95.683 Y95.212 E33.21633
G1 X95.529 Y95.322 E33.23422
G1 X95.388 Y95.455 E33.25253
G1 X95.266 Y95.602 E33.27059
G1 X95.163 Y95.764 E33.28873
G1 X95.081 Y95.938 E33.30691
G1 X95.022 Y96.12 E33.32499
G1 X94.986 Y96.31 E33.34326
G1 X94.974 Y96.5 E33.36125
G1 X94.986 Y96.69 E33.37924
G1 X95.022 Y96.88 E33.39752
G1 X95.081 Y97.062 E33.4156
G1 X95.163 Y97.236 E33.43377
G1 X95.265 Y97.397 E33.45178
G1 X95.388 Y97.547 E33.47012
G0 F4500 X95.625 Y97.323
;TYPE:WALL-OUTER
G1 F1800 X95.736 Y97.425 E33.48436
G1 X95.856 Y97.513 E33.49842
G1 X95.989 Y97.586 E33.51276
G1 X96.13 Y97.642 E33.5271
G1 X96.275 Y97.679 E33.54124
G1 X96.424 Y97.698 E33.55543
G1 X96.576 Y97.698 E33.5698
G1 X96.725 Y97.679 E33.58399
G1 X96.87 Y97.642 E33.59813
G1 X97.011 Y97.586 E33.61247
G1 X97.144 Y97.513 E33.62681
G1 X97.264 Y97.425 E33.64087
G1 X97.375 Y97.323 E33.65512
G1 X97.471 Y97.206 E33.66942
G1 X97.552 Y97.079 E33.68365
G1 X97.616 Y96.942 E33.69794
G1 X97.663 Y96.799 E33.71217
G1 X97.691 Y96.65 E33.72649
G1 X97.7 Y96.5 E33.7407
G1 X97.691 Y96.35 E33.7549
G1 X97.663 Y96.201 E33.76922
G1 X97.616 Y96.058 E33.78345
G1 X97.552 Y95.921 E33.79774
G1 X97.471 Y95.794 E33.81197
G1 X97.375 Y95.678 E33.8262
G1 X97.264 Y95.574 E33.84058
G1 X97.143 Y95.487 E33.85466
G1 X97.011 Y95.414 E33.86891
G1 X96.87 Y95.358 E33.88325
G1 X96.725 Y95.321 E33.89739
G1 X96.576 Y95.302 E33.91159
G1 X96.424 Y95.302 E33.92595
G1 X96.275 Y95.321 E33.94014
G1 X96.13 Y95.358 E33.95429
G1 X95.989 Y95.414 E33.96862
G1 X95.857 Y95.487 E33.98288
G1 X95.736 Y95.574 E33.99696
G1 X95.625 Y95.678 E34.01133
G1 X95.529 Y95.794 E34.02556
G1 X95.448 Y95.921 E34.0398
G1 X95.384 Y96.058 E34.05409
G1 X95.337 Y96.201 E34.06831
G1 X95.309 Y96.35 E34.08264
G1 X95.3 Y96.5 E34.09684
G1 X95.309 Y96.65 E34.11104
G1 X95.337 Y96.799 E34.12537
G1 X95.384 Y96.942 E34.13959
G1 X95.448 Y97.079 E34.15388
G1 X95.529 Y97.206 E34.16812
G1 X95.625 Y97.323 E34.18242
G0 F4500 X95.736 Y97.425
G0 X95.776 Y97.454
G0 X95.524 Y97.795
G0 X95.044 Y97.076
G0 X94.934 Y96.5
G0 X95.023 Y96.034
G0 X97.543 Y90.974
G0 X97.627 Y90.557
G1 F1800 X98.37 Y90.747 E34.25489
G1 X99.08 Y91.028 E34.32705
G1 X99.74 Y91.391 E34.39823
G1 X100.354 Y91.836 E34.46989
G1 X100.91 Y92.359 E34.54203
G1 X101.395 Y92.945 E34.61391
G1 X101.802 Y93.586 E34.68566
G1 X102.125 Y94.274 E34.75749
G1 X102.361 Y94.999 E34.82954
G1 X102.501 Y95.735 E34.90034
G1 X102.549 Y96.5 E34.97277
G1 X102.501 Y97.265 E35.04521
G1 X102.361 Y98.001 E35.11601
G1 X102.125 Y98.726 E35.18806
G1 X101.802 Y99.414 E35.25988
G1 X101.395 Y100.055 E35.33163
G1 X100.91 Y100.641 E35.40352
G1 X100.354 Y101.164 E35.47565
G1 X99.74 Y101.609 E35.54731
G1 X99.08 Y101.972 E35.61849
G1 X98.37 Y102.253 E35.69065
G1 X97.627 Y102.443 E35.76312
G1 X96.883 Y102.538 E35.834
G1 X96.117 Y102.538 E35.90639
G1 X95.373 Y102.443 E35.97727
G1 X94.63 Y102.253 E36.04974
G1 X93.92 Y101.972 E36.1219
G1 X93.26 Y101.609 E36.19308
G1 X92.646 Y101.164 E36.26474
G1 X92.09 Y100.641 E36.33687
G1 X91.605 Y100.055 E36.40876
G1 X91.198 Y99.414 E36.48051
G1 X90.875 Y98.726 E36.55234
G1 X90.639 Y98.001 E36.62439
G1 X90.499 Y97.265 E36.69519
G1 X90.451 Y96.5 E36.76762
G1 X90.499 Y95.735 E36.84006
G1 X90.639 Y94.999 E36.91085
G1 X90.875 Y94.274 E36.98291
G1 X91.198 Y93.586 E37.05473
G1 X91.605 Y92.945 E37.12648
G1 X92.09 Y92.359 E37.19837
G1 X92.646 Y91.836 E37.2705
G1 X93.26 Y91.391 E37.34216
G1 X93.92 Y91.028 E37.41334
G1 X94.63 Y90.747 E37.4855
G1 X95.373 Y90.557 E37.55797
G1 X96.117 Y90.462 E37.62885
G1 X96.883 Y90.462 E37.70124
G1 X97.627 Y90.557 E37.77212
G0 F4500 X97.82 Y90.606
G0 X97.498 Y91.212
;TYPE:SKIN
G1 F1800 X98.165 Y91.383 E37.83719
G1 X98.797 Y91.631 E37.90135
G1 X99.38 Y91.953 E37.96428
G1 X99.934 Y92.354 E38.02891
G1 X100.425 Y92.816 E38.09262
G1 X100.855 Y93.336 E38.15639
G1 X101.223 Y93.913 E38.22106
G1 X101.503 Y94.512 E38.28354
G1 X101.715 Y95.163 E38.34824
G1 X101.839 Y95.812 E38.41068
G1 X101.882 Y96.5 E38.47583
G1 X101.839 Y97.185 E38.54069
G1 X101.715 Y97.837 E38.60341
G1 X101.503 Y98.488 E38.6681
G1 X101.223 Y99.087 E38.73059
G1 X100.855 Y99.664 E38.79526
G1 X100.425 Y100.184 E38.85903
G1 X99.934 Y100.646 E38.92274
G1 X99.38 Y101.047 E38.98736
G1 X98.797 Y101.369 E39.0503
G1 X98.165 Y101.617 E39.11446
G1 X97.498 Y101.788 E39.17953
G1 X96.838 Y101.873 E39.24242
G1 X96.162 Y101.873 E39.3063
G1 X95.502 Y101.788 E39.36918
G1 X94.835 Y101.617 E39.43425
G1 X94.203 Y101.369 E39.49841
G1 X93.62 Y101.047 E39.56135
G1 X93.066 Y100.646 E39.62598
G1 X92.575 Y100.184 E39.68969
G1 X92.145 Y99.664 E39.75345
G1 X91.777 Y99.087 E39.81812
G1 X91.497 Y98.488 E39.88061
G1 X91.285 Y97.837 E39.94531
G1 X91.161 Y97.185 E40.00803
G1 X91.118 Y96.5 E40.07289
G1 X91.161 Y95.812 E40.13803
G1 X91.285 Y95.163 E40.20047
G1 X91.497 Y94.512 E40.26517
G1 X91.777 Y93.913 E40.32765
G1 X92.145 Y93.336 E40.39233
G1 X92.575 Y92.816 E40.45609
G1 X93.066 Y92.354 E40.5198
G1 X93.62 Y91.953 E40.58443
G1 X94.203 Y91.631 E40.64737
G1 X94.835 Y91.383 E40.71153
G1 X95.502 Y91.212 E40.7766
G1 X96.162 Y91.127 E40.83948
G1 X96.838 Y91.127 E40.90336
G1 X97.498 Y91.212 E40.96625
G0 F4500 X96.85 Y94.667
G1 F1800 X96.619 Y94.637 E40.98826
G1 X96.381 Y94.637 E41.01075
G1 X96.15 Y94.667 E41.03276
G1 X95.924 Y94.724 E41.05479
G1 X95.704 Y94.813 E41.07722
G1 X95.502 Y94.924 E41.099
G1 X95.313 Y95.059 E41.12095
G1 X95.14 Y95.222 E41.14341
G1 X94.99 Y95.402 E41.16555
G1 X94.864 Y95.599 E41.18765
G1 X94.764 Y95.812 E41.20989
G1 X94.692 Y96.036 E41.23212
G1 X94.648 Y96.268 E41.25444
G1 X94.634 Y96.5 E41.2764
G1 X94.648 Y96.732 E41.29836
G1 X94.692 Y96.964 E41.32068
G1 X94.764 Y97.188 E41.34291
G1 X94.864 Y97.4 E41.36506
G1 X94.989 Y97.597 E41.38711
G1 X95.141 Y97.782 E41.40974
G1 X95.313 Y97.938 E41.43168
G1 X95.497 Y98.075 E41.45336
G1 X95.705 Y98.19 E41.47582
G1 X95.924 Y98.276 E41.49805
G1 X96.15 Y98.333 E41.52008
G1 X96.381 Y98.363 E41.54209
G1 X96.619 Y98.363 E41.56458
G1 X96.85 Y98.333 E41.5866
G1 X97.076 Y98.276 E41.60862
G1 X97.295 Y98.19 E41.63086
G1 X97.503 Y98.075 E41.65332
G1 X97.687 Y97.938 E41.67499
G1 X97.859 Y97.782 E41.69694
G1 X98.011 Y97.597 E41.71957
G1 X98.136 Y97.4 E41.74161
G1 X98.236 Y97.188 E41.76376
G1 X98.308 Y96.964 E41.786
G1 X98.352 Y96.732 E41.80831
G1 X98.366 Y96.5 E41.83028
G1 X98.352 Y96.268 E41.85224
G1 X98.308 Y96.036 E41.87456
G1 X98.236 Y95.812 E41.89679
G1 X98.136 Y95.599 E41.91903
G1 X98.01 Y95.402 E41.94113
G1 X97.86 Y95.222 E41.96327
G1 X97.687 Y95.059 E41.98573
G1 X97.498 Y94.924 E42.00768
G1 X97.296 Y94.813 E42.02946
G1 X97.076 Y94.724 E42.05189
G1 X96.85 Y94.667 E42.07391
G0 F4500 X101.227 Y94.298
G1 F1800 X98.69 Y91.76 E42.41303
G1 X98.629 Y91.699
G0 F4500 X97.919 Y91.484
G1 F1800 X101.524 Y95.089 E42.89482
G1 X101.585 Y95.15
G0 F4500 X101.66 Y95.72
G1 F1800 X97.284 Y91.344 E43.47964
G1 X97.223 Y91.283
G0 F4500 X96.73 Y91.285
G1 F1800 X101.708 Y96.263 E44.14491
G1 X101.769 Y96.324
G0 F4500 X101.706 Y96.756
G1 F1800 X96.235 Y91.285 E44.87608
G1 X96.174 Y91.224
G0 F4500 X95.79 Y91.335
G1 F1800 X101.672 Y97.217 E45.66216
G1 X101.733 Y97.278
G0 F4500 X101.592 Y97.632
G1 F1800 X95.369 Y91.409 E46.49383
G1 X95.308 Y91.348
G0 F4500 X94.975 Y91.51
G1 F1800 X101.488 Y98.023 E47.36424
G1 X101.549 Y98.084
G0 F4500 X101.366 Y98.396
G1 F1800 X94.61 Y91.641 E48.26707
G1 X94.549 Y91.58
