;FLAVOR:UltiGCode
;TIME:6610
;MATERIAL:11067
;MATERIAL2:0
;NOZZLE_DIAMETER:0.4
;Generated with Cura_SteamEngine 3.4.1
M82 ;absolute extrusion mode

G92 E0
G10
;LAYER_COUNT:133
;LAYER:0
M107
G0 F4500 X70.899 Y88.549 Z0.27
;TYPE:SKIRT
G11
G1 F1800 X71.548 Y88.093 E0.07496
G1 X72.24 Y87.704 E0.14997
G1 X72.967 Y87.386 E0.22496
G1 X73.723 Y87.143 E0.3
G1 X74.499 Y86.978 E0.37497
G1 X75.287 Y86.892 E0.44988
G1 X75.75 Y86.878 E0.49366
G1 X150.75 Y86.878 E7.58116
G1 X151.542 Y86.918 E7.65609
G1 X152.327 Y87.037 E7.73112
G1 X153.095 Y87.235 E7.80607
G1 X153.84 Y87.51 E7.88112
G1 X154.553 Y87.857 E7.95605
G1 X155.228 Y88.275 E8.03108
G1 X155.857 Y88.758 E8.10602
G1 X156.434 Y89.303 E8.18103
G1 X156.954 Y89.902 E8.25599
G1 X157.41 Y90.551 E8.33094
G1 X157.799 Y91.243 E8.40596
G1 X158.117 Y91.97 E8.48095
G1 X158.36 Y92.726 E8.55599
G1 X158.525 Y93.502 E8.63096
G1 X158.611 Y94.29 E8.70587
G1 X158.625 Y94.753 E8.74964
G1 X158.625 Y119.162 E11.05629
G1 X158.904 Y119.669 E11.11098
G1 X159.251 Y120.382 E11.18592
G1 X159.524 Y121.127 E11.2609
G1 X159.633 Y121.512 E11.29871
G1 X159.851 Y122.364 E11.38182
G1 X160.009 Y123.142 E11.45684
G1 X160.097 Y124.316 E11.56809
G1 X160.097 Y125.191 E11.65078
G1 X160.057 Y125.983 E11.72572
G1 X159.852 Y127.139 E11.83667
G1 X159.635 Y127.989 E11.91957
G1 X159.401 Y128.747 E11.99453
G1 X159.091 Y129.477 E12.06948
G1 X158.905 Y129.836 E12.10769
G1 X158.481 Y130.607 E12.19084
G1 X158.064 Y131.282 E12.26582
G1 X157.582 Y131.912 E12.34078
G1 X157.313 Y132.212 E12.37886
G1 X156.712 Y132.85 E12.46169
G1 X156.14 Y133.399 E12.53661
G1 X155.618 Y133.814 E12.59963
G1 X155.264 Y134.072 E12.64102
G1 X154.6 Y134.507 E12.71604
G1 X153.978 Y134.834 E12.78244
G1 X153.183 Y135.208 E12.86547
G1 X152.449 Y135.509 E12.94044
G1 X151.31 Y135.817 E13.05194
G1 X150.875 Y135.9 E13.09379
G1 X150.875 Y165.397 E15.88125
G1 X150.835 Y166.189 E15.95619
G1 X150.716 Y166.974 E16.03122
G1 X150.518 Y167.742 E16.10617
G1 X150.243 Y168.487 E16.18122
G1 X149.896 Y169.2 E16.25615
G1 X149.478 Y169.875 E16.33118
G1 X148.995 Y170.504 E16.40612
G1 X148.45 Y171.081 E16.48113
G1 X147.851 Y171.601 E16.55609
G1 X147.202 Y172.057 E16.63104
G1 X146.51 Y172.446 E16.70606
G1 X145.783 Y172.764 E16.78105
G1 X145.027 Y173.007 E16.85609
G1 X144.251 Y173.172 E16.93106
G1 X143.463 Y173.258 E17.00597
G1 X143 Y173.272 E17.04974
G1 X125.388 Y173.272 E18.71408
G1 X125.609 Y173.508 E18.74463
G1 X126.231 Y174.261 E18.83693
G1 X126.985 Y175.298 E18.95809
G1 X127.515 Y176.132 E19.05147
G1 X128.133 Y177.255 E19.1726
G1 X128.556 Y178.153 E19.26641
G1 X129.028 Y179.345 E19.38756
G1 X129.334 Y180.288 E19.48125
G1 X129.652 Y181.528 E19.60222
G1 X129.837 Y182.496 E19.69535
G1 X129.998 Y183.769 E19.81661
G1 X130.06 Y184.757 E19.91016
G1 X130.06 Y186.037 E20.03112
G1 X129.998 Y187.025 E20.12467
G1 X129.837 Y188.298 E20.24592
G1 X129.652 Y189.266 E20.33905
G1 X129.334 Y190.506 E20.46003
G1 X129.029 Y191.447 E20.55351
G1 X128.557 Y192.64 E20.67475
G1 X128.134 Y193.539 E20.76864
G1 X127.519 Y194.657 E20.88922
G1 X126.993 Y195.486 E20.982
G1 X126.242 Y196.521 E21.10284
G1 X125.613 Y197.282 E21.19614
G1 X124.727 Y198.227 E21.31855
G1 X123.997 Y198.913 E21.41322
G1 X123.009 Y199.729 E21.53431
G1 X122.208 Y200.31 E21.62782
G1 X121.125 Y200.996 E21.74897
G1 X120.26 Y201.471 E21.84223
G1 X119.1 Y202.016 E21.96334
G1 X118.175 Y202.381 E22.05731
G1 X116.957 Y202.775 E22.17829
G1 X116.011 Y203.017 E22.27056
G1 X114.75 Y203.258 E22.39188
G1 X113.764 Y203.383 E22.48581
G1 X112.486 Y203.463 E22.60681
G1 X111.49 Y203.462 E22.70094
G1 X110.212 Y203.38 E22.82196
G1 X109.232 Y203.255 E22.91532
G1 X107.971 Y203.013 E23.03665
G1 X107.026 Y202.77 E23.12886
G1 X105.808 Y202.375 E23.24986
G1 X104.876 Y202.006 E23.34459
G1 X103.717 Y201.459 E23.4657
G1 X102.852 Y200.982 E23.55905
G1 X101.77 Y200.294 E23.68022
G1 X100.978 Y199.718 E23.77276
G1 X99.991 Y198.902 E23.89378
G1 X99.261 Y198.216 E23.98845
G1 X98.389 Y197.285 E24.10899
G1 X97.767 Y196.532 E24.20129
G1 X97.014 Y195.496 E24.32232
G1 X96.485 Y194.663 E24.41557
G1 X95.867 Y193.54 E24.5367
G1 X95.443 Y192.64 E24.63072
G1 X94.971 Y191.447 E24.75196
G1 X94.666 Y190.506 E24.84544
G1 X94.348 Y189.266 E24.96641
G1 X94.163 Y188.298 E25.05954
G1 X94.002 Y187.025 E25.1808
G1 X93.94 Y186.037 E25.27435
G1 X93.94 Y184.758 E25.39521
G1 X94.002 Y183.77 E25.48876
G1 X94.163 Y182.497 E25.61002
G1 X94.348 Y181.529 E25.70315
G1 X94.666 Y180.289 E25.82412
G1 X94.971 Y179.348 E25.9176
G1 X95.443 Y178.155 E26.03884
G1 X95.867 Y177.255 E26.13286
G1 X96.485 Y176.132 E26.25399
G1 X97.014 Y175.299 E26.34724
G1 X97.767 Y174.263 E26.46827
G1 X98.39 Y173.509 E26.5607
G1 X98.612 Y173.272 E26.59139
G1 X72 Y173.272 E29.10622
G1 X71.208 Y173.232 E29.18116
G1 X70.423 Y173.113 E29.25619
G1 X69.655 Y172.915 E29.33114
G1 X68.91 Y172.64 E29.40618
G1 X68.197 Y172.293 E29.48112
G1 X67.522 Y171.875 E29.55615
G1 X66.893 Y171.392 E29.63109
G1 X66.316 Y170.847 E29.70609
G1 X65.796 Y170.248 E29.78105
G1 X65.34 Y169.599 E29.85601
G1 X64.951 Y168.907 E29.93103
G1 X64.633 Y168.18 E30.00601
G1 X64.39 Y167.424 E30.08106
G1 X64.225 Y166.648 E30.15603
G1 X64.139 Y165.86 E30.23093
G1 X64.125 Y165.397 E30.27471
G1 X64.125 Y135.397 E33.10971
G1 X64.165 Y134.605 E33.18465
G1 X64.284 Y133.82 E33.25968
G1 X64.482 Y133.052 E33.33463
G1 X64.757 Y132.307 E33.40967
G1 X65.104 Y131.594 E33.48461
G1 X65.522 Y130.919 E33.55963
G1 X65.649 Y130.753 E33.57939
G1 X65.643 Y130.748 E33.58012
G1 X65.066 Y130.203 E33.65513
G1 X64.546 Y129.604 E33.73009
G1 X64.09 Y128.955 E33.80504
G1 X63.701 Y128.263 E33.88006
G1 X63.383 Y127.536 E33.95505
G1 X63.14 Y126.78 E34.03009
G1 X62.975 Y126.004 E34.10506
G1 X62.889 Y125.216 E34.17997
G1 X62.875 Y124.753 E34.22374
G1 X62.875 Y100.753 E36.49174
G1 X62.915 Y99.961 E36.56668
G1 X63.034 Y99.176 E36.64171
G1 X63.232 Y98.408 E36.71666
G1 X63.507 Y97.663 E36.79171
G1 X63.854 Y96.95 E36.86664
G1 X64.272 Y96.275 E36.94167
G1 X64.755 Y95.646 E37.01661
G1 X65.3 Y95.069 E37.09162
G1 X65.899 Y94.549 E37.16658
G1 X66.548 Y94.093 E37.24153
G1 X67.24 Y93.704 E37.31655
G1 X67.967 Y93.386 E37.39154
G1 X68.004 Y93.374 E37.39521
G1 X68.034 Y93.176 E37.41414
G1 X68.232 Y92.408 E37.48909
G1 X68.507 Y91.663 E37.56413
G1 X68.854 Y90.95 E37.63907
G1 X69.272 Y90.275 E37.71409
G1 X69.755 Y89.646 E37.78904
G1 X70.3 Y89.069 E37.86404
G1 X70.899 Y88.549 E37.939
G0 F4500 X71.24 Y88.729
G1 F1800 X71.884 Y88.297 E38.01228
G1 X72.569 Y87.934 E38.08554
G1 X73.288 Y87.642 E38.15888
G1 X74.033 Y87.427 E38.23215
G1 X74.796 Y87.289 E38.30543
G1 X75.75 Y87.228 E38.39576
G1 X150.75 Y87.228 E45.48326
G1 X151.525 Y87.268 E45.5566
G1 X152.291 Y87.387 E45.62985
G1 X153.041 Y87.585 E45.70316
G1 X153.767 Y87.859 E45.77649
G1 X154.46 Y88.206 E45.84973
G1 X155.114 Y88.623 E45.92303
G1 X155.722 Y89.105 E45.99635
G1 X156.277 Y89.647 E46.06965
G1 X156.774 Y90.243 E46.14299
G1 X157.206 Y90.887 E46.21627
G1 X157.569 Y91.572 E46.28953
G1 X157.861 Y92.291 E46.36287
G1 X158.076 Y93.036 E46.43614
G1 X158.214 Y93.799 E46.50942
G1 X158.275 Y94.753 E46.59975
G1 X158.275 Y119.252 E48.91491
G1 X158.597 Y119.837 E48.97801
G1 X158.936 Y120.535 E49.05134
G1 X159.294 Y121.599 E49.15743
G1 X159.512 Y122.451 E49.24054
G1 X159.665 Y123.211 E49.3138
G1 X159.747 Y124.316 E49.41851
G1 X159.747 Y125.191 E49.50119
G1 X159.707 Y125.966 E49.57453
G1 X159.513 Y127.052 E49.67878
G1 X159.296 Y127.902 E49.76168
G1 X159.066 Y128.643 E49.835
G1 X158.599 Y129.667 E49.94136
G1 X158.175 Y130.438 E50.02451
G1 X157.766 Y131.098 E50.09788
G1 X157.058 Y131.972 E50.20417
G1 X156.457 Y132.61 E50.287
G1 X155.897 Y133.146 E50.36026
G1 X155.412 Y133.531 E50.41878
G1 X155.058 Y133.789 E50.46017
G1 X154.409 Y134.213 E50.53343
G1 X153.829 Y134.517 E50.59531
G1 X153.034 Y134.891 E50.67834
G1 X152.316 Y135.185 E50.75166
G1 X151.244 Y135.473 E50.85655
G1 X150.525 Y135.61 E50.92572
G1 X150.525 Y165.397 E53.74059
G1 X150.485 Y166.172 E53.81393
G1 X150.366 Y166.938 E53.88718
G1 X150.168 Y167.688 E53.96049
G1 X149.894 Y168.414 E54.03382
G1 X149.547 Y169.107 E54.10706
G1 X149.13 Y169.761 E54.18035
G1 X148.648 Y170.369 E54.25367
G1 X148.106 Y170.924 E54.32698
G1 X147.51 Y171.421 E54.40032
G1 X146.866 Y171.853 E54.4736
G1 X146.181 Y172.216 E54.54686
G1 X145.462 Y172.508 E54.62019
G1 X144.717 Y172.723 E54.69347
G1 X143.954 Y172.861 E54.76674
G1 X143 Y172.922 E54.85708
G1 X124.58 Y172.922 E56.59777
G1 X125.353 Y173.747 E56.70461
G1 X125.948 Y174.467 E56.79287
G1 X126.702 Y175.504 E56.91404
G1 X127.209 Y176.301 E57.0033
G1 X127.827 Y177.424 E57.12443
G1 X128.23 Y178.282 E57.21401
G1 X128.702 Y179.474 E57.33516
G1 X128.995 Y180.375 E57.4247
G1 X129.313 Y181.615 E57.54567
G1 X129.49 Y182.54 E57.63467
G1 X129.651 Y183.813 E57.75593
G1 X129.71 Y184.757 E57.84531
G1 X129.71 Y186.037 E57.96627
G1 X129.651 Y186.981 E58.05565
G1 X129.49 Y188.254 E58.17691
G1 X129.313 Y189.179 E58.2659
G1 X128.995 Y190.419 E58.38688
G1 X128.703 Y191.318 E58.4762
G1 X128.231 Y192.511 E58.59744
G1 X127.827 Y193.37 E58.68715
G1 X127.212 Y194.488 E58.80773
G1 X126.71 Y195.28 E58.89634
G1 X125.959 Y196.315 E59.01718
G1 X125.358 Y197.043 E59.10639
G1 X124.472 Y197.988 E59.22881
G1 X123.774 Y198.643 E59.31926
G1 X122.786 Y199.459 E59.44036
G1 X122.021 Y200.014 E59.52967
G1 X120.938 Y200.7 E59.65082
G1 X120.111 Y201.154 E59.73997
G1 X118.951 Y201.699 E59.86109
G1 X118.067 Y202.048 E59.9509
G1 X116.849 Y202.442 E60.07187
G1 X115.946 Y202.673 E60.15995
G1 X114.685 Y202.914 E60.28127
G1 X113.742 Y203.033 E60.3711
G1 X112.464 Y203.113 E60.4921
G1 X111.512 Y203.113 E60.58207
G1 X110.234 Y203.031 E60.70309
G1 X109.298 Y202.911 E60.79226
G1 X108.037 Y202.669 E60.9136
G1 X107.134 Y202.437 E61.00171
G1 X105.916 Y202.042 E61.12271
G1 X105.025 Y201.689 E61.21328
G1 X103.866 Y201.142 E61.33439
G1 X103.04 Y200.687 E61.4235
G1 X101.958 Y199.999 E61.54467
G1 X101.201 Y199.449 E61.6331
G1 X100.214 Y198.633 E61.75412
G1 X99.517 Y197.977 E61.84457
G1 X98.645 Y197.046 E61.96511
G1 X98.05 Y196.326 E62.05338
G1 X97.297 Y195.29 E62.17441
G1 X96.791 Y194.494 E62.26354
G1 X96.173 Y193.371 E62.38467
G1 X95.769 Y192.511 E62.47446
G1 X95.297 Y191.318 E62.5957
G1 X95.005 Y190.419 E62.68503
G1 X94.687 Y189.179 E62.806
G1 X94.51 Y188.254 E62.895
G1 X94.349 Y186.981 E63.01626
G1 X94.29 Y186.037 E63.10564
G1 X94.29 Y184.758 E63.2265
G1 X94.349 Y183.814 E63.31589
G1 X94.51 Y182.541 E63.43714
G1 X94.687 Y181.616 E63.52614
G1 X95.005 Y180.376 E63.64711
G1 X95.297 Y179.477 E63.73644
G1 X95.769 Y178.284 E63.85768
G1 X96.173 Y177.424 E63.94747
G1 X96.791 Y176.301 E64.0686
G1 X97.297 Y175.505 E64.15774
G1 X98.05 Y174.469 E64.27877
G1 X98.646 Y173.748 E64.36716
G1 X99.42 Y172.922 E64.47414
G1 X72 Y172.922 E67.06533
G1 X71.225 Y172.882 E67.13866
G1 X70.459 Y172.763 E67.21192
G1 X69.709 Y172.565 E67.28522
G1 X68.983 Y172.291 E67.35855
G1 X68.29 Y171.944 E67.43179
G1 X67.636 Y171.527 E67.50509
G1 X67.028 Y171.045 E67.57841
G1 X66.473 Y170.503 E67.65172
G1 X65.976 Y169.907 E67.72505
G1 X65.544 Y169.263 E67.79833
G1 X65.181 Y168.578 E67.87159
G1 X64.889 Y167.859 E67.94493
G1 X64.674 Y167.114 E68.0182
G1 X64.536 Y166.351 E68.09148
G1 X64.475 Y165.397 E68.18181
G1 X64.475 Y135.397 E71.01681
G1 X64.515 Y134.622 E71.09015
G1 X64.634 Y133.856 E71.1634
G1 X64.832 Y133.106 E71.23671
G1 X65.106 Y132.38 E71.31004
G1 X65.453 Y131.687 E71.38328
G1 X65.87 Y131.033 E71.45657
G1 X66.142 Y130.69 E71.49794
G1 X65.778 Y130.401 E71.54186
G1 X65.223 Y129.859 E71.61517
G1 X64.726 Y129.263 E71.68851
G1 X64.294 Y128.619 E71.76179
G1 X63.931 Y127.934 E71.83505
G1 X63.639 Y127.215 E71.90839
G1 X63.424 Y126.47 E71.98166
G1 X63.286 Y125.707 E72.05493
G1 X63.225 Y124.753 E72.14527
G1 X63.225 Y100.753 E74.41327
G1 X63.265 Y99.978 E74.48661
G1 X63.384 Y99.212 E74.55986
G1 X63.582 Y98.462 E74.63316
G1 X63.856 Y97.736 E74.7065
G1 X64.203 Y97.043 E74.77973
G1 X64.62 Y96.389 E74.85303
G1 X65.102 Y95.781 E74.92635
G1 X65.644 Y95.226 E74.99966
G1 X66.24 Y94.729 E75.073
G1 X66.884 Y94.297 E75.14628
G1 X67.569 Y93.934 E75.21954
G1 X68.288 Y93.642 E75.29287
G1 X68.319 Y93.633 E75.29592
G1 X68.384 Y93.212 E75.33618
G1 X68.582 Y92.462 E75.40948
G1 X68.856 Y91.736 E75.48281
G1 X69.203 Y91.043 E75.55605
G1 X69.62 Y90.389 E75.62935
G1 X70.102 Y89.781 E75.70267
G1 X70.644 Y89.226 E75.77598
G1 X71.24 Y88.729 E75.84931
G0 F4500 X71.579 Y88.915
G1 F1800 X72.218 Y88.508 E75.92091
G1 X72.896 Y88.17 E75.9925
G1 X73.605 Y87.906 E76.06399
G1 X74.339 Y87.718 E76.1356
G1 X75.088 Y87.609 E76.20712
G1 X75.75 Y87.578 E76.26975
G1 X150.75 Y87.578 E83.35725
G1 X151.506 Y87.618 E83.42879
G1 X152.254 Y87.737 E83.50037
G1 X152.985 Y87.935 E83.57194
G1 X153.692 Y88.209 E83.64359
G1 X154.365 Y88.555 E83.7151
G1 X154.998 Y88.971 E83.78668
G1 X155.584 Y89.451 E83.85826
G1 X156.116 Y89.99 E83.92983
G1 X156.588 Y90.582 E84.00138
G1 X156.995 Y91.221 E84.07297
G1 X157.333 Y91.899 E84.14456
G1 X157.597 Y92.608 E84.21606
G1 X157.785 Y93.342 E84.28766
G1 X157.894 Y94.091 E84.35919
G1 X157.925 Y94.753 E84.42181
G1 X157.925 Y119.341 E86.74538
G1 X158.291 Y120.006 E86.81711
G1 X158.62 Y120.688 E86.88867
G1 X158.955 Y121.685 E86.98806
G1 X159.173 Y122.537 E87.07117
G1 X159.322 Y123.28 E87.14278
G1 X159.397 Y124.316 E87.24094
G1 X159.397 Y125.191 E87.32363
G1 X159.357 Y125.947 E87.39517
G1 X159.174 Y126.966 E87.493
G1 X158.957 Y127.816 E87.57591
G1 X158.731 Y128.539 E87.64749
G1 X158.292 Y129.498 E87.74716
G1 X157.868 Y130.269 E87.83031
G1 X157.469 Y130.913 E87.9019
G1 X156.804 Y131.732 E88.0016
G1 X156.203 Y132.37 E88.08443
G1 X155.655 Y132.893 E88.15601
G1 X155.206 Y133.248 E88.2101
G1 X154.852 Y133.506 E88.2515
G1 X154.217 Y133.92 E88.32313
G1 X153.68 Y134.2 E88.38036
G1 X152.885 Y134.574 E88.46339
G1 X152.184 Y134.86 E88.53493
G1 X151.178 Y135.129 E88.63334
G1 X150.315 Y135.294 E88.71637
G1 X150.171 Y135.314 E88.73011
G1 X150.175 Y135.397 E88.73796
G1 X150.175 Y165.397 E91.57296
G1 X150.135 Y166.153 E91.6445
G1 X150.016 Y166.901 E91.71608
G1 X149.818 Y167.632 E91.78765
G1 X149.544 Y168.339 E91.8593
G1 X149.198 Y169.012 E91.93081
G1 X148.782 Y169.645 E92.00239
G1 X148.302 Y170.231 E92.07398
G1 X147.763 Y170.763 E92.14554
G1 X147.171 Y171.235 E92.21709
G1 X146.532 Y171.642 E92.28869
G1 X145.854 Y171.98 E92.36028
G1 X145.145 Y172.244 E92.43177
G1 X144.411 Y172.432 E92.50337
G1 X143.662 Y172.541 E92.5749
G1 X143 Y172.572 E92.63753
G1 X123.712 Y172.572 E94.46024
G1 X124.222 Y173.051 E94.52636
G1 X125.098 Y173.986 E94.64744
G1 X125.665 Y174.673 E94.73162
G1 X126.419 Y175.71 E94.85278
G1 X126.902 Y176.47 E94.93788
G1 X127.52 Y177.593 E95.05901
G1 X127.905 Y178.41 E95.14436
G1 X128.377 Y179.602 E95.26551
G1 X128.656 Y180.462 E95.35095
G1 X128.974 Y181.702 E95.47192
G1 X129.142 Y182.584 E95.55677
G1 X129.303 Y183.857 E95.67803
G1 X129.36 Y184.757 E95.76325
G1 X129.36 Y186.037 E95.88421
G1 X129.303 Y186.937 E95.96943
G1 X129.142 Y188.21 E96.09069
G1 X128.974 Y189.092 E96.17553
G1 X128.656 Y190.332 E96.2965
G1 X128.378 Y191.19 E96.38174
G1 X127.906 Y192.383 E96.50298
G1 X127.521 Y193.201 E96.58841
G1 X126.906 Y194.319 E96.70899
G1 X126.426 Y195.075 E96.79362
G1 X125.675 Y196.11 E96.91446
G1 X125.102 Y196.803 E96.99944
G1 X124.216 Y197.748 E97.12185
G1 X123.551 Y198.373 E97.20809
G1 X122.563 Y199.189 E97.32918
G1 X121.833 Y199.718 E97.41438
G1 X120.75 Y200.404 E97.53553
G1 X119.962 Y200.837 E97.62049
G1 X118.802 Y201.382 E97.74161
G1 X117.959 Y201.715 E97.82726
G1 X116.741 Y202.109 E97.94824
G1 X115.88 Y202.329 E98.03221
G1 X114.619 Y202.57 E98.15354
G1 X113.72 Y202.684 E98.23917
G1 X112.442 Y202.764 E98.36018
G1 X111.535 Y202.763 E98.44589
G1 X110.257 Y202.681 E98.56691
G1 X109.364 Y202.567 E98.65198
G1 X108.103 Y202.325 E98.77332
G1 X107.242 Y202.104 E98.85732
G1 X106.024 Y201.709 E98.97833
G1 X105.175 Y201.373 E99.06461
G1 X104.016 Y200.826 E99.18572
G1 X103.228 Y200.392 E99.27074
G1 X102.146 Y199.704 E99.39191
G1 X101.424 Y199.179 E99.47627
G1 X100.437 Y198.363 E99.59729
G1 X99.772 Y197.738 E99.68353
G1 X98.9 Y196.807 E99.80407
G1 X98.333 Y196.12 E99.88825
G1 X97.58 Y195.084 E100.00928
G1 X97.098 Y194.325 E100.09424
G1 X96.48 Y193.202 E100.21538
G1 X96.094 Y192.383 E100.30094
G1 X95.622 Y191.19 E100.42218
