;FLAVOR:UltiGCode
;TIME:889
;MATERIAL:1073
;MATERIAL2:0
;NOZZLE_DIAMETER:0.4
;Generated with Cura_SteamEngine 3.4.1
M82 ;absolute extrusion mode

G92 E0
G10
;LAYER_COUNT:146
;LAYER:0
M107
G0 F4500 X101.64 Y101.201 Z0.27
;TYPE:SKIRT
G11
G1 F1800 X101.987 Y100.893 E0.04385
G1 X102.607 Y100.397 E0.11888
G1 X103.588 Y99.793 E0.22774
G1 X104.118 Y99.518 E0.28417
G1 X104.84 Y99.188 E0.35919
G1 X105.848 Y98.865 E0.45922
G1 X106.271 Y98.76 E0.5004
G1 X107.05 Y98.608 E0.57541
G1 X108.083 Y98.528 E0.67332
G1 X114.601 Y98.458 E1.2893
G1 X115.394 Y98.49 E1.3643
G1 X116.238 Y98.612 E1.44489
G1 X116.81 Y98.727 E1.50002
G1 X117.579 Y98.923 E1.57502
G1 X118.325 Y99.195 E1.65006
G1 X119.043 Y99.542 E1.72541
G1 X119.678 Y99.89 E1.79384
G1 X120.353 Y100.306 E1.86877
G1 X120.984 Y100.788 E1.94381
G1 X121.563 Y101.331 E2.01882
G1 X121.994 Y101.816 E2.08013
G1 X122.558 Y102.507 E2.16442
G1 X123.028 Y103.147 E2.23946
G1 X123.431 Y103.83 E2.3144
G1 X123.764 Y104.55 E2.38937
G1 X123.966 Y105.116 E2.44616
G1 X124.188 Y105.819 E2.51583
G1 X124.389 Y106.586 E2.59075
G1 X124.511 Y107.37 E2.66573
G1 X124.554 Y108.173 E2.74173
G1 X124.568 Y114.574 E3.34662
G1 X124.53 Y115.366 E3.42155
G1 X124.403 Y116.195 E3.50081
G1 X124.279 Y116.791 E3.55833
G1 X124.078 Y117.559 E3.63336
G1 X123.802 Y118.302 E3.70826
G1 X123.451 Y119.014 E3.78327
G1 X123.151 Y119.51 E3.83805
G1 X122.573 Y120.39 E3.93754
G1 X122.105 Y121.031 E4.01255
G1 X121.574 Y121.621 E4.08756
G1 X120.987 Y122.154 E4.16248
G1 X120.527 Y122.505 E4.21716
G1 X120.026 Y122.858 E4.27508
G1 X119.355 Y123.281 E4.35004
G1 X118.645 Y123.635 E4.42501
G1 X118.128 Y123.84 E4.47757
G1 X117.557 Y124.043 E4.53484
G1 X116.797 Y124.271 E4.60982
G1 X116.018 Y124.421 E4.68479
G1 X114.969 Y124.498 E4.78418
G1 X108.189 Y124.541 E5.42491
G1 X107.396 Y124.506 E5.49992
G1 X106.527 Y124.374 E5.58298
G1 X106.001 Y124.264 E5.63376
G1 X105.234 Y124.063 E5.70869
G1 X104.49 Y123.785 E5.78375
G1 X103.732 Y123.408 E5.86375
G1 X103.144 Y123.075 E5.92761
G1 X102.474 Y122.65 E6.00258
G1 X101.851 Y122.16 E6.07749
G1 X101.437 Y121.772 E6.13111
G1 X101.153 Y121.486 E6.16919
G1 X100.623 Y120.895 E6.24421
G1 X100.005 Y120.017 E6.34568
G1 X99.727 Y119.558 E6.39639
G1 X99.351 Y118.859 E6.47139
G1 X99.047 Y118.126 E6.54638
G1 X98.807 Y117.32 E6.62585
G1 X98.653 Y116.68 E6.68806
G1 X98.506 Y115.901 E6.76297
G1 X98.434 Y114.798 E6.86743
G1 X98.468 Y108.091 E7.50125
G1 X98.512 Y107.299 E7.57621
G1 X98.636 Y106.515 E7.65122
G1 X98.907 Y105.539 E7.74694
G1 X99.105 Y104.971 E7.80378
G1 X99.403 Y104.236 E7.87873
G1 X99.775 Y103.534 E7.95381
G1 X100.068 Y103.078 E8.00503
G1 X100.395 Y102.606 E8.05929
G1 X100.879 Y101.978 E8.13422
G1 X101.64 Y101.201 E8.237
G0 F4500 X101.873 Y101.463
G1 F1800 X102.22 Y101.155 E8.28084
G1 X102.826 Y100.671 E8.35413
G1 X103.749 Y100.104 E8.4565
G1 X104.279 Y99.829 E8.51292
G1 X104.985 Y99.507 E8.58625
G1 X105.932 Y99.205 E8.68019
G1 X106.355 Y99.1 E8.72137
G1 X107.117 Y98.952 E8.79473
G1 X108.087 Y98.878 E8.88666
G1 X114.605 Y98.808 E9.50264
G1 X115.38 Y98.84 E9.57594
G1 X116.169 Y98.956 E9.65131
G1 X116.741 Y99.071 E9.70644
G1 X117.493 Y99.262 E9.77976
G1 X118.221 Y99.531 E9.8531
G1 X118.874 Y99.849 E9.92174
G1 X119.509 Y100.197 E9.99017
G1 X120.17 Y100.604 E10.06353
G1 X120.784 Y101.077 E10.13677
G1 X121.347 Y101.611 E10.2101
G1 X121.723 Y102.038 E10.26386
G1 X122.287 Y102.729 E10.34815
G1 X122.745 Y103.354 E10.42138
G1 X123.138 Y104.023 E10.4947
G1 X123.459 Y104.729 E10.56799
G1 X123.633 Y105.221 E10.6173
G1 X123.855 Y105.924 E10.68697
G1 X124.05 Y106.675 E10.76029
G1 X124.167 Y107.441 E10.83352
G1 X124.204 Y108.174 E10.90288
G1 X124.218 Y114.575 E11.50777
G1 X124.18 Y115.349 E11.581
G1 X124.06 Y116.124 E11.65511
G1 X123.936 Y116.72 E11.71264
G1 X123.739 Y117.47 E11.78592
G1 X123.466 Y118.196 E11.85922
G1 X123.12 Y118.89 E11.9325
G1 X122.859 Y119.318 E11.97987
G1 X122.281 Y120.198 E12.07937
G1 X121.822 Y120.824 E12.15272
G1 X121.301 Y121.399 E12.22605
G1 X120.724 Y121.917 E12.29932
G1 X120.325 Y122.218 E12.34655
G1 X119.824 Y122.571 E12.40447
G1 X119.168 Y122.985 E12.47778
G1 X118.473 Y123.329 E12.55106
G1 X118.011 Y123.51 E12.59795
G1 X117.44 Y123.713 E12.65522
G1 X116.696 Y123.935 E12.72859
G1 X115.934 Y124.079 E12.80187
G1 X114.967 Y124.148 E12.89349
G1 X108.187 Y124.191 E13.53421
G1 X107.412 Y124.156 E13.60752
G1 X106.599 Y124.032 E13.68524
G1 X106.073 Y123.922 E13.73602
G1 X105.323 Y123.724 E13.80932
G1 X104.597 Y123.45 E13.88265
G1 X103.905 Y123.104 E13.95577
G1 X103.317 Y122.771 E14.01962
G1 X102.662 Y122.354 E14.093
G1 X102.054 Y121.873 E14.16626
G1 X101.685 Y121.525 E14.21419
G1 X101.401 Y121.239 E14.25228
G1 X100.884 Y120.661 E14.32557
G1 X100.305 Y119.835 E14.42089
G1 X100.027 Y119.376 E14.4716
G1 X99.659 Y118.693 E14.54492
G1 X99.365 Y117.976 E14.61815
G1 X99.147 Y117.238 E14.69087
G1 X98.993 Y116.598 E14.75307
G1 X98.85 Y115.836 E14.82634
G1 X98.784 Y114.8 E14.92444
G1 X98.818 Y108.093 E15.55826
G1 X98.862 Y107.318 E15.63162
G1 X98.985 Y106.553 E15.70484
G1 X99.237 Y105.654 E15.79307
G1 X99.435 Y105.086 E15.84991
G1 X99.728 Y104.368 E15.92319
G1 X100.093 Y103.683 E15.99654
G1 X100.355 Y103.278 E16.04213
G1 X100.682 Y102.806 E16.09639
G1 X101.156 Y102.192 E16.16969
G1 X101.873 Y101.463 E16.26632
G0 F4500 X102.105 Y101.725
G1 F1800 X102.452 Y101.417 E16.31016
G1 X103.044 Y100.945 E16.38171
G1 X103.91 Y100.414 E16.47771
G1 X104.44 Y100.139 E16.53413
G1 X105.13 Y99.826 E16.60573
G1 X106.016 Y99.544 E16.6936
G1 X106.439 Y99.439 E16.73479
G1 X107.183 Y99.296 E16.80638
G1 X108.091 Y99.228 E16.89243
G1 X114.609 Y99.158 E17.50841
G1 X115.366 Y99.19 E17.58001
G1 X116.1 Y99.299 E17.65014
G1 X116.672 Y99.414 E17.70527
G1 X117.406 Y99.602 E17.77688
G1 X118.115 Y99.867 E17.8484
G1 X118.706 Y100.156 E17.91057
G1 X119.341 Y100.504 E17.979
G1 X119.985 Y100.902 E18.05054
G1 X120.584 Y101.367 E18.1222
G1 X121.13 Y101.891 E18.19372
G1 X121.452 Y102.259 E18.23993
G1 X122.016 Y102.95 E18.32421
G1 X122.463 Y103.561 E18.39576
G1 X122.843 Y104.216 E18.46732
G1 X123.152 Y104.908 E18.53893
G1 X123.299 Y105.326 E18.58081
G1 X123.521 Y106.029 E18.65047
G1 X123.711 Y106.763 E18.72212
G1 X123.822 Y107.512 E18.79368
G1 X123.854 Y108.174 E18.85631
G1 X123.868 Y114.575 E19.4612
G1 X123.83 Y115.332 E19.53283
G1 X123.718 Y116.052 E19.60169
G1 X123.594 Y116.648 E19.65922
G1 X123.4 Y117.381 E19.73087
G1 X123.131 Y118.089 E19.80244
G1 X122.789 Y118.764 E19.87395
G1 X122.566 Y119.126 E19.91413
G1 X121.988 Y120.006 E20.01362
G1 X121.539 Y120.616 E20.0852
G1 X121.029 Y121.176 E20.15678
G1 X120.462 Y121.678 E20.22834
G1 X120.124 Y121.932 E20.2683
G1 X119.623 Y122.285 E20.32621
G1 X118.981 Y122.688 E20.39784
G1 X118.301 Y123.021 E20.4694
G1 X117.893 Y123.18 E20.51078
G1 X117.322 Y123.383 E20.56804
G1 X116.596 Y123.599 E20.63962
G1 X115.852 Y123.737 E20.71113
G1 X114.965 Y123.798 E20.79515
G1 X108.185 Y123.841 E21.43587
G1 X107.428 Y123.806 E21.50749
G1 X106.67 Y123.689 E21.57997
G1 X106.144 Y123.579 E21.63075
G1 X105.412 Y123.385 E21.70231
G1 X104.705 Y123.115 E21.77383
G1 X104.077 Y122.799 E21.84026
G1 X103.489 Y122.466 E21.90412
G1 X102.851 Y122.059 E21.97564
G1 X102.259 Y121.586 E22.04724
G1 X101.934 Y121.279 E22.08949
G1 X101.65 Y120.993 E22.12758
G1 X101.145 Y120.428 E22.19919
G1 X100.604 Y119.654 E22.28843
G1 X100.326 Y119.195 E22.33914
G1 X99.968 Y118.527 E22.41076
G1 X99.683 Y117.826 E22.48227
G1 X99.487 Y117.157 E22.54815
G1 X99.333 Y116.517 E22.61036
G1 X99.195 Y115.772 E22.68196
G1 X99.134 Y114.802 E22.7738
G1 X99.168 Y108.095 E23.40762
G1 X99.212 Y107.339 E23.47918
G1 X99.335 Y106.591 E23.55082
G1 X99.568 Y105.769 E23.63156
G1 X99.766 Y105.201 E23.6884
G1 X100.053 Y104.5 E23.75998
G1 X100.412 Y103.833 E23.83157
G1 X100.643 Y103.477 E23.87167
G1 X100.97 Y103.005 E23.92593
G1 X101.434 Y102.406 E23.99753
G1 X102.105 Y101.725 E24.08788
G0 F4500 X102.337 Y101.987
G1 F1800 X102.684 Y101.679 E24.13173
G1 X103.263 Y101.219 E24.20161
G1 X104.072 Y100.725 E24.29118
G1 X104.602 Y100.45 E24.34761
G1 X105.275 Y100.146 E24.4174
G1 X106.101 Y99.884 E24.49928
G1 X106.524 Y99.779 E24.54047
G1 X107.249 Y99.64 E24.61023
G1 X108.095 Y99.578 E24.69039
G1 X114.613 Y99.508 E25.30638
G1 X115.351 Y99.54 E25.37619
G1 X116.031 Y99.642 E25.44117
G1 X116.603 Y99.757 E25.4963
G1 X117.318 Y99.941 E25.56607
G1 X118.01 Y100.202 E25.63596
G1 X118.538 Y100.463 E25.69162
G1 X119.173 Y100.811 E25.76005
G1 X119.801 Y101.2 E25.82986
G1 X120.382 Y101.655 E25.89959
G1 X120.912 Y102.171 E25.9695
G1 X121.18 Y102.48 E26.00815
G1 X121.744 Y103.171 E26.09244
G1 X122.18 Y103.768 E26.1623
G1 X122.548 Y104.408 E26.23206
G1 X122.965 Y105.432 E26.33655
G1 X123.187 Y106.135 E26.40621
G1 X123.371 Y106.85 E26.47598
G1 X123.477 Y107.581 E26.54579
G1 X123.504 Y108.175 E26.60198
G1 X123.518 Y114.576 E27.20687
G1 X123.48 Y115.314 E27.27671
G1 X123.375 Y115.981 E27.34051
G1 X123.251 Y116.577 E27.39804
G1 X123.062 Y117.291 E27.46784
G1 X122.796 Y117.98 E27.53763
G1 X122.274 Y118.934 E27.6404
G1 X121.696 Y119.814 E27.73989
G1 X121.257 Y120.408 E27.80969
G1 X120.757 Y120.952 E27.87952
G1 X119.922 Y121.646 E27.98212
G1 X119.421 Y121.999 E28.04004
G1 X118.795 Y122.391 E28.10983
G1 X118.13 Y122.714 E28.1797
G1 X117.776 Y122.851 E28.21557
G1 X117.205 Y123.054 E28.27284
G1 X116.497 Y123.263 E28.3426
G1 X115.77 Y123.395 E28.41242
G1 X114.962 Y123.448 E28.48894
G1 X108.182 Y123.491 E29.12966
G1 X107.444 Y123.456 E29.19948
G1 X106.742 Y123.346 E29.26663
G1 X106.216 Y123.236 E29.31741
G1 X105.502 Y123.046 E29.38724
G1 X104.813 Y122.78 E29.45703
G1 X104.25 Y122.495 E29.51666
G1 X103.662 Y122.162 E29.58052
G1 X103.04 Y121.764 E29.6503
G1 X102.464 Y121.3 E29.7202
G1 X102.182 Y121.032 E29.75696
G1 X101.898 Y120.746 E29.79505
G1 X101.407 Y120.195 E29.86479
G1 X100.903 Y119.473 E29.948
G1 X100.625 Y119.014 E29.99871
G1 X100.277 Y118.362 E30.06855
G1 X100.002 Y117.677 E30.13831
G1 X99.827 Y117.075 E30.19755
G1 X99.673 Y116.435 E30.25976
G1 X99.54 Y115.708 E30.3296
G1 X99.484 Y114.803 E30.41529
G1 X99.518 Y108.096 E31.04911
G1 X99.562 Y107.359 E31.11888
G1 X99.685 Y106.631 E31.18865
G1 X99.898 Y105.884 E31.26205
G1 X100.096 Y105.316 E31.3189
G1 X100.377 Y104.633 E31.38869
G1 X100.931 Y103.676 E31.49319
G1 X101.258 Y103.204 E31.54745
G1 X101.711 Y102.621 E31.61722
G1 X102.337 Y101.987 E31.70142
G0 F4500 X102.57 Y102.248
G1 F1800 X102.917 Y101.94 E31.74526
G1 X103.48 Y101.493 E31.8132
G1 X104.233 Y101.036 E31.89643
G1 X104.763 Y100.761 E31.95286
G1 X105.419 Y100.465 E32.02087
G1 X106.185 Y100.224 E32.09675
G1 X106.608 Y100.119 E32.13794
G1 X107.315 Y99.984 E32.20596
G1 X108.098 Y99.928 E32.28014
G1 X114.616 Y99.858 E32.89613
G1 X115.335 Y99.891 E32.96415
G1 X115.962 Y99.985 E33.02406
G1 X116.534 Y100.1 E33.0792
G1 X117.231 Y100.281 E33.14725
G1 X117.903 Y100.538 E33.21524
G1 X118.37 Y100.77 E33.26451
G1 X119.005 Y101.118 E33.33294
G1 X119.616 Y101.498 E33.40094
G1 X120.18 Y101.944 E33.46889
G1 X120.909 Y102.702 E33.56827
G1 X121.473 Y103.393 E33.65256
G1 X121.896 Y103.974 E33.72047
G1 X122.253 Y104.6 E33.78857
G1 X122.631 Y105.537 E33.88405
G1 X122.853 Y106.24 E33.95372
G1 X123.032 Y106.937 E34.02172
G1 X123.131 Y107.65 E34.08975
G1 X123.154 Y108.176 E34.1395
G1 X123.168 Y114.577 E34.7444
G1 X123.13 Y115.295 E34.81235
G1 X123.032 Y115.91 E34.8712
G1 X122.908 Y116.506 E34.92872
G1 X122.723 Y117.201 E34.99669
G1 X122.461 Y117.871 E35.06467
G1 X121.981 Y118.742 E35.15865
G1 X121.403 Y119.622 E35.25815
G1 X120.975 Y120.2 E35.32611
G1 X120.486 Y120.728 E35.39412
G1 X119.72 Y121.36 E35.48797
G1 X119.219 Y121.713 E35.54588
G1 X118.609 Y122.094 E35.61385
G1 X117.659 Y122.521 E35.71227
G1 X117.088 Y122.724 E35.76954
G1 X116.398 Y122.927 E35.83751
G1 X115.689 Y123.052 E35.90554
G1 X114.96 Y123.098 E35.97457
G1 X108.18 Y123.141 E36.61529
G1 X107.461 Y123.105 E36.68332
G1 X106.814 Y123.004 E36.74521
G1 X106.288 Y122.894 E36.79599
G1 X105.593 Y122.708 E36.86398
G1 X104.923 Y122.446 E36.93196
G1 X104.422 Y122.19 E36.98513
G1 X103.834 Y121.857 E37.04899
G1 X103.229 Y121.468 E37.11696
G1 X102.43 Y120.785 E37.21629
G1 X102.146 Y120.499 E37.25438
G1 X101.669 Y119.962 E37.32225
G1 X101.203 Y119.291 E37.39946
G1 X100.925 Y118.832 E37.45017
G1 X100.587 Y118.197 E37.51815
G1 X100.321 Y117.529 E37.58609
G1 X100.168 Y116.993 E37.63877
G1 X100.014 Y116.353 E37.70097
G1 X99.884 Y115.645 E37.769
G1 X99.834 Y114.805 E37.84852
G1 X99.868 Y108.098 E38.48234
G1 X99.912 Y107.38 E38.55032
G1 X100.035 Y106.671 E38.61832
G1 X100.229 Y106 E38.68432
G1 X100.427 Y105.432 E38.74117
G1 X100.701 Y104.767 E38.80914
G1 X101.219 Y103.876 E38.90653
G1 X101.546 Y103.404 E38.96079
G1 X101.987 Y102.836 E39.02875
G1 X102.57 Y102.248 E39.107
G0 F4500 X102.802 Y102.51
G1 F1800 X103.149 Y102.202 E39.15084
G1 X103.698 Y101.768 E39.21698
G1 X104.394 Y101.346 E39.29389
G1 X104.924 Y101.071 E39.35032
G1 X105.563 Y100.785 E39.41648
G1 X106.269 Y100.563 E39.48641
G1 X106.692 Y100.458 E39.5276
G1 X107.38 Y100.329 E39.59375
G1 X108.102 Y100.278 E39.66215
G1 X114.62 Y100.208 E40.27814
G1 X115.319 Y100.241 E40.34427
G1 X115.893 Y100.328 E40.39913
G1 X116.465 Y100.443 E40.45426
G1 X117.142 Y100.62 E40.52039
G1 X117.795 Y100.873 E40.58657
G1 X118.202 Y101.077 E40.62959
G1 X118.837 Y101.425 E40.69802
G1 X119.43 Y101.795 E40.76407
G1 X119.977 Y102.232 E40.83023
G1 X120.638 Y102.923 E40.9206
G1 X121.202 Y103.614 E41.00489
G1 X121.613 Y104.18 E41.07099
G1 X121.956 Y104.79 E41.13712
G1 X122.298 Y105.643 E41.22397
G1 X122.52 Y106.346 E41.29363
G1 X122.692 Y107.024 E41.35974
G1 X122.786 Y107.717 E41.42582
G1 X122.804 Y108.177 E41.46933
G1 X122.818 Y114.578 E42.07422
G1 X122.78 Y115.276 E42.14028
G1 X122.69 Y115.839 E42.19416
G1 X122.566 Y116.435 E42.25169
G1 X122.384 Y117.11 E42.31775
G1 X122.127 Y117.761 E42.38389
G1 X121.688 Y118.55 E42.46922
G1 X121.11 Y119.43 E42.56871
G1 X120.694 Y119.991 E42.63471
G1 X120.215 Y120.502 E42.7009
G1 X119.519 Y121.074 E42.78603
G1 X119.018 Y121.427 E42.84395
G1 X118.424 Y121.797 E42.91008
G1 X117.542 Y122.191 E43.00137
G1 X116.971 Y122.394 E43.05864
G1 X116.299 Y122.59 E43.12479
G1 X115.61 Y122.709 E43.19086
G1 X114.958 Y122.748 E43.25259
G1 X108.178 Y122.791 E43.89331
G1 X107.479 Y122.755 E43.95945
G1 X106.885 Y122.661 E44.01628
G1 X106.359 Y122.551 E44.06707
G1 X105.684 Y122.369 E44.13313
G1 X105.033 Y122.111 E44.19931
G1 X104.595 Y121.886 E44.24584
G1 X104.007 Y121.553 E44.3097
G1 X103.419 Y121.174 E44.37581
G1 X102.679 Y120.539 E44.46795
G1 X102.395 Y120.253 E44.50604
G1 X101.931 Y119.729 E44.57218
G1 X101.502 Y119.11 E44.64335
G1 X101.224 Y118.651 E44.69406
G1 X100.896 Y118.033 E44.76018
G1 X100.641 Y117.381 E44.82634
G1 X100.508 Y116.911 E44.8725
G1 X100.354 Y116.271 E44.93471
G1 X100.229 Y115.582 E45.00088
G1 X100.184 Y114.807 E45.07424
G1 X100.218 Y108.1 E45.70806
G1 X100.262 Y107.402 E45.77415
G1 X100.384 Y106.713 E45.84027
G1 X100.559 Y106.115 E45.89916
G1 X100.757 Y105.547 E45.956
G1 X101.025 Y104.9 E46.02218
G1 X101.506 Y104.075 E46.11242
G1 X101.833 Y103.603 E46.16669
G1 X102.264 Y103.051 E46.23287
G1 X102.802 Y102.51 E46.30497
G0 F4500 X103.034 Y102.772
G1 F1800 X103.381 Y102.464 E46.34881
G1 X103.915 Y102.044 E46.41302
G1 X104.555 Y101.657 E46.48369
G1 X105.085 Y101.382 E46.54012
G1 X105.706 Y101.105 E46.60438
G1 X106.354 Y100.903 E46.66852
G1 X106.777 Y100.798 E46.70971
G1 X107.445 Y100.673 E46.77393
G1 X108.106 Y100.628 E46.83654
G1 X114.624 Y100.558 E47.45252
G1 X115.303 Y100.591 E47.51676
G1 X115.824 Y100.671 E47.56658
G1 X116.396 Y100.786 E47.62171
G1 X117.053 Y100.959 E47.68591
G1 X117.686 Y101.208 E47.75019
G1 X118.033 Y101.384 E47.78696
G1 X118.668 Y101.732 E47.85539
G1 X119.244 Y102.093 E47.91963
G1 X119.773 Y102.519 E47.98381
G1 X120.367 Y103.144 E48.0653
G1 X120.931 Y103.835 E48.14959
G1 X121.329 Y104.386 E48.21382
G1 X121.659 Y104.98 E48.27803
G1 X121.964 Y105.748 E48.35612
G1 X122.186 Y106.451 E48.42579
G1 X122.352 Y107.11 E48.49001
G1 X122.44 Y107.783 E48.55415
G1 X122.454 Y108.177 E48.59141
G1 X122.468 Y114.578 E49.1963
G1 X122.43 Y115.257 E49.26057
G1 X122.347 Y115.767 E49.3094
G1 X122.223 Y116.363 E49.36693
G1 X122.046 Y117.019 E49.43113
G1 X121.793 Y117.65 E49.49538
