;FLAVOR:UltiGCode
;TIME:7508
;MATERIAL:12194
;MATERIAL2:0
;NOZZLE_DIAMETER:0.4
;Generated with Cura_SteamEngine 3.4.1
M82 ;absolute extrusion mode

G92 E0
G10
;LAYER_COUNT:151
;LAYER:0
M107
G0 F4500 X73.416 Y92.126 Z0.27
;TYPE:SKIRT
G11
G1 F1800 X73.839 Y91.804 E0.05024
G1 X74.305 Y91.55 E0.10039
G1 X74.803 Y91.369 E0.15046
G1 X75.324 Y91.265 E0.20067
G1 X75.755 Y91.238 E0.24148
G1 X150.741 Y91.238 E7.32766
G1 X151.27 Y91.278 E7.37779
G1 X151.787 Y91.397 E7.42792
G1 X152.281 Y91.592 E7.47811
G1 X152.739 Y91.859 E7.52821
G1 X153.153 Y92.192 E7.57842
G1 X153.511 Y92.583 E7.62852
G1 X153.807 Y93.024 E7.67871
G1 X154.033 Y93.504 E7.72884
G1 X154.185 Y94.012 E7.77895
G1 X154.266 Y94.76 E7.85005
G1 X154.275 Y107.21 E9.02658
G1 X154.432 Y112.743 E9.54966
G1 X154.893 Y118.174 E10.06473
G1 X155.731 Y124.264 E10.64566
G1 X155.764 Y124.793 E10.69575
G1 X155.704 Y125.39 E10.75245
G1 X155.473 Y126.63 E10.87164
G1 X155.337 Y127.142 E10.92171
G1 X155.028 Y127.802 E10.99057
G1 X154.37 Y128.895 E11.11113
G1 X154.063 Y129.328 E11.16129
G1 X153.497 Y129.873 E11.23555
G1 X152.468 Y130.663 E11.35814
G1 X152.024 Y130.954 E11.40831
G1 X151.612 Y131.147 E11.4513
G1 X151.005 Y131.386 E11.51295
G1 X150.24 Y131.592 E11.58782
G1 X149.345 Y131.727 E11.67335
G1 X148.554 Y131.756 E11.74815
G1 X147.918 Y131.708 E11.80842
G1 X147.37 Y131.623 E11.86083
G1 X142.029 Y130.357 E12.37954
G1 X139.372 Y129.833 E12.63546
G1 X136.711 Y129.389 E12.8904
G1 X131.277 Y128.715 E13.40785
G1 X125.809 Y128.349 E13.92573
G1 X122.097 Y128.278 E14.27658
G1 X70.758 Y128.268 E19.12812
G1 X70.229 Y128.228 E19.17825
G1 X69.712 Y128.109 E19.22838
G1 X69.219 Y127.914 E19.27848
G1 X68.76 Y127.646 E19.32871
G1 X68.347 Y127.313 E19.37885
G1 X67.988 Y126.922 E19.42901
G1 X67.693 Y126.482 E19.47907
G1 X67.466 Y126.002 E19.52924
G1 X67.315 Y125.493 E19.57942
G1 X67.234 Y124.743 E19.6507
G1 X67.235 Y100.758 E21.91729
G1 X67.275 Y100.229 E21.96742
G1 X67.394 Y99.712 E22.01755
G1 X67.589 Y99.218 E22.06774
G1 X67.856 Y98.76 E22.11784
G1 X68.052 Y98.502 E22.14846
G1 X73.047 Y92.507 E22.88586
G1 X73.416 Y92.126 E22.93599
G0 F4500 X73.668 Y92.371
G1 F1800 X74.072 Y92.071 E22.98354
G1 X74.519 Y91.838 E23.03117
G1 X74.997 Y91.68 E23.07875
G1 X75.494 Y91.599 E23.12633
G1 X75.755 Y91.588 E23.15102
G1 X150.741 Y91.588 E30.2372
G1 X151.243 Y91.628 E30.28479
G1 X151.732 Y91.747 E30.33235
G1 X152.197 Y91.941 E30.37996
G1 X152.625 Y92.207 E30.42758
G1 X153.005 Y92.537 E30.47514
G1 X153.328 Y92.923 E30.52271
G1 X153.587 Y93.355 E30.5703
G1 X153.774 Y93.823 E30.61793
G1 X153.884 Y94.314 E30.66548
G1 X153.916 Y94.761 E30.70783
G1 X153.925 Y107.22 E31.8852
G1 X154.081 Y112.748 E32.40781
G1 X154.547 Y118.229 E32.92763
G1 X155.384 Y124.311 E33.5078
G1 X155.413 Y124.814 E33.55541
G1 X155.36 Y125.325 E33.60396
G1 X155.129 Y126.565 E33.72316
G1 X154.998 Y127.052 E33.77081
G1 X154.728 Y127.622 E33.83041
G1 X154.07 Y128.715 E33.95098
G1 X153.777 Y129.124 E33.99852
G1 X153.283 Y129.595 E34.06302
G1 X152.254 Y130.385 E34.18562
G1 X151.832 Y130.659 E34.23316
G1 X151.484 Y130.821 E34.26944
G1 X150.877 Y131.06 E34.33109
G1 X150.188 Y131.245 E34.3985
G1 X149.293 Y131.38 E34.48404
G1 X148.58 Y131.407 E34.55146
G1 X147.944 Y131.359 E34.61174
G1 X147.451 Y131.282 E34.65889
G1 X142.124 Y130.019 E35.17625
G1 X139.43 Y129.488 E35.43573
G1 X136.766 Y129.044 E35.69095
G1 X131.307 Y128.367 E36.21078
G1 X125.819 Y127.999 E36.73056
G1 X122.104 Y127.928 E37.08169
G1 X70.758 Y127.918 E41.93388
G1 X70.256 Y127.878 E41.98147
G1 X69.767 Y127.759 E42.02903
G1 X69.303 Y127.564 E42.0766
G1 X68.875 Y127.299 E42.12417
G1 X68.495 Y126.968 E42.17179
G1 X68.171 Y126.582 E42.21941
G1 X67.913 Y126.15 E42.26696
G1 X67.726 Y125.682 E42.31459
G1 X67.616 Y125.191 E42.36214
G1 X67.584 Y124.743 E42.40458
G1 X67.585 Y100.758 E44.67117
G1 X67.625 Y100.256 E44.71876
G1 X67.744 Y99.767 E44.76631
G1 X67.938 Y99.302 E44.81393
G1 X68.321 Y98.726 E44.87929
G1 X73.316 Y92.731 E45.6167
G1 X73.668 Y92.371 E45.66428
G10
G0 F4500 X76.289 Y94.057
G0 X76.289 Y95.292
G0 X76.345 Y101.348
G0 X76.275 Y101.278
;TYPE:WALL-INNER
G11
G1 F1800 X76.275 Y95.278 E46.23128
G1 X150.225 Y95.278 E53.21955
G1 X150.225 Y121.228 E55.67183
G1 X150.137 Y121.228 E55.68014
G1 X149.935 Y122.015 E55.75693
G1 X150.339 Y122.24 E55.80063
G1 X150.648 Y122.465 E55.83675
G1 X150.915 Y122.716 E55.87138
G1 X151.156 Y123.005 E55.90694
G1 X151.359 Y123.325 E55.94275
G1 X151.514 Y123.657 E55.97737
G1 X151.633 Y124.021 E56.01356
G1 X151.699 Y124.372 E56.04731
G1 X151.724 Y124.753 E56.0834
G1 X151.699 Y125.135 E56.11957
G1 X151.633 Y125.486 E56.15332
G1 X151.514 Y125.85 E56.18951
G1 X151.359 Y126.182 E56.22414
G1 X151.156 Y126.502 E56.25995
G1 X150.915 Y126.791 E56.29551
G1 X150.648 Y127.042 E56.33014
G1 X150.34 Y127.266 E56.36613
G1 X150.017 Y127.444 E56.40098
G1 X149.671 Y127.581 E56.43615
G1 X149.299 Y127.676 E56.47243
G1 X148.942 Y127.722 E56.50645
G1 X148.558 Y127.722 E56.54273
G1 X148.201 Y127.676 E56.57675
G1 X147.829 Y127.581 E56.61303
G1 X147.483 Y127.444 E56.6482
G1 X147.16 Y127.266 E56.68305
G1 X146.852 Y127.042 E56.71904
G1 X146.585 Y126.791 E56.75367
G1 X146.344 Y126.502 E56.78923
G1 X146.141 Y126.182 E56.82504
G1 X145.986 Y125.85 E56.85967
G1 X145.867 Y125.486 E56.89586
G1 X145.801 Y125.135 E56.92961
G1 X145.743 Y124.228 E57.01549
G1 X71.275 Y124.228 E64.05272
G1 X71.275 Y101.278 E66.22149
G1 X76.275 Y101.278 E66.69399
G0 F4500 X76.345 Y101.348
G0 X107.188 Y108.235
G0 X107.287 Y108.247
G1 F1800 X107.224 Y109.253 E66.78925
G1 X107.287 Y110.259 E66.8845
G1 X107.477 Y111.25 E66.97986
G1 X107.788 Y112.208 E67.07504
G1 X108.217 Y113.12 E67.17028
G1 X108.757 Y113.971 E67.26552
G1 X109.4 Y114.748 E67.36083
G1 X110.133 Y115.437 E67.4559
G1 X110.95 Y116.03 E67.5513
G1 X111.833 Y116.516 E67.64655
G1 X112.769 Y116.887 E67.74169
G1 X113.746 Y117.138 E67.83702
G1 X114.746 Y117.264 E67.93226
G1 X115.754 Y117.264 E68.02752
G1 X116.754 Y117.138 E68.12277
G1 X117.731 Y116.887 E68.21809
G1 X118.667 Y116.516 E68.31324
G1 X119.55 Y116.03 E68.40849
G1 X120.367 Y115.437 E68.50389
G1 X121.1 Y114.748 E68.59895
G1 X121.743 Y113.971 E68.69426
G1 X122.283 Y113.12 E68.7895
G1 X122.712 Y112.208 E68.88475
G1 X123.023 Y111.25 E68.97993
G1 X123.213 Y110.259 E69.07528
G1 X123.276 Y109.253 E69.17054
G1 X123.213 Y108.247 E69.26579
G1 X123.023 Y107.257 E69.36105
G1 X122.712 Y106.299 E69.45623
G1 X122.283 Y105.387 E69.55148
G1 X121.743 Y104.536 E69.64672
G1 X121.1 Y103.759 E69.74203
G1 X120.367 Y103.07 E69.8371
G1 X119.55 Y102.477 E69.9325
G1 X118.667 Y101.991 E70.02774
G1 X117.731 Y101.62 E70.12289
G1 X116.754 Y101.369 E70.21821
G1 X115.754 Y101.243 E70.31346
G1 X114.746 Y101.243 E70.40872
G1 X113.746 Y101.369 E70.50396
G1 X112.769 Y101.62 E70.59929
G1 X111.833 Y101.991 E70.69444
G1 X110.95 Y102.477 E70.78968
G1 X110.133 Y103.07 E70.88508
G1 X109.4 Y103.759 E70.98015
G1 X108.757 Y104.536 E71.07546
G1 X108.217 Y105.387 E71.1707
G1 X107.788 Y106.299 E71.26594
G1 X107.477 Y107.257 E71.36113
G1 X107.287 Y108.247 E71.45639
G0 F4500 X107.61 Y108.288
;TYPE:WALL-OUTER
G1 F1800 X107.55 Y109.253 E71.54776
G1 X107.61 Y110.218 E71.63913
G1 X107.792 Y111.169 E71.73063
G1 X108.091 Y112.088 E71.82195
G1 X108.502 Y112.963 E71.91331
G1 X109.02 Y113.78 E72.00472
G1 X109.637 Y114.525 E72.09614
G1 X110.341 Y115.186 E72.18739
G1 X111.124 Y115.755 E72.27886
G1 X111.972 Y116.221 E72.3703
G1 X112.87 Y116.577 E72.46159
G1 X113.807 Y116.818 E72.55301
G1 X114.766 Y116.939 E72.64436
G1 X115.734 Y116.939 E72.73583
G1 X116.693 Y116.818 E72.82718
G1 X117.63 Y116.577 E72.91861
G1 X118.528 Y116.221 E73.00989
G1 X119.376 Y115.755 E73.10133
G1 X120.159 Y115.186 E73.1928
G1 X120.863 Y114.525 E73.28406
G1 X121.48 Y113.78 E73.37547
G1 X121.998 Y112.963 E73.46688
G1 X122.409 Y112.088 E73.55824
G1 X122.708 Y111.169 E73.64957
G1 X122.89 Y110.218 E73.74107
G1 X122.95 Y109.253 E73.83244
G1 X122.89 Y108.288 E73.9238
G1 X122.708 Y107.338 E74.01521
G1 X122.409 Y106.419 E74.10654
G1 X121.998 Y105.544 E74.19789
G1 X121.48 Y104.727 E74.28931
G1 X120.863 Y103.982 E74.38072
G1 X120.159 Y103.321 E74.47198
G1 X119.376 Y102.752 E74.56345
G1 X118.528 Y102.286 E74.65488
G1 X117.63 Y101.93 E74.74617
G1 X116.693 Y101.689 E74.8376
G1 X115.734 Y101.568 E74.92894
G1 X114.766 Y101.568 E75.02042
G1 X113.807 Y101.689 E75.11176
G1 X112.87 Y101.93 E75.20319
G1 X111.972 Y102.286 E75.29448
G1 X111.124 Y102.752 E75.38592
G1 X110.341 Y103.321 E75.47738
G1 X109.637 Y103.982 E75.56864
G1 X109.02 Y104.727 E75.66005
G1 X108.502 Y105.544 E75.75147
G1 X108.091 Y106.419 E75.84283
G1 X107.792 Y107.338 E75.93415
G1 X107.61 Y108.288 E76.02556
G0 F4500 X107.598 Y108.487
G0 X107.175 Y108.46
G0 X76.375 Y100.953
G0 X75.95 Y100.953
G1 F1800 X75.95 Y94.953 E76.59256
G1 X150.55 Y94.953 E83.64226
G1 X150.55 Y121.553 E86.15596
G1 X150.467 Y121.553 E86.1638
G1 X150.389 Y121.553 E86.17117
G1 X150.312 Y121.853 E86.20044
G1 X150.38 Y121.89 E86.20776
G1 X150.515 Y121.966 E86.2224
G1 X150.854 Y122.213 E86.26204
G1 X151.155 Y122.495 E86.30101
G1 X151.421 Y122.815 E86.34034
G1 X151.642 Y123.164 E86.37937
G1 X151.818 Y123.54 E86.41861
G1 X151.947 Y123.936 E86.45796
G1 X152.022 Y124.332 E86.49605
G1 X152.049 Y124.753 E86.53592
G1 X152.022 Y125.175 E86.57588
G1 X151.947 Y125.571 E86.61396
G1 X151.818 Y125.967 E86.65332
G1 X151.642 Y126.343 E86.69255
G1 X151.421 Y126.692 E86.73159
G1 X151.155 Y127.012 E86.77091
G1 X150.854 Y127.294 E86.80989
G1 X150.512 Y127.543 E86.84987
G1 X150.159 Y127.737 E86.88793
G1 X149.771 Y127.891 E86.92738
G1 X149.362 Y127.995 E86.96726
G1 X148.961 Y128.047 E87.00547
G1 X148.539 Y128.047 E87.04535
G1 X148.138 Y127.995 E87.08356
G1 X147.729 Y127.891 E87.12345
G1 X147.341 Y127.737 E87.16289
G1 X146.988 Y127.543 E87.20096
G1 X146.646 Y127.294 E87.24094
G1 X146.345 Y127.012 E87.27991
G1 X146.079 Y126.692 E87.31924
G1 X145.858 Y126.343 E87.35827
G1 X145.682 Y125.967 E87.39751
G1 X145.553 Y125.571 E87.43686
G1 X145.478 Y125.175 E87.47495
G1 X145.438 Y124.553 E87.53385
G1 X70.95 Y124.553 E94.57297
G1 X70.95 Y100.953 E96.80317
G1 X75.95 Y100.953 E97.27567
G0 F4500 X75.95 Y100.753
G0 X76.375 Y100.753
G0 X76.615 Y101.618
;TYPE:SKIN
G1 F1800 X76.615 Y95.618 E97.84267
G1 X149.885 Y95.618 E104.76668
G1 X149.885 Y120.888 E107.1547
G1 X149.873 Y120.888 E107.15583
G1 X149.541 Y122.184 E107.28226
G1 X150.16 Y122.528 E107.34918
G1 X150.424 Y122.722 E107.38014
G1 X150.668 Y122.951 E107.41176
G1 X150.879 Y123.204 E107.44289
G1 X151.058 Y123.485 E107.47438
G1 X151.202 Y123.795 E107.50668
G1 X151.303 Y124.104 E107.5374
G1 X151.36 Y124.409 E107.56672
G1 X151.382 Y124.753 E107.5993
G1 X151.36 Y125.098 E107.63196
G1 X151.303 Y125.403 E107.66129
G1 X151.202 Y125.712 E107.69201
G1 X151.058 Y126.022 E107.72431
G1 X150.879 Y126.303 E107.75579
G1 X150.668 Y126.556 E107.78692
G1 X150.429 Y126.781 E107.81794
G1 X150.16 Y126.977 E107.8494
G1 X149.869 Y127.137 E107.88078
G1 X149.572 Y127.255 E107.91098
G1 X149.236 Y127.34 E107.94373
G1 X148.915 Y127.382 E107.97432
G1 X148.585 Y127.382 E108.00551
G1 X148.264 Y127.34 E108.0361
G1 X147.928 Y127.255 E108.06885
G1 X147.631 Y127.137 E108.09906
G1 X147.34 Y126.977 E108.13044
G1 X147.071 Y126.781 E108.16189
G1 X146.832 Y126.556 E108.19291
G1 X146.621 Y126.303 E108.22404
G1 X146.442 Y126.022 E108.25553
G1 X146.298 Y125.712 E108.28783
G1 X146.197 Y125.402 E108.31864
G1 X146.141 Y125.101 E108.34757
G1 X146.062 Y123.888 E108.46244
G1 X71.615 Y123.888 E115.49768
G1 X71.615 Y101.618 E117.6022
G1 X76.615 Y101.618 E118.0747
G0 F4500 X107.147 Y107.172
G1 F1800 X106.949 Y108.204 E118.174
G1 X106.884 Y109.253 E118.27332
G1 X106.949 Y110.302 E118.37264
G1 X107.147 Y111.335 E118.47204
G1 X107.471 Y112.334 E118.57128
G1 X107.918 Y113.284 E118.6705
G1 X108.481 Y114.171 E118.76978
G1 X109.151 Y114.981 E118.86912
G1 X109.916 Y115.699 E118.96826
G1 X110.767 Y116.318 E119.06771
G1 X111.688 Y116.825 E119.16706
G1 X112.664 Y117.211 E119.26624
G1 X113.682 Y117.472 E119.36555
G1 X114.725 Y117.604 E119.4649
G1 X115.775 Y117.604 E119.56413
G1 X116.818 Y117.472 E119.66348
G1 X117.836 Y117.211 E119.76279
G1 X118.812 Y116.825 E119.86197
G1 X119.733 Y116.318 E119.96133
G1 X120.584 Y115.699 E120.06077
G1 X121.349 Y114.981 E120.15991
G1 X122.019 Y114.171 E120.25925
G1 X122.582 Y113.284 E120.35853
G1 X123.029 Y112.334 E120.45775
G1 X123.353 Y111.335 E120.557
G1 X123.551 Y110.302 E120.65639
G1 X123.616 Y109.253 E120.75571
G1 X123.551 Y108.204 E120.85503
G1 X123.353 Y107.172 E120.95434
G1 X123.029 Y106.173 E121.05358
G1 X122.582 Y105.223 E121.1528
G1 X122.019 Y104.336 E121.25208
G1 X121.349 Y103.526 E121.35142
G1 X120.584 Y102.808 E121.45056
G1 X119.733 Y102.189 E121.55001
G1 X118.812 Y101.682 E121.64936
G1 X117.836 Y101.296 E121.74854
G1 X116.818 Y101.035 E121.84785
G1 X115.775 Y100.903 E121.9472
G1 X114.725 Y100.903 E122.04643
G1 X113.682 Y101.035 E122.14578
G1 X112.664 Y101.296 E122.24509
G1 X111.688 Y101.682 E122.34427
G1 X110.767 Y102.189 E122.44362
G1 X109.916 Y102.808 E122.54307
G1 X109.151 Y103.526 E122.64221
G1 X108.481 Y104.336 E122.74155
G1 X107.918 Y105.223 E122.84083
G1 X107.471 Y106.173 E122.94005
G1 X107.147 Y107.172 E123.03929
G0 F4500 X72.252 Y123.729
G1 F1800 X71.772 Y123.25 E123.10338
G0 F4500 X71.772 Y122.755
G1 F1800 X72.747 Y123.729 E123.23361
G1 X72.808 Y123.79
G0 F4500 X73.242 Y123.729
G1 F1800 X71.772 Y122.26 E123.43
G1 X71.711 Y122.199
G0 F4500 X71.772 Y121.765
G1 F1800 X73.737 Y123.729 E123.69254
G1 X73.798 Y123.79
G0 F4500 X74.232 Y123.729
G1 F1800 X71.772 Y121.27 E124.02124
G1 X71.711 Y121.209
G0 F4500 X71.772 Y120.775
G1 F1800 X74.727 Y123.729 E124.41609
G1 X74.788 Y123.79
G0 F4500 X75.222 Y123.729
G1 F1800 X71.772 Y120.28 E124.87709
G1 X71.711 Y120.219
G0 F4500 X71.772 Y119.785
G1 F1800 X75.716 Y123.729 E125.40418
G1 X75.777 Y123.79
G0 F4500 X76.211 Y123.729
G1 F1800 X71.772 Y119.29 E125.99742
G1 X71.711 Y119.229
G0 F4500 X71.772 Y118.795
G1 F1800 X76.706 Y123.729 E126.65681
G1 X76.767 Y123.79
G0 F4500 X77.201 Y123.729
G1 F1800 X71.772 Y118.3 E127.38236
G1 X71.711 Y118.239
G0 F4500 X71.772 Y117.805
G1 F1800 X77.696 Y123.729 E128.17407
G1 X77.757 Y123.79
G0 F4500 X78.191 Y123.729
G1 F1800 X71.772 Y117.31 E129.03192
G1 X71.711 Y117.249
G0 F4500 X71.772 Y116.815
G1 F1800 X78.686 Y123.729 E129.95593
G1 X78.747 Y123.79
G0 F4500 X79.181 Y123.729
G1 F1800 X71.772 Y116.32 E130.94609
G1 X71.711 Y116.259
G0 F4500 X71.772 Y115.825
G1 F1800 X79.676 Y123.729 E132.00241
G1 X79.737 Y123.79
G0 F4500 X80.171 Y123.729
G1 F1800 X71.772 Y115.33 E133.12488
G1 X71.711 Y115.269
G0 F4500 X71.772 Y114.835
G1 F1800 X80.666 Y123.729 E134.3135
G1 X80.727 Y123.79
G0 F4500 X81.161 Y123.729
G1 F1800 X71.772 Y114.34 E135.56828
G1 X71.711 Y114.279
G0 F4500 X71.772 Y113.845
G1 F1800 X81.656 Y123.729 E136.8892
G1 X81.717 Y123.79
G0 F4500 X82.151 Y123.729
G1 F1800 X71.772 Y113.35 E138.27629
G1 X71.711 Y113.289
G0 F4500 X71.772 Y112.855
G1 F1800 X82.646 Y123.729 E139.72952
G1 X82.707 Y123.79
G0 F4500 X83.141 Y123.729
G1 F1800 X71.772 Y112.36 E141.24891
G1 X71.711 Y112.299
G0 F4500 X71.772 Y111.865
G1 F1800 X83.636 Y123.729 E142.83445
G1 X83.697 Y123.79
G0 F4500 X84.131 Y123.729
G1 F1800 X71.772 Y111.37 E144.48615
G1 X71.711 Y111.309
G0 F4500 X71.772 Y110.875
G1 F1800 X84.626 Y123.729 E146.204
G1 X84.687 Y123.79
G0 F4500 X85.121 Y123.729
G1 F1800 X71.772 Y110.38 E147.988
G1 X71.711 Y110.319
G0 F4500 X71.772 Y109.885
G1 F1800 X85.616 Y123.729 E149.83816
G1 X85.677 Y123.79
G0 F4500 X86.111 Y123.729
G1 F1800 X71.772 Y109.39 E151.75447
G1 X71.711 Y109.329
G0 F4500 X71.772 Y108.895
G1 F1800 X86.606 Y123.729 E153.73693
G1 X86.667 Y123.79
G0 F4500 X87.101 Y123.729
G1 F1800 X71.772 Y108.4 E155.78555
G1 X71.711 Y108.339
G0 F4500 X71.772 Y107.905
G1 F1800 X87.596 Y123.729 E157.90032
G1 X87.657 Y123.79
G0 F4500 X88.091 Y123.729
G1 F1800 X71.772 Y107.41 E160.08124
G1 X71.711 Y107.349
G0 F4500 X71.772 Y106.915
G1 F1800 X88.586 Y123.729 E162.32832
G1 X88.647 Y123.79
G0 F4500 X89.081 Y123.729
G1 F1800 X71.772 Y106.42 E164.64155
G1 X71.711 Y106.359
G0 F4500 X71.772 Y105.926
G1 F1800 X89.576 Y123.729 E167.02086
G1 X89.637 Y123.79
G0 F4500 X90.071 Y123.729
G1 F1800 X71.772 Y105.431 E169.46633
G1 X71.711 Y105.37
